(.../pcb-gcode-3.5.2.11/pcb-gcode.ulp)
(Copyright 2005 - 2009 by John Johnson)
(See readme.txt for licensing terms.)
(This file generated from the board:)
(.../docs/examples/04151_lcdi2c.brd)
(Current profile is .../pcb-gcode-3.5.2.11/profiles/emc.pp  )
(This file generated 11/23/11 4:02 PM)
(Settings from pcb-machine.h)
(  Tool Size)
(0.0030 )
(Z Axis Settings)
(  High     Up        Down     Drill)
(0.5000 	0.1000 	-0.0070 	-0.0320 )
(spindle on time = 3.0000)
(milling depth = -0.0100)
(text depth = -0.0050)
(tool change at 0.5000 0.6000 1.5432 )
(feed rate xy = F20.00 )
(feed rate z  = F10.00 )
(Settings from pcb-defaults.h)
(Default isolate = 0.0010)
(isolate max = 0.0002)
(isolate step = 0.0050)
(Generated top outlines, top drill, bottom outlines, )
(Unit of measure: inch)
(Inch Mode)
G20
(Absolute Coordinates)
G90
G00 X0.0000 Y0.0000 
M03
G04 P3.000000
G00 Z0.1000 
G00 X0.8356 Y0.6023 
G01 Z-0.0070 F10.00 
G01 X0.8356 Y0.6776 F20.00 
G01 X0.8305 Y0.6899 
G01 X0.8211 Y0.6993 
G01 X0.8088 Y0.7044 
G01 X0.7955 Y0.7044 
G01 X0.7831 Y0.6993 
G01 X0.7737 Y0.6899 
G01 X0.7686 Y0.6776 
G01 X0.7686 Y0.6023 
G01 X0.7737 Y0.5900 
G01 X0.7831 Y0.5805 
G01 X0.7955 Y0.5754 
G01 X0.8088 Y0.5754 
G01 X0.8211 Y0.5805 
G01 X0.8305 Y0.5900 
G01 X0.8356 Y0.6023 
G00 Z0.1000 
G00 X0.8080 Y0.8577 
G01 Z-0.0070 F10.00 
G01 X0.8080 Y0.7824 F20.00 
G01 X0.8131 Y0.7701 
G01 X0.8225 Y0.7607 
G01 X0.8348 Y0.7556 
G01 X0.8482 Y0.7556 
G01 X0.8605 Y0.7607 
G01 X0.8699 Y0.7701 
G01 X0.8750 Y0.7824 
G01 X0.8750 Y0.8577 
G01 X0.8699 Y0.8700 
G01 X0.8605 Y0.8795 
G01 X0.8482 Y0.8846 
G01 X0.8348 Y0.8846 
G01 X0.8225 Y0.8795 
G01 X0.8131 Y0.8700 
G01 X0.8080 Y0.8577 
G00 Z0.1000 
G00 X0.7569 Y0.6023 
G01 Z-0.0070 F10.00 
G01 X0.7569 Y0.6776 F20.00 
G01 X0.7518 Y0.6899 
G01 X0.7424 Y0.6993 
G01 X0.7300 Y0.7044 
G01 X0.7167 Y0.7044 
G01 X0.7044 Y0.6993 
G01 X0.6950 Y0.6899 
G01 X0.6899 Y0.6776 
G01 X0.6899 Y0.6023 
G01 X0.6950 Y0.5900 
G01 X0.7044 Y0.5805 
G01 X0.7167 Y0.5754 
G01 X0.7300 Y0.5754 
G01 X0.7424 Y0.5805 
G01 X0.7518 Y0.5900 
G01 X0.7569 Y0.6023 
G00 Z0.1000 
G00 X0.9144 Y0.6023 
G01 Z-0.0070 F10.00 
G01 X0.9144 Y0.6776 F20.00 
G01 X0.9093 Y0.6899 
G01 X0.8998 Y0.6993 
G01 X0.8875 Y0.7044 
G01 X0.8742 Y0.7044 
G01 X0.8619 Y0.6993 
G01 X0.8525 Y0.6899 
G01 X0.8474 Y0.6776 
G01 X0.8474 Y0.6023 
G01 X0.8525 Y0.5900 
G01 X0.8619 Y0.5805 
G01 X0.8742 Y0.5754 
G01 X0.8875 Y0.5754 
G01 X0.8998 Y0.5805 
G01 X0.9093 Y0.5900 
G01 X0.9144 Y0.6023 
G00 Z0.1000 
G00 X0.8867 Y0.8577 
G01 Z-0.0070 F10.00 
G01 X0.8867 Y0.7824 F20.00 
G01 X0.8918 Y0.7701 
G01 X0.9013 Y0.7607 
G01 X0.9136 Y0.7556 
G01 X0.9269 Y0.7556 
G01 X0.9392 Y0.7607 
G01 X0.9486 Y0.7701 
G01 X0.9537 Y0.7824 
G01 X0.9537 Y0.8577 
G01 X0.9486 Y0.8700 
G01 X0.9392 Y0.8795 
G01 X0.9269 Y0.8846 
G01 X0.9136 Y0.8846 
G01 X0.9013 Y0.8795 
G01 X0.8918 Y0.8700 
G01 X0.8867 Y0.8577 
G00 Z0.1000 
G00 X0.7293 Y0.8577 
G01 Z-0.0070 F10.00 
G01 X0.7293 Y0.7824 F20.00 
G01 X0.7344 Y0.7701 
G01 X0.7438 Y0.7607 
G01 X0.7561 Y0.7556 
G01 X0.7694 Y0.7556 
G01 X0.7817 Y0.7607 
G01 X0.7912 Y0.7701 
G01 X0.7963 Y0.7824 
G01 X0.7963 Y0.8577 
G01 X0.7912 Y0.8700 
G01 X0.7817 Y0.8795 
G01 X0.7694 Y0.8846 
G01 X0.7561 Y0.8846 
G01 X0.7438 Y0.8795 
G01 X0.7344 Y0.8700 
G01 X0.7293 Y0.8577 
G00 Z0.1000 
G00 X1.5323 Y0.3065 
G01 Z-0.0070 F10.00 
G01 X1.6077 Y0.3065 F20.00 
G01 X1.6200 Y0.3116 
G01 X1.6294 Y0.3210 
G01 X1.6345 Y0.3333 
G01 X1.6345 Y0.3467 
G01 X1.6294 Y0.3590 
G01 X1.6200 Y0.3684 
G01 X1.6077 Y0.3735 
G01 X1.5323 Y0.3735 
G01 X1.5200 Y0.3684 
G01 X1.5106 Y0.3590 
G01 X1.5055 Y0.3467 
G01 X1.5055 Y0.3333 
G01 X1.5106 Y0.3210 
G01 X1.5200 Y0.3116 
G01 X1.5323 Y0.3065 
G00 Z0.1000 
G00 X1.5323 Y0.4065 
G01 Z-0.0070 F10.00 
G01 X1.6077 Y0.4065 F20.00 
G01 X1.6200 Y0.4116 
G01 X1.6294 Y0.4210 
G01 X1.6345 Y0.4333 
G01 X1.6345 Y0.4467 
G01 X1.6294 Y0.4590 
G01 X1.6200 Y0.4684 
G01 X1.6077 Y0.4735 
G01 X1.5323 Y0.4735 
G01 X1.5200 Y0.4684 
G01 X1.5106 Y0.4590 
G01 X1.5055 Y0.4467 
G01 X1.5055 Y0.4333 
G01 X1.5106 Y0.4210 
G01 X1.5200 Y0.4116 
G01 X1.5323 Y0.4065 
G00 Z0.1000 
G00 X1.5323 Y0.5065 
G01 Z-0.0070 F10.00 
G01 X1.6077 Y0.5065 F20.00 
G01 X1.6200 Y0.5116 
G01 X1.6294 Y0.5210 
G01 X1.6345 Y0.5333 
G01 X1.6345 Y0.5467 
G01 X1.6294 Y0.5590 
G01 X1.6200 Y0.5684 
G01 X1.6077 Y0.5735 
G01 X1.5323 Y0.5735 
G01 X1.5200 Y0.5684 
G01 X1.5106 Y0.5590 
G01 X1.5055 Y0.5467 
G01 X1.5055 Y0.5333 
G01 X1.5106 Y0.5210 
G01 X1.5200 Y0.5116 
G01 X1.5323 Y0.5065 
G00 Z0.1000 
G00 X1.5323 Y0.6065 
G01 Z-0.0070 F10.00 
G01 X1.6077 Y0.6065 F20.00 
G01 X1.6200 Y0.6116 
G01 X1.6294 Y0.6210 
G01 X1.6345 Y0.6333 
G01 X1.6345 Y0.6467 
G01 X1.6294 Y0.6590 
G01 X1.6200 Y0.6684 
G01 X1.6077 Y0.6735 
G01 X1.5323 Y0.6735 
G01 X1.5200 Y0.6684 
G01 X1.5106 Y0.6590 
G01 X1.5055 Y0.6467 
G01 X1.5055 Y0.6333 
G01 X1.5106 Y0.6210 
G01 X1.5200 Y0.6116 
G01 X1.5323 Y0.6065 
G00 Z0.1000 
G00 X1.5323 Y0.7065 
G01 Z-0.0070 F10.00 
G01 X1.6077 Y0.7065 F20.00 
G01 X1.6200 Y0.7116 
G01 X1.6294 Y0.7210 
G01 X1.6345 Y0.7333 
G01 X1.6345 Y0.7467 
G01 X1.6294 Y0.7590 
G01 X1.6200 Y0.7684 
G01 X1.6077 Y0.7735 
G01 X1.5323 Y0.7735 
G01 X1.5200 Y0.7684 
G01 X1.5106 Y0.7590 
G01 X1.5055 Y0.7467 
G01 X1.5055 Y0.7333 
G01 X1.5106 Y0.7210 
G01 X1.5200 Y0.7116 
G01 X1.5323 Y0.7065 
G00 Z0.1000 
G00 X1.5323 Y0.8065 
G01 Z-0.0070 F10.00 
G01 X1.6077 Y0.8065 F20.00 
G01 X1.6200 Y0.8116 
G01 X1.6294 Y0.8210 
G01 X1.6345 Y0.8333 
G01 X1.6345 Y0.8467 
G01 X1.6294 Y0.8590 
G01 X1.6200 Y0.8684 
G01 X1.6077 Y0.8735 
G01 X1.5323 Y0.8735 
G01 X1.5200 Y0.8684 
G01 X1.5106 Y0.8590 
G01 X1.5055 Y0.8467 
G01 X1.5055 Y0.8333 
G01 X1.5106 Y0.8210 
G01 X1.5200 Y0.8116 
G01 X1.5323 Y0.8065 
G00 Z0.1000 
G00 X1.5323 Y0.9065 
G01 Z-0.0070 F10.00 
G01 X1.6077 Y0.9065 F20.00 
G01 X1.6200 Y0.9116 
G01 X1.6294 Y0.9210 
G01 X1.6345 Y0.9333 
G01 X1.6345 Y0.9467 
G01 X1.6294 Y0.9590 
G01 X1.6200 Y0.9684 
G01 X1.6077 Y0.9735 
G01 X1.5323 Y0.9735 
G01 X1.5200 Y0.9684 
G01 X1.5106 Y0.9590 
G01 X1.5055 Y0.9467 
G01 X1.5055 Y0.9333 
G01 X1.5106 Y0.9210 
G01 X1.5200 Y0.9116 
G01 X1.5323 Y0.9065 
G00 Z0.1000 
G00 X1.5323 Y1.0065 
G01 Z-0.0070 F10.00 
G01 X1.6077 Y1.0065 F20.00 
G01 X1.6200 Y1.0116 
G01 X1.6294 Y1.0210 
G01 X1.6345 Y1.0333 
G01 X1.6345 Y1.0467 
G01 X1.6294 Y1.0590 
G01 X1.6200 Y1.0684 
G01 X1.6077 Y1.0735 
G01 X1.5323 Y1.0735 
G01 X1.5200 Y1.0684 
G01 X1.5106 Y1.0590 
G01 X1.5055 Y1.0467 
G01 X1.5055 Y1.0333 
G01 X1.5106 Y1.0210 
G01 X1.5200 Y1.0116 
G01 X1.5323 Y1.0065 
G00 Z0.1000 
G00 X1.2323 Y1.0065 
G01 Z-0.0070 F10.00 
G01 X1.3077 Y1.0065 F20.00 
G01 X1.3200 Y1.0116 
G01 X1.3294 Y1.0210 
G01 X1.3345 Y1.0333 
G01 X1.3345 Y1.0467 
G01 X1.3294 Y1.0590 
G01 X1.3200 Y1.0684 
G01 X1.3077 Y1.0735 
G01 X1.2323 Y1.0735 
G01 X1.2200 Y1.0684 
G01 X1.2106 Y1.0590 
G01 X1.2055 Y1.0467 
G01 X1.2055 Y1.0333 
G01 X1.2106 Y1.0210 
G01 X1.2200 Y1.0116 
G01 X1.2323 Y1.0065 
G00 Z0.1000 
G00 X1.2323 Y0.9065 
G01 Z-0.0070 F10.00 
G01 X1.3077 Y0.9065 F20.00 
G01 X1.3200 Y0.9116 
G01 X1.3294 Y0.9210 
G01 X1.3345 Y0.9333 
G01 X1.3345 Y0.9467 
G01 X1.3294 Y0.9590 
G01 X1.3200 Y0.9684 
G01 X1.3077 Y0.9735 
G01 X1.2323 Y0.9735 
G01 X1.2200 Y0.9684 
G01 X1.2106 Y0.9590 
G01 X1.2055 Y0.9467 
G01 X1.2055 Y0.9333 
G01 X1.2106 Y0.9210 
G01 X1.2200 Y0.9116 
G01 X1.2323 Y0.9065 
G00 Z0.1000 
G00 X1.2323 Y0.8065 
G01 Z-0.0070 F10.00 
G01 X1.3077 Y0.8065 F20.00 
G01 X1.3200 Y0.8116 
G01 X1.3294 Y0.8210 
G01 X1.3345 Y0.8333 
G01 X1.3345 Y0.8467 
G01 X1.3294 Y0.8590 
G01 X1.3200 Y0.8684 
G01 X1.3077 Y0.8735 
G01 X1.2323 Y0.8735 
G01 X1.2200 Y0.8684 
G01 X1.2106 Y0.8590 
G01 X1.2055 Y0.8467 
G01 X1.2055 Y0.8333 
G01 X1.2106 Y0.8210 
G01 X1.2200 Y0.8116 
G01 X1.2323 Y0.8065 
G00 Z0.1000 
G00 X1.2323 Y0.7065 
G01 Z-0.0070 F10.00 
G01 X1.3077 Y0.7065 F20.00 
G01 X1.3200 Y0.7116 
G01 X1.3294 Y0.7210 
G01 X1.3345 Y0.7333 
G01 X1.3345 Y0.7467 
G01 X1.3294 Y0.7590 
G01 X1.3200 Y0.7684 
G01 X1.3077 Y0.7735 
G01 X1.2323 Y0.7735 
G01 X1.2200 Y0.7684 
G01 X1.2106 Y0.7590 
G01 X1.2055 Y0.7467 
G01 X1.2055 Y0.7333 
G01 X1.2106 Y0.7210 
G01 X1.2200 Y0.7116 
G01 X1.2323 Y0.7065 
G00 Z0.1000 
G00 X1.2323 Y0.6065 
G01 Z-0.0070 F10.00 
G01 X1.3077 Y0.6065 F20.00 
G01 X1.3200 Y0.6116 
G01 X1.3294 Y0.6210 
G01 X1.3345 Y0.6333 
G01 X1.3345 Y0.6467 
G01 X1.3294 Y0.6590 
G01 X1.3200 Y0.6684 
G01 X1.3077 Y0.6735 
G01 X1.2323 Y0.6735 
G01 X1.2200 Y0.6684 
G01 X1.2106 Y0.6590 
G01 X1.2055 Y0.6467 
G01 X1.2055 Y0.6333 
G01 X1.2106 Y0.6210 
G01 X1.2200 Y0.6116 
G01 X1.2323 Y0.6065 
G00 Z0.1000 
G00 X1.2323 Y0.5065 
G01 Z-0.0070 F10.00 
G01 X1.3077 Y0.5065 F20.00 
G01 X1.3200 Y0.5116 
G01 X1.3294 Y0.5210 
G01 X1.3345 Y0.5333 
G01 X1.3345 Y0.5467 
G01 X1.3294 Y0.5590 
G01 X1.3200 Y0.5684 
G01 X1.3077 Y0.5735 
G01 X1.2323 Y0.5735 
G01 X1.2200 Y0.5684 
G01 X1.2106 Y0.5590 
G01 X1.2055 Y0.5467 
G01 X1.2055 Y0.5333 
G01 X1.2106 Y0.5210 
G01 X1.2200 Y0.5116 
G01 X1.2323 Y0.5065 
G00 Z0.1000 
G00 X1.2323 Y0.4065 
G01 Z-0.0070 F10.00 
G01 X1.3077 Y0.4065 F20.00 
G01 X1.3200 Y0.4116 
G01 X1.3294 Y0.4210 
G01 X1.3345 Y0.4333 
G01 X1.3345 Y0.4467 
G01 X1.3294 Y0.4590 
G01 X1.3200 Y0.4684 
G01 X1.3077 Y0.4735 
G01 X1.2323 Y0.4735 
G01 X1.2200 Y0.4684 
G01 X1.2106 Y0.4590 
G01 X1.2055 Y0.4467 
G01 X1.2055 Y0.4333 
G01 X1.2106 Y0.4210 
G01 X1.2200 Y0.4116 
G01 X1.2323 Y0.4065 
G00 Z0.1000 
G00 X1.2323 Y0.3065 
G01 Z-0.0070 F10.00 
G01 X1.3077 Y0.3065 F20.00 
G01 X1.3200 Y0.3116 
G01 X1.3294 Y0.3210 
G01 X1.3345 Y0.3333 
G01 X1.3345 Y0.3467 
G01 X1.3294 Y0.3590 
G01 X1.3200 Y0.3684 
G01 X1.3077 Y0.3735 
G01 X1.2323 Y0.3735 
G01 X1.2200 Y0.3684 
G01 X1.2106 Y0.3590 
G01 X1.2055 Y0.3467 
G01 X1.2055 Y0.3333 
G01 X1.2106 Y0.3210 
G01 X1.2200 Y0.3116 
G01 X1.2323 Y0.3065 
G00 Z0.1000 
G00 X0.3275 Y0.9845 
G01 Z-0.0070 F10.00 
G01 X0.3275 Y1.0155 F20.00 
G01 X0.3055 Y1.0375 
G01 X0.2745 Y1.0375 
G01 X0.2525 Y1.0155 
G01 X0.2525 Y0.9845 
G01 X0.2745 Y0.9625 
G01 X0.3055 Y0.9625 
G01 X0.3275 Y0.9845 
G00 Z0.1000 
G00 X0.3275 Y0.8845 
G01 Z-0.0070 F10.00 
G01 X0.3275 Y0.9155 F20.00 
G01 X0.3055 Y0.9375 
G01 X0.2745 Y0.9375 
G01 X0.2525 Y0.9155 
G01 X0.2525 Y0.8845 
G01 X0.2745 Y0.8625 
G01 X0.3055 Y0.8625 
G01 X0.3275 Y0.8845 
G00 Z0.1000 
G00 X0.3275 Y0.7845 
G01 Z-0.0070 F10.00 
G01 X0.3275 Y0.8155 F20.00 
G01 X0.3055 Y0.8375 
G01 X0.2745 Y0.8375 
G01 X0.2525 Y0.8155 
G01 X0.2525 Y0.7845 
G01 X0.2745 Y0.7625 
G01 X0.3055 Y0.7625 
G01 X0.3275 Y0.7845 
G00 Z0.1000 
G00 X0.3275 Y0.6845 
G01 Z-0.0070 F10.00 
G01 X0.3275 Y0.7155 F20.00 
G01 X0.3055 Y0.7375 
G01 X0.2745 Y0.7375 
G01 X0.2525 Y0.7155 
G01 X0.2525 Y0.6845 
G01 X0.2745 Y0.6625 
G01 X0.3055 Y0.6625 
G01 X0.3275 Y0.6845 
G00 Z0.1000 
G00 X0.3275 Y0.5845 
G01 Z-0.0070 F10.00 
G01 X0.3275 Y0.6155 F20.00 
G01 X0.3055 Y0.6375 
G01 X0.2745 Y0.6375 
G01 X0.2525 Y0.6155 
G01 X0.2525 Y0.5845 
G01 X0.2745 Y0.5625 
G01 X0.3055 Y0.5625 
G01 X0.3275 Y0.5845 
G00 Z0.1000 
G00 X0.3275 Y0.4845 
G01 Z-0.0070 F10.00 
G01 X0.3275 Y0.5155 F20.00 
G01 X0.3055 Y0.5375 
G01 X0.2745 Y0.5375 
G01 X0.2525 Y0.5155 
G01 X0.2525 Y0.4845 
G01 X0.2745 Y0.4625 
G01 X0.3055 Y0.4625 
G01 X0.3275 Y0.4845 
G00 Z0.1000 
G00 X0.2275 Y0.9845 
G01 Z-0.0070 F10.00 
G01 X0.2275 Y1.0155 F20.00 
G01 X0.2055 Y1.0375 
G01 X0.1745 Y1.0375 
G01 X0.1525 Y1.0155 
G01 X0.1525 Y0.9845 
G01 X0.1745 Y0.9625 
G01 X0.2055 Y0.9625 
G01 X0.2275 Y0.9845 
G00 Z0.1000 
G00 X0.2275 Y0.8845 
G01 Z-0.0070 F10.00 
G01 X0.2275 Y0.9155 F20.00 
G01 X0.2055 Y0.9375 
G01 X0.1745 Y0.9375 
G01 X0.1525 Y0.9155 
G01 X0.1525 Y0.8845 
G01 X0.1745 Y0.8625 
G01 X0.2055 Y0.8625 
G01 X0.2275 Y0.8845 
G00 Z0.1000 
G00 X0.2275 Y0.7845 
G01 Z-0.0070 F10.00 
G01 X0.2275 Y0.8155 F20.00 
G01 X0.2055 Y0.8375 
G01 X0.1745 Y0.8375 
G01 X0.1525 Y0.8155 
G01 X0.1525 Y0.7845 
G01 X0.1745 Y0.7625 
G01 X0.2055 Y0.7625 
G01 X0.2275 Y0.7845 
G00 Z0.1000 
G00 X0.2275 Y0.6845 
G01 Z-0.0070 F10.00 
G01 X0.2275 Y0.7155 F20.00 
G01 X0.2055 Y0.7375 
G01 X0.1745 Y0.7375 
G01 X0.1525 Y0.7155 
G01 X0.1525 Y0.6845 
G01 X0.1745 Y0.6625 
G01 X0.2055 Y0.6625 
G01 X0.2275 Y0.6845 
G00 Z0.1000 
G00 X0.2275 Y0.5845 
G01 Z-0.0070 F10.00 
G01 X0.2275 Y0.6155 F20.00 
G01 X0.2055 Y0.6375 
G01 X0.1745 Y0.6375 
G01 X0.1525 Y0.6155 
G01 X0.1525 Y0.5845 
G01 X0.1745 Y0.5625 
G01 X0.2055 Y0.5625 
G01 X0.2275 Y0.5845 
G00 Z0.1000 
G00 X0.2275 Y0.4845 
G01 Z-0.0070 F10.00 
G01 X0.2275 Y0.5155 F20.00 
G01 X0.2055 Y0.5375 
G01 X0.1745 Y0.5375 
G01 X0.1525 Y0.5155 
G01 X0.1525 Y0.4845 
G01 X0.1745 Y0.4625 
G01 X0.2055 Y0.4625 
G01 X0.2275 Y0.4845 
G00 Z0.1000 
G00 X0.3275 Y0.3845 
G01 Z-0.0070 F10.00 
G01 X0.3275 Y0.4155 F20.00 
G01 X0.3055 Y0.4375 
G01 X0.2745 Y0.4375 
G01 X0.2525 Y0.4155 
G01 X0.2525 Y0.3845 
G01 X0.2745 Y0.3625 
G01 X0.3055 Y0.3625 
G01 X0.3275 Y0.3845 
G00 Z0.1000 
G00 X0.2275 Y0.3845 
G01 Z-0.0070 F10.00 
G01 X0.2275 Y0.4155 F20.00 
G01 X0.2055 Y0.4375 
G01 X0.1745 Y0.4375 
G01 X0.1525 Y0.4155 
G01 X0.1525 Y0.3845 
G01 X0.1745 Y0.3625 
G01 X0.2055 Y0.3625 
G01 X0.2275 Y0.3845 
G00 Z0.1000 
G00 X0.8377 Y0.4035 
G01 Z-0.0070 F10.00 
G01 X0.7623 Y0.4035 F20.00 
G01 X0.7500 Y0.3984 
G01 X0.7406 Y0.3890 
G01 X0.7355 Y0.3767 
G01 X0.7355 Y0.3633 
G01 X0.7406 Y0.3510 
G01 X0.7500 Y0.3416 
G01 X0.7623 Y0.3365 
G01 X0.8377 Y0.3365 
G01 X0.8500 Y0.3416 
G01 X0.8594 Y0.3510 
G01 X0.8645 Y0.3633 
G01 X0.8645 Y0.3767 
G01 X0.8594 Y0.3890 
G01 X0.8500 Y0.3984 
G01 X0.8377 Y0.4035 
G00 Z0.1000 
G00 X1.1377 Y0.3035 
G01 Z-0.0070 F10.00 
G01 X1.0623 Y0.3035 F20.00 
G01 X1.0500 Y0.2984 
G01 X1.0406 Y0.2890 
G01 X1.0355 Y0.2767 
G01 X1.0355 Y0.2633 
G01 X1.0406 Y0.2510 
G01 X1.0500 Y0.2416 
G01 X1.0623 Y0.2365 
G01 X1.1377 Y0.2365 
G01 X1.1500 Y0.2416 
G01 X1.1594 Y0.2510 
G01 X1.1645 Y0.2633 
G01 X1.1645 Y0.2767 
G01 X1.1594 Y0.2890 
G01 X1.1500 Y0.2984 
G01 X1.1377 Y0.3035 
G00 Z0.1000 
G00 X0.6377 Y0.3035 
G01 Z-0.0070 F10.00 
G01 X0.5623 Y0.3035 F20.00 
G01 X0.5500 Y0.2984 
G01 X0.5406 Y0.2890 
G01 X0.5355 Y0.2767 
G01 X0.5355 Y0.2633 
G01 X0.5406 Y0.2510 
G01 X0.5500 Y0.2416 
G01 X0.5623 Y0.2365 
G01 X0.6377 Y0.2365 
G01 X0.6500 Y0.2416 
G01 X0.6594 Y0.2510 
G01 X0.6645 Y0.2633 
G01 X0.6645 Y0.2767 
G01 X0.6594 Y0.2890 
G01 X0.6500 Y0.2984 
G01 X0.6377 Y0.3035 
G00 Z0.1000 
G00 X2.1123 Y0.1165 
G01 Z-0.0070 F10.00 
G01 X2.1877 Y0.1165 F20.00 
G01 X2.2000 Y0.1216 
G01 X2.2094 Y0.1310 
G01 X2.2145 Y0.1433 
G01 X2.2145 Y0.1567 
G01 X2.2094 Y0.1690 
G01 X2.2000 Y0.1784 
G01 X2.1877 Y0.1835 
G01 X2.1123 Y0.1835 
G01 X2.1000 Y0.1784 
G01 X2.0906 Y0.1690 
G01 X2.0855 Y0.1567 
G01 X2.0855 Y0.1433 
G01 X2.0906 Y0.1310 
G01 X2.1000 Y0.1216 
G01 X2.1123 Y0.1165 
G00 Z0.1000 
G00 X2.1123 Y0.2165 
G01 Z-0.0070 F10.00 
G01 X2.1877 Y0.2165 F20.00 
G01 X2.2000 Y0.2216 
G01 X2.2094 Y0.2310 
G01 X2.2145 Y0.2433 
G01 X2.2145 Y0.2567 
G01 X2.2094 Y0.2690 
G01 X2.2000 Y0.2784 
G01 X2.1877 Y0.2835 
G01 X2.1123 Y0.2835 
G01 X2.1000 Y0.2784 
G01 X2.0906 Y0.2690 
G01 X2.0855 Y0.2567 
G01 X2.0855 Y0.2433 
G01 X2.0906 Y0.2310 
G01 X2.1000 Y0.2216 
G01 X2.1123 Y0.2165 
G00 Z0.1000 
G00 X2.1123 Y0.3165 
G01 Z-0.0070 F10.00 
G01 X2.1877 Y0.3165 F20.00 
G01 X2.2000 Y0.3216 
G01 X2.2094 Y0.3310 
G01 X2.2145 Y0.3433 
G01 X2.2145 Y0.3567 
G01 X2.2094 Y0.3690 
G01 X2.2000 Y0.3784 
G01 X2.1877 Y0.3835 
G01 X2.1123 Y0.3835 
G01 X2.1000 Y0.3784 
G01 X2.0906 Y0.3690 
G01 X2.0855 Y0.3567 
G01 X2.0855 Y0.3433 
G01 X2.0906 Y0.3310 
G01 X2.1000 Y0.3216 
G01 X2.1123 Y0.3165 
G00 Z0.1000 
G00 X1.8123 Y0.3165 
G01 Z-0.0070 F10.00 
G01 X1.8877 Y0.3165 F20.00 
G01 X1.9000 Y0.3216 
G01 X1.9094 Y0.3310 
G01 X1.9145 Y0.3433 
G01 X1.9145 Y0.3567 
G01 X1.9094 Y0.3690 
G01 X1.9000 Y0.3784 
G01 X1.8877 Y0.3835 
G01 X1.8123 Y0.3835 
G01 X1.8000 Y0.3784 
G01 X1.7906 Y0.3690 
G01 X1.7855 Y0.3567 
G01 X1.7855 Y0.3433 
G01 X1.7906 Y0.3310 
G01 X1.8000 Y0.3216 
G01 X1.8123 Y0.3165 
G00 Z0.1000 
G00 X1.8123 Y0.2165 
G01 Z-0.0070 F10.00 
G01 X1.8877 Y0.2165 F20.00 
G01 X1.9000 Y0.2216 
G01 X1.9094 Y0.2310 
G01 X1.9145 Y0.2433 
G01 X1.9145 Y0.2567 
G01 X1.9094 Y0.2690 
G01 X1.9000 Y0.2784 
G01 X1.8877 Y0.2835 
G01 X1.8123 Y0.2835 
G01 X1.8000 Y0.2784 
G01 X1.7906 Y0.2690 
G01 X1.7855 Y0.2567 
G01 X1.7855 Y0.2433 
G01 X1.7906 Y0.2310 
G01 X1.8000 Y0.2216 
G01 X1.8123 Y0.2165 
G00 Z0.1000 
G00 X1.8123 Y0.1165 
G01 Z-0.0070 F10.00 
G01 X1.8877 Y0.1165 F20.00 
G01 X1.9000 Y0.1216 
G01 X1.9094 Y0.1310 
G01 X1.9145 Y0.1433 
G01 X1.9145 Y0.1567 
G01 X1.9094 Y0.1690 
G01 X1.9000 Y0.1784 
G01 X1.8877 Y0.1835 
G01 X1.8123 Y0.1835 
G01 X1.8000 Y0.1784 
G01 X1.7906 Y0.1690 
G01 X1.7855 Y0.1567 
G01 X1.7855 Y0.1433 
G01 X1.7906 Y0.1310 
G01 X1.8000 Y0.1216 
G01 X1.8123 Y0.1165 
G00 Z0.1000 
G00 X1.8335 Y0.6661 
G01 Z-0.0070 F10.00 
G01 X1.8335 Y0.6939 F20.00 
G01 X1.8139 Y0.7135 
G01 X1.7861 Y0.7135 
G01 X1.7665 Y0.6939 
G01 X1.7665 Y0.6661 
G01 X1.7861 Y0.6465 
G01 X1.8139 Y0.6465 
G01 X1.8335 Y0.6661 
G00 Z0.1000 
G00 X1.8335 Y0.4661 
G01 Z-0.0070 F10.00 
G01 X1.8335 Y0.4939 F20.00 
G01 X1.8139 Y0.5135 
G01 X1.7861 Y0.5135 
G01 X1.7665 Y0.4939 
G01 X1.7665 Y0.4661 
G01 X1.7861 Y0.4465 
G01 X1.8139 Y0.4465 
G01 X1.8335 Y0.4661 
G00 Z0.1000 
G00 X1.9535 Y0.6661 
G01 Z-0.0070 F10.00 
G01 X1.9535 Y0.6939 F20.00 
G01 X1.9339 Y0.7135 
G01 X1.9061 Y0.7135 
G01 X1.8865 Y0.6939 
G01 X1.8865 Y0.6661 
G01 X1.9061 Y0.6465 
G01 X1.9339 Y0.6465 
G01 X1.9535 Y0.6661 
G00 Z0.1000 
G00 X1.9535 Y0.4661 
G01 Z-0.0070 F10.00 
G01 X1.9535 Y0.4939 F20.00 
G01 X1.9339 Y0.5135 
G01 X1.9061 Y0.5135 
G01 X1.8865 Y0.4939 
G01 X1.8865 Y0.4661 
G01 X1.9061 Y0.4465 
G01 X1.9339 Y0.4465 
G01 X1.9535 Y0.4661 
G00 Z0.1000 
G00 X2.0735 Y0.6661 
G01 Z-0.0070 F10.00 
G01 X2.0735 Y0.6939 F20.00 
G01 X2.0539 Y0.7135 
G01 X2.0261 Y0.7135 
G01 X2.0065 Y0.6939 
G01 X2.0065 Y0.6661 
G01 X2.0261 Y0.6465 
G01 X2.0539 Y0.6465 
G01 X2.0735 Y0.6661 
G00 Z0.1000 
G00 X2.0735 Y0.4661 
G01 Z-0.0070 F10.00 
G01 X2.0735 Y0.4939 F20.00 
G01 X2.0539 Y0.5135 
G01 X2.0261 Y0.5135 
G01 X2.0065 Y0.4939 
G01 X2.0065 Y0.4661 
G01 X2.0261 Y0.4465 
G01 X2.0539 Y0.4465 
G01 X2.0735 Y0.4661 
G00 Z0.1000 
G00 X1.3035 Y0.2161 
G01 Z-0.0070 F10.00 
G01 X1.3035 Y0.2439 F20.00 
G01 X1.2839 Y0.2635 
G01 X1.2561 Y0.2635 
G01 X1.2365 Y0.2439 
G01 X1.2365 Y0.2161 
G01 X1.2561 Y0.1965 
G01 X1.2839 Y0.1965 
G01 X1.3035 Y0.2161 
G00 Z0.1000 
G00 X1.4035 Y0.2161 
G01 Z-0.0070 F10.00 
G01 X1.4035 Y0.2439 F20.00 
G01 X1.3839 Y0.2635 
G01 X1.3561 Y0.2635 
G01 X1.3365 Y0.2439 
G01 X1.3365 Y0.2161 
G01 X1.3561 Y0.1965 
G01 X1.3839 Y0.1965 
G01 X1.4035 Y0.2161 
G00 Z0.1000 
G00 X2.3525 Y1.0083 
G01 Z-0.0070 F10.00 
G01 X2.3525 Y1.0517 F20.00 
G01 X2.3217 Y1.0825 
G01 X2.2783 Y1.0825 
G01 X2.2475 Y1.0517 
G01 X2.2475 Y1.0083 
G01 X2.2783 Y0.9775 
G01 X2.3217 Y0.9775 
G01 X2.3525 Y1.0083 
G00 Z0.1000 
G00 X2.0525 Y1.0083 
G01 Z-0.0070 F10.00 
G01 X2.0525 Y1.0517 F20.00 
G01 X2.0217 Y1.0825 
G01 X1.9783 Y1.0825 
G01 X1.9475 Y1.0517 
G01 X1.9475 Y1.0083 
G01 X1.9783 Y0.9775 
G01 X2.0217 Y0.9775 
G01 X2.0525 Y1.0083 
G00 Z0.1000 
G00 X0.5435 Y0.9861 
G01 Z-0.0070 F10.00 
G01 X0.5435 Y1.0139 F20.00 
G01 X0.5239 Y1.0335 
G01 X0.4961 Y1.0335 
G01 X0.4765 Y1.0139 
G01 X0.4765 Y0.9861 
G01 X0.4961 Y0.9665 
G01 X0.5239 Y0.9665 
G01 X0.5435 Y0.9861 
G00 Z0.1000 
G00 X0.4435 Y0.9861 
G01 Z-0.0070 F10.00 
G01 X0.4435 Y1.0139 F20.00 
G01 X0.4239 Y1.0335 
G01 X0.3961 Y1.0335 
G01 X0.3765 Y1.0139 
G01 X0.3765 Y0.9861 
G01 X0.3961 Y0.9665 
G01 X0.4239 Y0.9665 
G01 X0.4435 Y0.9861 
G00 Z0.1000 
G00 X1.4235 Y1.1561 
G01 Z-0.0070 F10.00 
G01 X1.4235 Y1.1839 F20.00 
G01 X1.4039 Y1.2035 
G01 X1.3761 Y1.2035 
G01 X1.3565 Y1.1839 
G01 X1.3565 Y1.1561 
G01 X1.3761 Y1.1365 
G01 X1.4039 Y1.1365 
G01 X1.4235 Y1.1561 
G00 Z0.1000 
G00 X1.4735 Y1.2311 
G01 Z-0.0070 F10.00 
G01 X1.4735 Y1.2589 F20.00 
G01 X1.4539 Y1.2785 
G01 X1.4261 Y1.2785 
G01 X1.4065 Y1.2589 
G01 X1.4065 Y1.2311 
G01 X1.4261 Y1.2115 
G01 X1.4539 Y1.2115 
G01 X1.4735 Y1.2311 
G00 Z0.1000 
G00 X1.5235 Y1.1561 
G01 Z-0.0070 F10.00 
G01 X1.5235 Y1.1839 F20.00 
G01 X1.5039 Y1.2035 
G01 X1.4761 Y1.2035 
G01 X1.4565 Y1.1839 
G01 X1.4565 Y1.1561 
G01 X1.4761 Y1.1365 
G01 X1.5039 Y1.1365 
G01 X1.5235 Y1.1561 
G00 Z0.1000 
G00 X1.1755 Y1.1709 
G01 Z-0.0070 F10.00 
G01 X1.1755 Y1.1891 F20.00 
G01 X1.1686 Y1.2058 
G01 X1.1558 Y1.2186 
G01 X1.1391 Y1.2255 
G01 X1.1209 Y1.2255 
G01 X1.1042 Y1.2186 
G01 X1.0914 Y1.2058 
G01 X1.0845 Y1.1891 
G01 X1.0845 Y1.1709 
G01 X1.0914 Y1.1542 
G01 X1.1042 Y1.1414 
G01 X1.1209 Y1.1345 
G01 X1.1391 Y1.1345 
G01 X1.1558 Y1.1414 
G01 X1.1686 Y1.1542 
G01 X1.1755 Y1.1709 
G00 Z0.1000 
G00 X1.2755 Y1.1612 
G01 Z-0.0070 F10.00 
G01 X1.2755 Y1.1988 F20.00 
G01 X1.2488 Y1.2255 
G01 X1.2112 Y1.2255 
G01 X1.1845 Y1.1988 
G01 X1.1845 Y1.1612 
G01 X1.2112 Y1.1345 
G01 X1.2488 Y1.1345 
G01 X1.2755 Y1.1612 
G00 Z0.1000 
G00 X1.7955 Y1.2109 
G01 Z-0.0070 F10.00 
G01 X1.7955 Y1.2291 F20.00 
G01 X1.7886 Y1.2458 
G01 X1.7758 Y1.2586 
G01 X1.7591 Y1.2655 
G01 X1.7409 Y1.2655 
G01 X1.7242 Y1.2586 
G01 X1.7114 Y1.2458 
G01 X1.7045 Y1.2291 
G01 X1.7045 Y1.2109 
G01 X1.7114 Y1.1942 
G01 X1.7242 Y1.1814 
G01 X1.7409 Y1.1745 
G01 X1.7591 Y1.1745 
G01 X1.7758 Y1.1814 
G01 X1.7886 Y1.1942 
G01 X1.7955 Y1.2109 
G00 Z0.1000 
G00 X1.7955 Y1.1012 
G01 Z-0.0070 F10.00 
G01 X1.7955 Y1.1388 F20.00 
G01 X1.7688 Y1.1655 
G01 X1.7312 Y1.1655 
G01 X1.7045 Y1.1388 
G01 X1.7045 Y1.1012 
G01 X1.7312 Y1.0745 
G01 X1.7688 Y1.0745 
G01 X1.7955 Y1.1012 
G00 Z0.1000 
G00 X0.1500 Y1.1900 
G01 Z-0.0110 F10.00 
G00 Z0.1000 
G00 X0.1500 Y0.1300 
G01 Z-0.0110 F10.00 
G00 Z0.1000 
G00 X1.2700 Y0.2300 
G01 Z-0.0110 F10.00 
G00 Z0.1000 
G00 X1.3700 Y0.2300 
G01 Z-0.0110 F10.00 
G00 Z0.1000 
G00 X0.5100 Y1.0000 
G01 Z-0.0110 F10.00 
G00 Z0.1000 
G00 X0.4100 Y1.0000 
G01 Z-0.0110 F10.00 
G00 Z0.1000 
G00 X1.1300 Y1.1800 
G01 Z-0.0110 F10.00 
G00 Z0.1000 
G00 X1.2300 Y1.1800 
G01 Z-0.0110 F10.00 
G00 Z0.1000 
G00 X1.7500 Y1.2200 
G01 Z-0.0110 F10.00 
G00 Z0.1000 
G00 X1.7500 Y1.1200 
G01 Z-0.0110 F10.00 
G00 Z0.1000 
G00 X1.5700 Y0.3400 
G01 Z-0.0110 F10.00 
G00 Z0.1000 
G00 X1.5700 Y0.4400 
G01 Z-0.0110 F10.00 
G00 Z0.1000 
G00 X1.5700 Y0.5400 
G01 Z-0.0110 F10.00 
G00 Z0.1000 
G00 X1.5700 Y0.6400 
G01 Z-0.0110 F10.00 
G00 Z0.1000 
G00 X1.5700 Y0.7400 
G01 Z-0.0110 F10.00 
G00 Z0.1000 
G00 X1.5700 Y0.8400 
G01 Z-0.0110 F10.00 
G00 Z0.1000 
G00 X1.5700 Y0.9400 
G01 Z-0.0110 F10.00 
G00 Z0.1000 
G00 X1.5700 Y1.0400 
G01 Z-0.0110 F10.00 
G00 Z0.1000 
G00 X1.2700 Y1.0400 
G01 Z-0.0110 F10.00 
G00 Z0.1000 
G00 X1.2700 Y0.9400 
G01 Z-0.0110 F10.00 
G00 Z0.1000 
G00 X1.2700 Y0.8400 
G01 Z-0.0110 F10.00 
G00 Z0.1000 
G00 X1.2700 Y0.7400 
G01 Z-0.0110 F10.00 
G00 Z0.1000 
G00 X1.2700 Y0.6400 
G01 Z-0.0110 F10.00 
G00 Z0.1000 
G00 X1.2700 Y0.5400 
G01 Z-0.0110 F10.00 
G00 Z0.1000 
G00 X1.2700 Y0.4400 
G01 Z-0.0110 F10.00 
G00 Z0.1000 
G00 X1.2700 Y0.3400 
G01 Z-0.0110 F10.00 
G00 Z0.1000 
G00 X1.3900 Y1.1700 
G01 Z-0.0110 F10.00 
G00 Z0.1000 
G00 X1.4400 Y1.2450 
G01 Z-0.0110 F10.00 
G00 Z0.1000 
G00 X1.4900 Y1.1700 
G01 Z-0.0110 F10.00 
G00 Z0.1000 
G00 X0.6000 Y0.2700 
G01 Z-0.0110 F10.00 
G00 Z0.1000 
G00 X1.1000 Y0.2700 
G01 Z-0.0110 F10.00 
G00 Z0.1000 
G00 X0.8000 Y0.3700 
G01 Z-0.0110 F10.00 
G00 Z0.1000 
G00 X1.8000 Y0.6800 
G01 Z-0.0110 F10.00 
G00 Z0.1000 
G00 X1.8000 Y0.4800 
G01 Z-0.0110 F10.00 
G00 Z0.1000 
G00 X1.9200 Y0.6800 
G01 Z-0.0110 F10.00 
G00 Z0.1000 
G00 X1.9200 Y0.4800 
G01 Z-0.0110 F10.00 
G00 Z0.1000 
G00 X2.0400 Y0.6800 
G01 Z-0.0110 F10.00 
G00 Z0.1000 
G00 X2.0400 Y0.4800 
G01 Z-0.0110 F10.00 
G00 Z0.1000 
G00 X2.1500 Y0.1500 
G01 Z-0.0110 F10.00 
G00 Z0.1000 
G00 X2.1500 Y0.2500 
G01 Z-0.0110 F10.00 
G00 Z0.1000 
G00 X2.1500 Y0.3500 
G01 Z-0.0110 F10.00 
G00 Z0.1000 
G00 X1.8500 Y0.3500 
G01 Z-0.0110 F10.00 
G00 Z0.1000 
G00 X1.8500 Y0.2500 
G01 Z-0.0110 F10.00 
G00 Z0.1000 
G00 X1.8500 Y0.1500 
G01 Z-0.0110 F10.00 
G00 Z0.1000 
G00 X2.0000 Y1.0300 
G01 Z-0.0110 F10.00 
G00 Z0.1000 
G00 X2.3000 Y1.0300 
G01 Z-0.0110 F10.00 
G00 Z0.1000 
G00 X0.7234 Y0.6709 
G01 Z-0.0110 F10.00 
G00 Z0.1000 
G00 X0.7628 Y0.7891 
G01 Z-0.0110 F10.00 
G00 Z0.1000 
G00 X0.8021 Y0.6709 
G01 Z-0.0110 F10.00 
G00 Z0.1000 
G00 X0.8415 Y0.7891 
G01 Z-0.0110 F10.00 
G00 Z0.1000 
G00 X0.8809 Y0.6709 
G01 Z-0.0110 F10.00 
G00 Z0.1000 
G00 X0.9202 Y0.7891 
G01 Z-0.0110 F10.00 
G00 Z0.1000 
G00 X1.1171 Y0.7576 
G01 Z-0.0110 F10.00 
G00 Z0.1000 
G00 X0.5029 Y0.7576 
G01 Z-0.0110 F10.00 
G00 Z0.1000 
G00 X0.2900 Y1.0000 
G01 Z-0.0110 F10.00 
G00 Z0.1000 
G00 X0.1900 Y1.0000 
G01 Z-0.0110 F10.00 
G00 Z0.1000 
G00 X0.2900 Y0.9000 
G01 Z-0.0110 F10.00 
G00 Z0.1000 
G00 X0.1900 Y0.9000 
G01 Z-0.0110 F10.00 
G00 Z0.1000 
G00 X0.2900 Y0.8000 
G01 Z-0.0110 F10.00 
G00 Z0.1000 
G00 X0.1900 Y0.8000 
G01 Z-0.0110 F10.00 
G00 Z0.1000 
G00 X0.2900 Y0.7000 
G01 Z-0.0110 F10.00 
G00 Z0.1000 
G00 X0.1900 Y0.7000 
G01 Z-0.0110 F10.00 
G00 Z0.1000 
G00 X0.2900 Y0.6000 
G01 Z-0.0110 F10.00 
G00 Z0.1000 
G00 X0.1900 Y0.6000 
G01 Z-0.0110 F10.00 
G00 Z0.1000 
G00 X0.2900 Y0.5000 
G01 Z-0.0110 F10.00 
G00 Z0.1000 
G00 X0.1900 Y0.5000 
G01 Z-0.0110 F10.00 
G00 Z0.1000 
G00 X0.2900 Y0.4000 
G01 Z-0.0110 F10.00 
G00 Z0.1000 
G00 X0.1900 Y0.4000 
G01 Z-0.0110 F10.00 
G00 Z0.1000 
G00 Z0.5000 
M05
M02
