(.../src/pcbgcode.repo/pcb-gcode.ulp)
(Copyright 2005 - 2012 by John Johnson)
(See readme.txt for licensing terms.)
(This file generated from the board:)
(.../docs/examples/04151_lcdi2c.brd)
(Current profile is .../pcbgcode-work/profiles/mach.pp  )
(This file generated 12/4/13 4:54 PM)
(Settings from pcb-machine.h)
(  Tool Size)
(0.0070  )
(Z Axis Settings)
(  High     Up        Down     Drill)
(0.5000  	0.1000  	-0.0070 	-0.0320 )
(spindle on time = 3.0000)
(milling depth = -0.0100)
(text depth = -0.0050)
(tool change at 0.0000  0.0000  1.0000  )
(feed rate xy = F20    )
(feed rate z  = F10    )
(Settings from pcb-defaults.h)
(isolate min = 0.0010)
(isolate max = 0.0200)
(isolate step = 0.0050)
(Generated top outlines, top drill, bottom outlines, bottom drill, )
(Unit of measure: inch)
(Inch Mode)
G20
(Absolute Coordinates)
G90
G00 Z0.5000  
G00 X0.0000  Y0.0000  
M03
G04 P3.000000
G00 Z0.1000  
G00 X0.8376  Y0.6019  
G01 Z-0.0070 F10    
G01 X0.8376  Y0.6780  F20    
G01 X0.8322  Y0.6911  
G01 X0.8222  Y0.7010  
G01 X0.8092  Y0.7064  
G01 X0.7951  Y0.7064  
G01 X0.7820  Y0.7010  
G01 X0.7720  Y0.6911  
G01 X0.7666  Y0.6780  
G01 X0.7666  Y0.6019  
G01 X0.7720  Y0.5888  
G01 X0.7820  Y0.5789  
G01 X0.7951  Y0.5734  
G01 X0.8092  Y0.5734  
G01 X0.8222  Y0.5789  
G01 X0.8322  Y0.5888  
G01 X0.8376  Y0.6019  
G00 Z0.1000  
G00 X0.8060  Y0.8581  
G01 Z-0.0070 F10    
G01 X0.8060  Y0.7820  F20    
G01 X0.8114  Y0.7689  
G01 X0.8214  Y0.7590  
G01 X0.8344  Y0.7536  
G01 X0.8486  Y0.7536  
G01 X0.8616  Y0.7590  
G01 X0.8716  Y0.7689  
G01 X0.8770  Y0.7820  
G01 X0.8770  Y0.8581  
G01 X0.8716  Y0.8712  
G01 X0.8616  Y0.8811  
G01 X0.8486  Y0.8866  
G01 X0.8344  Y0.8866  
G01 X0.8214  Y0.8811  
G01 X0.8114  Y0.8712  
G01 X0.8060  Y0.8581  
G00 Z0.1000  
G00 X0.7589  Y0.6019  
G01 Z-0.0070 F10    
G01 X0.7589  Y0.6780  F20    
G01 X0.7535  Y0.6911  
G01 X0.7435  Y0.7010  
G01 X0.7304  Y0.7064  
G01 X0.7163  Y0.7064  
G01 X0.7033  Y0.7010  
G01 X0.6933  Y0.6911  
G01 X0.6879  Y0.6780  
G01 X0.6879  Y0.6019  
G01 X0.6933  Y0.5888  
G01 X0.7033  Y0.5789  
G01 X0.7163  Y0.5734  
G01 X0.7304  Y0.5734  
G01 X0.7435  Y0.5789  
G01 X0.7535  Y0.5888  
G01 X0.7589  Y0.6019  
G00 Z0.1000  
G00 X0.9164  Y0.6019  
G01 Z-0.0070 F10    
G01 X0.9164  Y0.6780  F20    
G01 X0.9110  Y0.6911  
G01 X0.9010  Y0.7010  
G01 X0.8879  Y0.7064  
G01 X0.8738  Y0.7064  
G01 X0.8608  Y0.7010  
G01 X0.8508  Y0.6911  
G01 X0.8454  Y0.6780  
G01 X0.8454  Y0.6019  
G01 X0.8508  Y0.5888  
G01 X0.8608  Y0.5789  
G01 X0.8738  Y0.5734  
G01 X0.8879  Y0.5734  
G01 X0.9010  Y0.5789  
G01 X0.9110  Y0.5888  
G01 X0.9164  Y0.6019  
G00 Z0.1000  
G00 X0.8847  Y0.8581  
G01 Z-0.0070 F10    
G01 X0.8847  Y0.7820  F20    
G01 X0.8901  Y0.7689  
G01 X0.9001  Y0.7590  
G01 X0.9132  Y0.7536  
G01 X0.9273  Y0.7536  
G01 X0.9403  Y0.7590  
G01 X0.9503  Y0.7689  
G01 X0.9557  Y0.7820  
G01 X0.9557  Y0.8581  
G01 X0.9503  Y0.8712  
G01 X0.9403  Y0.8811  
G01 X0.9273  Y0.8866  
G01 X0.9132  Y0.8866  
G01 X0.9001  Y0.8811  
G01 X0.8901  Y0.8712  
G01 X0.8847  Y0.8581  
G00 Z0.1000  
G00 X0.7273  Y0.8581  
G01 Z-0.0070 F10    
G01 X0.7273  Y0.7820  F20    
G01 X0.7327  Y0.7689  
G01 X0.7426  Y0.7590  
G01 X0.7557  Y0.7536  
G01 X0.7698  Y0.7536  
G01 X0.7829  Y0.7590  
G01 X0.7928  Y0.7689  
G01 X0.7983  Y0.7820  
G01 X0.7983  Y0.8581  
G01 X0.7928  Y0.8712  
G01 X0.7829  Y0.8811  
G01 X0.7698  Y0.8866  
G01 X0.7557  Y0.8866  
G01 X0.7426  Y0.8811  
G01 X0.7327  Y0.8712  
G01 X0.7273  Y0.8581  
G00 Z0.1000  
G00 X1.5319  Y0.3045  
G01 Z-0.0070 F10    
G01 X1.6081  Y0.3045  F20    
G01 X1.6211  Y0.3099  
G01 X1.6311  Y0.3199  
G01 X1.6365  Y0.3329  
G01 X1.6365  Y0.3471  
G01 X1.6311  Y0.3601  
G01 X1.6211  Y0.3701  
G01 X1.6081  Y0.3755  
G01 X1.5319  Y0.3755  
G01 X1.5189  Y0.3701  
G01 X1.5089  Y0.3601  
G01 X1.5035  Y0.3471  
G01 X1.5035  Y0.3329  
G01 X1.5089  Y0.3199  
G01 X1.5189  Y0.3099  
G01 X1.5319  Y0.3045  
G00 Z0.1000  
G00 X1.5319  Y0.4045  
G01 Z-0.0070 F10    
G01 X1.6081  Y0.4045  F20    
G01 X1.6211  Y0.4099  
G01 X1.6311  Y0.4199  
G01 X1.6365  Y0.4329  
G01 X1.6365  Y0.4471  
G01 X1.6311  Y0.4601  
G01 X1.6211  Y0.4701  
G01 X1.6081  Y0.4755  
G01 X1.5319  Y0.4755  
G01 X1.5189  Y0.4701  
G01 X1.5089  Y0.4601  
G01 X1.5035  Y0.4471  
G01 X1.5035  Y0.4329  
G01 X1.5089  Y0.4199  
G01 X1.5189  Y0.4099  
G01 X1.5319  Y0.4045  
G00 Z0.1000  
G00 X1.5319  Y0.5045  
G01 Z-0.0070 F10    
G01 X1.6081  Y0.5045  F20    
G01 X1.6211  Y0.5099  
G01 X1.6311  Y0.5199  
G01 X1.6365  Y0.5329  
G01 X1.6365  Y0.5471  
G01 X1.6311  Y0.5601  
G01 X1.6211  Y0.5701  
G01 X1.6081  Y0.5755  
G01 X1.5319  Y0.5755  
G01 X1.5189  Y0.5701  
G01 X1.5089  Y0.5601  
G01 X1.5035  Y0.5471  
G01 X1.5035  Y0.5329  
G01 X1.5089  Y0.5199  
G01 X1.5189  Y0.5099  
G01 X1.5319  Y0.5045  
G00 Z0.1000  
G00 X1.5319  Y0.6045  
G01 Z-0.0070 F10    
G01 X1.6081  Y0.6045  F20    
G01 X1.6211  Y0.6099  
G01 X1.6311  Y0.6199  
G01 X1.6365  Y0.6329  
G01 X1.6365  Y0.6471  
G01 X1.6311  Y0.6601  
G01 X1.6211  Y0.6701  
G01 X1.6081  Y0.6755  
G01 X1.5319  Y0.6755  
G01 X1.5189  Y0.6701  
G01 X1.5089  Y0.6601  
G01 X1.5035  Y0.6471  
G01 X1.5035  Y0.6329  
G01 X1.5089  Y0.6199  
G01 X1.5189  Y0.6099  
G01 X1.5319  Y0.6045  
G00 Z0.1000  
G00 X1.5319  Y0.7045  
G01 Z-0.0070 F10    
G01 X1.6081  Y0.7045  F20    
G01 X1.6211  Y0.7099  
G01 X1.6311  Y0.7199  
G01 X1.6365  Y0.7329  
G01 X1.6365  Y0.7471  
G01 X1.6311  Y0.7601  
G01 X1.6211  Y0.7701  
G01 X1.6081  Y0.7755  
G01 X1.5319  Y0.7755  
G01 X1.5189  Y0.7701  
G01 X1.5089  Y0.7601  
G01 X1.5035  Y0.7471  
G01 X1.5035  Y0.7329  
G01 X1.5089  Y0.7199  
G01 X1.5189  Y0.7099  
G01 X1.5319  Y0.7045  
G00 Z0.1000  
G00 X1.5319  Y0.8045  
G01 Z-0.0070 F10    
G01 X1.6081  Y0.8045  F20    
G01 X1.6211  Y0.8099  
G01 X1.6311  Y0.8199  
G01 X1.6365  Y0.8329  
G01 X1.6365  Y0.8471  
G01 X1.6311  Y0.8601  
G01 X1.6211  Y0.8701  
G01 X1.6081  Y0.8755  
G01 X1.5319  Y0.8755  
G01 X1.5189  Y0.8701  
G01 X1.5089  Y0.8601  
G01 X1.5035  Y0.8471  
G01 X1.5035  Y0.8329  
G01 X1.5089  Y0.8199  
G01 X1.5189  Y0.8099  
G01 X1.5319  Y0.8045  
G00 Z0.1000  
G00 X1.5319  Y0.9045  
G01 Z-0.0070 F10    
G01 X1.6081  Y0.9045  F20    
G01 X1.6211  Y0.9099  
G01 X1.6311  Y0.9199  
G01 X1.6365  Y0.9329  
G01 X1.6365  Y0.9471  
G01 X1.6311  Y0.9601  
G01 X1.6211  Y0.9701  
G01 X1.6081  Y0.9755  
G01 X1.5319  Y0.9755  
G01 X1.5189  Y0.9701  
G01 X1.5089  Y0.9601  
G01 X1.5035  Y0.9471  
G01 X1.5035  Y0.9329  
G01 X1.5089  Y0.9199  
G01 X1.5189  Y0.9099  
G01 X1.5319  Y0.9045  
G00 Z0.1000  
G00 X1.5319  Y1.0045  
G01 Z-0.0070 F10    
G01 X1.6081  Y1.0045  F20    
G01 X1.6211  Y1.0099  
G01 X1.6311  Y1.0199  
G01 X1.6365  Y1.0329  
G01 X1.6365  Y1.0471  
G01 X1.6311  Y1.0601  
G01 X1.6211  Y1.0701  
G01 X1.6081  Y1.0755  
G01 X1.5319  Y1.0755  
G01 X1.5189  Y1.0701  
G01 X1.5089  Y1.0601  
G01 X1.5035  Y1.0471  
G01 X1.5035  Y1.0329  
G01 X1.5089  Y1.0199  
G01 X1.5189  Y1.0099  
G01 X1.5319  Y1.0045  
G00 Z0.1000  
G00 X1.2319  Y1.0045  
G01 Z-0.0070 F10    
G01 X1.3081  Y1.0045  F20    
G01 X1.3211  Y1.0099  
G01 X1.3311  Y1.0199  
G01 X1.3365  Y1.0329  
G01 X1.3365  Y1.0471  
G01 X1.3311  Y1.0601  
G01 X1.3211  Y1.0701  
G01 X1.3081  Y1.0755  
G01 X1.2319  Y1.0755  
G01 X1.2189  Y1.0701  
G01 X1.2089  Y1.0601  
G01 X1.2035  Y1.0471  
G01 X1.2035  Y1.0329  
G01 X1.2089  Y1.0199  
G01 X1.2189  Y1.0099  
G01 X1.2319  Y1.0045  
G00 Z0.1000  
G00 X1.2319  Y0.9045  
G01 Z-0.0070 F10    
G01 X1.3081  Y0.9045  F20    
G01 X1.3211  Y0.9099  
G01 X1.3311  Y0.9199  
G01 X1.3365  Y0.9329  
G01 X1.3365  Y0.9471  
G01 X1.3311  Y0.9601  
G01 X1.3211  Y0.9701  
G01 X1.3081  Y0.9755  
G01 X1.2319  Y0.9755  
G01 X1.2189  Y0.9701  
G01 X1.2089  Y0.9601  
G01 X1.2035  Y0.9471  
G01 X1.2035  Y0.9329  
G01 X1.2089  Y0.9199  
G01 X1.2189  Y0.9099  
G01 X1.2319  Y0.9045  
G00 Z0.1000  
G00 X1.2319  Y0.8045  
G01 Z-0.0070 F10    
G01 X1.3081  Y0.8045  F20    
G01 X1.3211  Y0.8099  
G01 X1.3311  Y0.8199  
G01 X1.3365  Y0.8329  
G01 X1.3365  Y0.8471  
G01 X1.3311  Y0.8601  
G01 X1.3211  Y0.8701  
G01 X1.3081  Y0.8755  
G01 X1.2319  Y0.8755  
G01 X1.2189  Y0.8701  
G01 X1.2089  Y0.8601  
G01 X1.2035  Y0.8471  
G01 X1.2035  Y0.8329  
G01 X1.2089  Y0.8199  
G01 X1.2189  Y0.8099  
G01 X1.2319  Y0.8045  
G00 Z0.1000  
G00 X1.2319  Y0.7045  
G01 Z-0.0070 F10    
G01 X1.3081  Y0.7045  F20    
G01 X1.3211  Y0.7099  
G01 X1.3311  Y0.7199  
G01 X1.3365  Y0.7329  
G01 X1.3365  Y0.7471  
G01 X1.3311  Y0.7601  
G01 X1.3211  Y0.7701  
G01 X1.3081  Y0.7755  
G01 X1.2319  Y0.7755  
G01 X1.2189  Y0.7701  
G01 X1.2089  Y0.7601  
G01 X1.2035  Y0.7471  
G01 X1.2035  Y0.7329  
G01 X1.2089  Y0.7199  
G01 X1.2189  Y0.7099  
G01 X1.2319  Y0.7045  
G00 Z0.1000  
G00 X1.2319  Y0.6045  
G01 Z-0.0070 F10    
G01 X1.3081  Y0.6045  F20    
G01 X1.3211  Y0.6099  
G01 X1.3311  Y0.6199  
G01 X1.3365  Y0.6329  
G01 X1.3365  Y0.6471  
G01 X1.3311  Y0.6601  
G01 X1.3211  Y0.6701  
G01 X1.3081  Y0.6755  
G01 X1.2319  Y0.6755  
G01 X1.2189  Y0.6701  
G01 X1.2089  Y0.6601  
G01 X1.2035  Y0.6471  
G01 X1.2035  Y0.6329  
G01 X1.2089  Y0.6199  
G01 X1.2189  Y0.6099  
G01 X1.2319  Y0.6045  
G00 Z0.1000  
G00 X1.2319  Y0.5045  
G01 Z-0.0070 F10    
G01 X1.3081  Y0.5045  F20    
G01 X1.3211  Y0.5099  
G01 X1.3311  Y0.5199  
G01 X1.3365  Y0.5329  
G01 X1.3365  Y0.5471  
G01 X1.3311  Y0.5601  
G01 X1.3211  Y0.5701  
G01 X1.3081  Y0.5755  
G01 X1.2319  Y0.5755  
G01 X1.2189  Y0.5701  
G01 X1.2089  Y0.5601  
G01 X1.2035  Y0.5471  
G01 X1.2035  Y0.5329  
G01 X1.2089  Y0.5199  
G01 X1.2189  Y0.5099  
G01 X1.2319  Y0.5045  
G00 Z0.1000  
G00 X1.2319  Y0.4045  
G01 Z-0.0070 F10    
G01 X1.3081  Y0.4045  F20    
G01 X1.3211  Y0.4099  
G01 X1.3311  Y0.4199  
G01 X1.3365  Y0.4329  
G01 X1.3365  Y0.4471  
G01 X1.3311  Y0.4601  
G01 X1.3211  Y0.4701  
G01 X1.3081  Y0.4755  
G01 X1.2319  Y0.4755  
G01 X1.2189  Y0.4701  
G01 X1.2089  Y0.4601  
G01 X1.2035  Y0.4471  
G01 X1.2035  Y0.4329  
G01 X1.2089  Y0.4199  
G01 X1.2189  Y0.4099  
G01 X1.2319  Y0.4045  
G00 Z0.1000  
G00 X1.2319  Y0.3045  
G01 Z-0.0070 F10    
G01 X1.3081  Y0.3045  F20    
G01 X1.3211  Y0.3099  
G01 X1.3311  Y0.3199  
G01 X1.3365  Y0.3329  
G01 X1.3365  Y0.3471  
G01 X1.3311  Y0.3601  
G01 X1.3211  Y0.3701  
G01 X1.3081  Y0.3755  
G01 X1.2319  Y0.3755  
G01 X1.2189  Y0.3701  
G01 X1.2089  Y0.3601  
G01 X1.2035  Y0.3471  
G01 X1.2035  Y0.3329  
G01 X1.2089  Y0.3199  
G01 X1.2189  Y0.3099  
G01 X1.2319  Y0.3045  
G00 Z0.1000  
G00 X0.3295  Y0.9836  
G01 Z-0.0070 F10    
G01 X0.3295  Y1.0164  F20    
G01 X0.3064  Y1.0395  
G01 X0.2736  Y1.0395  
G01 X0.2505  Y1.0164  
G01 X0.2505  Y0.9836  
G01 X0.2736  Y0.9605  
G01 X0.3064  Y0.9605  
G01 X0.3295  Y0.9836  
G00 Z0.1000  
G00 X0.3295  Y0.8836  
G01 Z-0.0070 F10    
G01 X0.3295  Y0.9164  F20    
G01 X0.3064  Y0.9395  
G01 X0.2736  Y0.9395  
G01 X0.2505  Y0.9164  
G01 X0.2505  Y0.8836  
G01 X0.2736  Y0.8605  
G01 X0.3064  Y0.8605  
G01 X0.3295  Y0.8836  
G00 Z0.1000  
G00 X0.3295  Y0.7836  
G01 Z-0.0070 F10    
G01 X0.3295  Y0.8164  F20    
G01 X0.3064  Y0.8395  
G01 X0.2736  Y0.8395  
G01 X0.2505  Y0.8164  
G01 X0.2505  Y0.7836  
G01 X0.2736  Y0.7605  
G01 X0.3064  Y0.7605  
G01 X0.3295  Y0.7836  
G00 Z0.1000  
G00 X0.3295  Y0.6836  
G01 Z-0.0070 F10    
G01 X0.3295  Y0.7164  F20    
G01 X0.3064  Y0.7395  
G01 X0.2736  Y0.7395  
G01 X0.2505  Y0.7164  
G01 X0.2505  Y0.6836  
G01 X0.2736  Y0.6605  
G01 X0.3064  Y0.6605  
G01 X0.3295  Y0.6836  
G00 Z0.1000  
G00 X0.3295  Y0.5836  
G01 Z-0.0070 F10    
G01 X0.3295  Y0.6164  F20    
G01 X0.3064  Y0.6395  
G01 X0.2736  Y0.6395  
G01 X0.2505  Y0.6164  
G01 X0.2505  Y0.5836  
G01 X0.2736  Y0.5605  
G01 X0.3064  Y0.5605  
G01 X0.3295  Y0.5836  
G00 Z0.1000  
G00 X0.3295  Y0.4836  
G01 Z-0.0070 F10    
G01 X0.3295  Y0.5164  F20    
G01 X0.3064  Y0.5395  
G01 X0.2736  Y0.5395  
G01 X0.2505  Y0.5164  
G01 X0.2505  Y0.4836  
G01 X0.2736  Y0.4605  
G01 X0.3064  Y0.4605  
G01 X0.3295  Y0.4836  
G00 Z0.1000  
G00 X0.2295  Y0.9836  
G01 Z-0.0070 F10    
G01 X0.2295  Y1.0164  F20    
G01 X0.2064  Y1.0395  
G01 X0.1736  Y1.0395  
G01 X0.1505  Y1.0164  
G01 X0.1505  Y0.9836  
G01 X0.1736  Y0.9605  
G01 X0.2064  Y0.9605  
G01 X0.2295  Y0.9836  
G00 Z0.1000  
G00 X0.2295  Y0.8836  
G01 Z-0.0070 F10    
G01 X0.2295  Y0.9164  F20    
G01 X0.2064  Y0.9395  
G01 X0.1736  Y0.9395  
G01 X0.1505  Y0.9164  
G01 X0.1505  Y0.8836  
G01 X0.1736  Y0.8605  
G01 X0.2064  Y0.8605  
G01 X0.2295  Y0.8836  
G00 Z0.1000  
G00 X0.2295  Y0.7836  
G01 Z-0.0070 F10    
G01 X0.2295  Y0.8164  F20    
G01 X0.2064  Y0.8395  
G01 X0.1736  Y0.8395  
G01 X0.1505  Y0.8164  
G01 X0.1505  Y0.7836  
G01 X0.1736  Y0.7605  
G01 X0.2064  Y0.7605  
G01 X0.2295  Y0.7836  
G00 Z0.1000  
G00 X0.2295  Y0.6836  
G01 Z-0.0070 F10    
G01 X0.2295  Y0.7164  F20    
G01 X0.2064  Y0.7395  
G01 X0.1736  Y0.7395  
G01 X0.1505  Y0.7164  
G01 X0.1505  Y0.6836  
G01 X0.1736  Y0.6605  
G01 X0.2064  Y0.6605  
G01 X0.2295  Y0.6836  
G00 Z0.1000  
G00 X0.2295  Y0.5836  
G01 Z-0.0070 F10    
G01 X0.2295  Y0.6164  F20    
G01 X0.2064  Y0.6395  
G01 X0.1736  Y0.6395  
G01 X0.1505  Y0.6164  
G01 X0.1505  Y0.5836  
G01 X0.1736  Y0.5605  
G01 X0.2064  Y0.5605  
G01 X0.2295  Y0.5836  
G00 Z0.1000  
G00 X0.2295  Y0.4836  
G01 Z-0.0070 F10    
G01 X0.2295  Y0.5164  F20    
G01 X0.2064  Y0.5395  
G01 X0.1736  Y0.5395  
G01 X0.1505  Y0.5164  
G01 X0.1505  Y0.4836  
G01 X0.1736  Y0.4605  
G01 X0.2064  Y0.4605  
G01 X0.2295  Y0.4836  
G00 Z0.1000  
G00 X0.3295  Y0.3836  
G01 Z-0.0070 F10    
G01 X0.3295  Y0.4164  F20    
G01 X0.3064  Y0.4395  
G01 X0.2736  Y0.4395  
G01 X0.2505  Y0.4164  
G01 X0.2505  Y0.3836  
G01 X0.2736  Y0.3605  
G01 X0.3064  Y0.3605  
G01 X0.3295  Y0.3836  
G00 Z0.1000  
G00 X0.2295  Y0.3836  
G01 Z-0.0070 F10    
G01 X0.2295  Y0.4164  F20    
G01 X0.2064  Y0.4395  
G01 X0.1736  Y0.4395  
G01 X0.1505  Y0.4164  
G01 X0.1505  Y0.3836  
G01 X0.1736  Y0.3605  
G01 X0.2064  Y0.3605  
G01 X0.2295  Y0.3836  
G00 Z0.1000  
G00 X0.8381  Y0.4055  
G01 Z-0.0070 F10    
G01 X0.7619  Y0.4055  F20    
G01 X0.7489  Y0.4001  
G01 X0.7389  Y0.3901  
G01 X0.7335  Y0.3771  
G01 X0.7335  Y0.3629  
G01 X0.7389  Y0.3499  
G01 X0.7489  Y0.3399  
G01 X0.7619  Y0.3345  
G01 X0.8381  Y0.3345  
G01 X0.8511  Y0.3399  
G01 X0.8611  Y0.3499  
G01 X0.8665  Y0.3629  
G01 X0.8665  Y0.3771  
G01 X0.8611  Y0.3901  
G01 X0.8511  Y0.4001  
G01 X0.8381  Y0.4055  
G00 Z0.1000  
G00 X1.1381  Y0.3055  
G01 Z-0.0070 F10    
G01 X1.0619  Y0.3055  F20    
G01 X1.0489  Y0.3001  
G01 X1.0389  Y0.2901  
G01 X1.0335  Y0.2771  
G01 X1.0335  Y0.2629  
G01 X1.0389  Y0.2499  
G01 X1.0489  Y0.2399  
G01 X1.0619  Y0.2345  
G01 X1.1381  Y0.2345  
G01 X1.1511  Y0.2399  
G01 X1.1611  Y0.2499  
G01 X1.1665  Y0.2629  
G01 X1.1665  Y0.2771  
G01 X1.1611  Y0.2901  
G01 X1.1511  Y0.3001  
G01 X1.1381  Y0.3055  
G00 Z0.1000  
G00 X0.6381  Y0.3055  
G01 Z-0.0070 F10    
G01 X0.5619  Y0.3055  F20    
G01 X0.5489  Y0.3001  
G01 X0.5389  Y0.2901  
G01 X0.5335  Y0.2771  
G01 X0.5335  Y0.2629  
G01 X0.5389  Y0.2499  
G01 X0.5489  Y0.2399  
G01 X0.5619  Y0.2345  
G01 X0.6381  Y0.2345  
G01 X0.6511  Y0.2399  
G01 X0.6611  Y0.2499  
G01 X0.6665  Y0.2629  
G01 X0.6665  Y0.2771  
G01 X0.6611  Y0.2901  
G01 X0.6511  Y0.3001  
G01 X0.6381  Y0.3055  
G00 Z0.1000  
G00 X2.1119  Y0.1145  
G01 Z-0.0070 F10    
G01 X2.1881  Y0.1145  F20    
G01 X2.2011  Y0.1199  
G01 X2.2111  Y0.1299  
G01 X2.2165  Y0.1429  
G01 X2.2165  Y0.1571  
G01 X2.2111  Y0.1701  
G01 X2.2011  Y0.1801  
G01 X2.1881  Y0.1855  
G01 X2.1119  Y0.1855  
G01 X2.0989  Y0.1801  
G01 X2.0889  Y0.1701  
G01 X2.0835  Y0.1571  
G01 X2.0835  Y0.1429  
G01 X2.0889  Y0.1299  
G01 X2.0989  Y0.1199  
G01 X2.1119  Y0.1145  
G00 Z0.1000  
G00 X2.1119  Y0.2145  
G01 Z-0.0070 F10    
G01 X2.1881  Y0.2145  F20    
G01 X2.2011  Y0.2199  
G01 X2.2111  Y0.2299  
G01 X2.2165  Y0.2429  
G01 X2.2165  Y0.2571  
G01 X2.2111  Y0.2701  
G01 X2.2011  Y0.2801  
G01 X2.1881  Y0.2855  
G01 X2.1119  Y0.2855  
G01 X2.0989  Y0.2801  
G01 X2.0889  Y0.2701  
G01 X2.0835  Y0.2571  
G01 X2.0835  Y0.2429  
G01 X2.0889  Y0.2299  
G01 X2.0989  Y0.2199  
G01 X2.1119  Y0.2145  
G00 Z0.1000  
G00 X2.1119  Y0.3145  
G01 Z-0.0070 F10    
G01 X2.1881  Y0.3145  F20    
G01 X2.2011  Y0.3199  
G01 X2.2111  Y0.3299  
G01 X2.2165  Y0.3429  
G01 X2.2165  Y0.3571  
G01 X2.2111  Y0.3701  
G01 X2.2011  Y0.3801  
G01 X2.1881  Y0.3855  
G01 X2.1119  Y0.3855  
G01 X2.0989  Y0.3801  
G01 X2.0889  Y0.3701  
G01 X2.0835  Y0.3571  
G01 X2.0835  Y0.3429  
G01 X2.0889  Y0.3299  
G01 X2.0989  Y0.3199  
G01 X2.1119  Y0.3145  
G00 Z0.1000  
G00 X1.8119  Y0.3145  
G01 Z-0.0070 F10    
G01 X1.8881  Y0.3145  F20    
G01 X1.9011  Y0.3199  
G01 X1.9111  Y0.3299  
G01 X1.9165  Y0.3429  
G01 X1.9165  Y0.3571  
G01 X1.9111  Y0.3701  
G01 X1.9011  Y0.3801  
G01 X1.8881  Y0.3855  
G01 X1.8119  Y0.3855  
G01 X1.7989  Y0.3801  
G01 X1.7889  Y0.3701  
G01 X1.7835  Y0.3571  
G01 X1.7835  Y0.3429  
G01 X1.7889  Y0.3299  
G01 X1.7989  Y0.3199  
G01 X1.8119  Y0.3145  
G00 Z0.1000  
G00 X1.8119  Y0.2145  
G01 Z-0.0070 F10    
G01 X1.8881  Y0.2145  F20    
G01 X1.9011  Y0.2199  
G01 X1.9111  Y0.2299  
G01 X1.9165  Y0.2429  
G01 X1.9165  Y0.2571  
G01 X1.9111  Y0.2701  
G01 X1.9011  Y0.2801  
G01 X1.8881  Y0.2855  
G01 X1.8119  Y0.2855  
G01 X1.7989  Y0.2801  
G01 X1.7889  Y0.2701  
G01 X1.7835  Y0.2571  
G01 X1.7835  Y0.2429  
G01 X1.7889  Y0.2299  
G01 X1.7989  Y0.2199  
G01 X1.8119  Y0.2145  
G00 Z0.1000  
G00 X1.8119  Y0.1145  
G01 Z-0.0070 F10    
G01 X1.8881  Y0.1145  F20    
G01 X1.9011  Y0.1199  
G01 X1.9111  Y0.1299  
G01 X1.9165  Y0.1429  
G01 X1.9165  Y0.1571  
G01 X1.9111  Y0.1701  
G01 X1.9011  Y0.1801  
G01 X1.8881  Y0.1855  
G01 X1.8119  Y0.1855  
G01 X1.7989  Y0.1801  
G01 X1.7889  Y0.1701  
G01 X1.7835  Y0.1571  
G01 X1.7835  Y0.1429  
G01 X1.7889  Y0.1299  
G01 X1.7989  Y0.1199  
G01 X1.8119  Y0.1145  
G00 Z0.1000  
G00 X1.8355  Y0.6653  
G01 Z-0.0070 F10    
G01 X1.8355  Y0.6947  F20    
G01 X1.8147  Y0.7155  
G01 X1.7853  Y0.7155  
G01 X1.7645  Y0.6947  
G01 X1.7645  Y0.6653  
G01 X1.7853  Y0.6445  
G01 X1.8147  Y0.6445  
G01 X1.8355  Y0.6653  
G00 Z0.1000  
G00 X1.8355  Y0.4653  
G01 Z-0.0070 F10    
G01 X1.8355  Y0.4947  F20    
G01 X1.8147  Y0.5155  
G01 X1.7853  Y0.5155  
G01 X1.7645  Y0.4947  
G01 X1.7645  Y0.4653  
G01 X1.7853  Y0.4445  
G01 X1.8147  Y0.4445  
G01 X1.8355  Y0.4653  
G00 Z0.1000  
G00 X1.9555  Y0.6653  
G01 Z-0.0070 F10    
G01 X1.9555  Y0.6947  F20    
G01 X1.9347  Y0.7155  
G01 X1.9053  Y0.7155  
G01 X1.8845  Y0.6947  
G01 X1.8845  Y0.6653  
G01 X1.9053  Y0.6445  
G01 X1.9347  Y0.6445  
G01 X1.9555  Y0.6653  
G00 Z0.1000  
G00 X1.9555  Y0.4653  
G01 Z-0.0070 F10    
G01 X1.9555  Y0.4947  F20    
G01 X1.9347  Y0.5155  
G01 X1.9053  Y0.5155  
G01 X1.8845  Y0.4947  
G01 X1.8845  Y0.4653  
G01 X1.9053  Y0.4445  
G01 X1.9347  Y0.4445  
G01 X1.9555  Y0.4653  
G00 Z0.1000  
G00 X2.0755  Y0.6653  
G01 Z-0.0070 F10    
G01 X2.0755  Y0.6947  F20    
G01 X2.0547  Y0.7155  
G01 X2.0253  Y0.7155  
G01 X2.0045  Y0.6947  
G01 X2.0045  Y0.6653  
G01 X2.0253  Y0.6445  
G01 X2.0547  Y0.6445  
G01 X2.0755  Y0.6653  
G00 Z0.1000  
G00 X2.0755  Y0.4653  
G01 Z-0.0070 F10    
G01 X2.0755  Y0.4947  F20    
G01 X2.0547  Y0.5155  
G01 X2.0253  Y0.5155  
G01 X2.0045  Y0.4947  
G01 X2.0045  Y0.4653  
G01 X2.0253  Y0.4445  
G01 X2.0547  Y0.4445  
G01 X2.0755  Y0.4653  
G00 Z0.1000  
G00 X1.3055  Y0.2153  
G01 Z-0.0070 F10    
G01 X1.3055  Y0.2447  F20    
G01 X1.2847  Y0.2655  
G01 X1.2553  Y0.2655  
G01 X1.2345  Y0.2447  
G01 X1.2345  Y0.2153  
G01 X1.2553  Y0.1945  
G01 X1.2847  Y0.1945  
G01 X1.3055  Y0.2153  
G00 Z0.1000  
G00 X1.4055  Y0.2153  
G01 Z-0.0070 F10    
G01 X1.4055  Y0.2447  F20    
G01 X1.3847  Y0.2655  
G01 X1.3553  Y0.2655  
G01 X1.3345  Y0.2447  
G01 X1.3345  Y0.2153  
G01 X1.3553  Y0.1945  
G01 X1.3847  Y0.1945  
G01 X1.4055  Y0.2153  
G00 Z0.1000  
G00 X2.3545  Y1.0074  
G01 Z-0.0070 F10    
G01 X2.3545  Y1.0526  F20    
G01 X2.3226  Y1.0845  
G01 X2.2774  Y1.0845  
G01 X2.2455  Y1.0526  
G01 X2.2455  Y1.0074  
G01 X2.2774  Y0.9755  
G01 X2.3226  Y0.9755  
G01 X2.3545  Y1.0074  
G00 Z0.1000  
G00 X2.0545  Y1.0074  
G01 Z-0.0070 F10    
G01 X2.0545  Y1.0526  F20    
G01 X2.0226  Y1.0845  
G01 X1.9774  Y1.0845  
G01 X1.9455  Y1.0526  
G01 X1.9455  Y1.0074  
G01 X1.9774  Y0.9755  
G01 X2.0226  Y0.9755  
G01 X2.0545  Y1.0074  
G00 Z0.1000  
G00 X0.5455  Y0.9853  
G01 Z-0.0070 F10    
G01 X0.5455  Y1.0147  F20    
G01 X0.5247  Y1.0355  
G01 X0.4953  Y1.0355  
G01 X0.4745  Y1.0147  
G01 X0.4745  Y0.9853  
G01 X0.4953  Y0.9645  
G01 X0.5247  Y0.9645  
G01 X0.5455  Y0.9853  
G00 Z0.1000  
G00 X0.4455  Y0.9853  
G01 Z-0.0070 F10    
G01 X0.4455  Y1.0147  F20    
G01 X0.4247  Y1.0355  
G01 X0.3953  Y1.0355  
G01 X0.3745  Y1.0147  
G01 X0.3745  Y0.9853  
G01 X0.3953  Y0.9645  
G01 X0.4247  Y0.9645  
G01 X0.4455  Y0.9853  
G00 Z0.1000  
G00 X1.4255  Y1.1553  
G01 Z-0.0070 F10    
G01 X1.4255  Y1.1847  F20    
G01 X1.4047  Y1.2055  
G01 X1.3753  Y1.2055  
G01 X1.3545  Y1.1847  
G01 X1.3545  Y1.1553  
G01 X1.3753  Y1.1345  
G01 X1.4047  Y1.1345  
G01 X1.4255  Y1.1553  
G00 Z0.1000  
G00 X1.4755  Y1.2303  
G01 Z-0.0070 F10    
G01 X1.4755  Y1.2597  F20    
G01 X1.4547  Y1.2805  
G01 X1.4253  Y1.2805  
G01 X1.4045  Y1.2597  
G01 X1.4045  Y1.2303  
G01 X1.4253  Y1.2095  
G01 X1.4547  Y1.2095  
G01 X1.4755  Y1.2303  
G00 Z0.1000  
G00 X1.5255  Y1.1553  
G01 Z-0.0070 F10    
G01 X1.5255  Y1.1847  F20    
G01 X1.5047  Y1.2055  
G01 X1.4753  Y1.2055  
G01 X1.4545  Y1.1847  
G01 X1.4545  Y1.1553  
G01 X1.4753  Y1.1345  
G01 X1.5047  Y1.1345  
G01 X1.5255  Y1.1553  
G00 Z0.1000  
G00 X1.1775  Y1.1705  
G01 Z-0.0070 F10    
G01 X1.1775  Y1.1894  F20    
G01 X1.1703  Y1.2069  
G01 X1.1569  Y1.2203  
G01 X1.1394  Y1.2275  
G01 X1.1205  Y1.2275  
G01 X1.1031  Y1.2203  
G01 X1.0897  Y1.2069  
G01 X1.0825  Y1.1894  
G01 X1.0825  Y1.1705  
G01 X1.0897  Y1.1531  
G01 X1.1031  Y1.1397  
G01 X1.1205  Y1.1325  
G01 X1.1394  Y1.1325  
G01 X1.1569  Y1.1397  
G01 X1.1703  Y1.1531  
G01 X1.1775  Y1.1705  
G00 Z0.1000  
G00 X1.2775  Y1.1603  
G01 Z-0.0070 F10    
G01 X1.2775  Y1.1997  F20    
G01 X1.2497  Y1.2275  
G01 X1.2103  Y1.2275  
G01 X1.1825  Y1.1997  
G01 X1.1825  Y1.1603  
G01 X1.2103  Y1.1325  
G01 X1.2497  Y1.1325  
G01 X1.2775  Y1.1603  
G00 Z0.1000  
G00 X1.7975  Y1.2105  
G01 Z-0.0070 F10    
G01 X1.7975  Y1.2294  F20    
G01 X1.7903  Y1.2469  
G01 X1.7769  Y1.2603  
G01 X1.7594  Y1.2675  
G01 X1.7405  Y1.2675  
G01 X1.7231  Y1.2603  
G01 X1.7097  Y1.2469  
G01 X1.7025  Y1.2294  
G01 X1.7025  Y1.2105  
G01 X1.7097  Y1.1931  
G01 X1.7231  Y1.1797  
G01 X1.7405  Y1.1725  
G01 X1.7594  Y1.1725  
G01 X1.7769  Y1.1797  
G01 X1.7903  Y1.1931  
G01 X1.7975  Y1.2105  
G00 Z0.1000  
G00 X1.7975  Y1.1003  
G01 Z-0.0070 F10    
G01 X1.7975  Y1.1397  F20    
G01 X1.7697  Y1.1675  
G01 X1.7303  Y1.1675  
G01 X1.7025  Y1.1397  
G01 X1.7025  Y1.1003  
G01 X1.7303  Y1.0725  
G01 X1.7697  Y1.0725  
G01 X1.7975  Y1.1003  
G00 Z0.1000  
G00 X1.8025  Y1.2096  
G01 Z-0.0070 F10    
G01 X1.8025  Y1.2304  F20    
G01 X1.7945  Y1.2497  
G01 X1.7797  Y1.2645  
G01 X1.7604  Y1.2725  
G01 X1.7396  Y1.2725  
G01 X1.7203  Y1.2645  
G01 X1.7055  Y1.2497  
G01 X1.6975  Y1.2304  
G01 X1.6975  Y1.2096  
G01 X1.7055  Y1.1903  
G01 X1.7203  Y1.1755  
G01 X1.7280  Y1.1723  
G01 X1.6975  Y1.1417  
G01 X1.6975  Y1.0983  
G01 X1.7283  Y1.0675  
G01 X1.7717  Y1.0675  
G01 X1.8025  Y1.0983  
G01 X1.8025  Y1.1417  
G01 X1.7720  Y1.1723  
G01 X1.7797  Y1.1755  
G01 X1.7945  Y1.1903  
G01 X1.8025  Y1.2096  
G00 Z0.1000  
G00 X1.4805  Y1.2282  
G01 Z-0.0070 F10    
G01 X1.4805  Y1.2618  F20    
G01 X1.4568  Y1.2855  
G01 X1.4232  Y1.2855  
G01 X1.3995  Y1.2618  
G01 X1.3995  Y1.2282  
G01 X1.4232  Y1.2045  
G01 X1.4568  Y1.2045  
G01 X1.4805  Y1.2282  
G00 Z0.1000  
G00 X0.8365  Y0.6939  
G01 Z-0.0070 F10    
G01 X0.8251  Y0.7053  F20    
G01 X0.8102  Y0.7114  
G01 X0.7941  Y0.7114  
G01 X0.7792  Y0.7053  
G01 X0.7678  Y0.6939  
G01 X0.7628  Y0.6817  
G01 X0.7577  Y0.6939  
G01 X0.7463  Y0.7053  
G01 X0.7314  Y0.7114  
G01 X0.7153  Y0.7114  
G01 X0.7004  Y0.7053  
G01 X0.6891  Y0.6939  
G01 X0.6829  Y0.6790  
G01 X0.6829  Y0.6009  
G01 X0.6891  Y0.5860  
G01 X0.7004  Y0.5746  
G01 X0.7153  Y0.5684  
G01 X0.7314  Y0.5684  
G01 X0.7463  Y0.5746  
G01 X0.7577  Y0.5860  
G01 X0.7628  Y0.5982  
G01 X0.7678  Y0.5860  
G01 X0.7792  Y0.5746  
G01 X0.7941  Y0.5684  
G01 X0.8102  Y0.5684  
G01 X0.8251  Y0.5746  
G01 X0.8365  Y0.5860  
G01 X0.8415  Y0.5982  
G01 X0.8465  Y0.5860  
G01 X0.8579  Y0.5746  
G01 X0.8728  Y0.5684  
G01 X0.8889  Y0.5684  
G01 X0.9038  Y0.5746  
G01 X0.9152  Y0.5860  
G01 X0.9214  Y0.6009  
G01 X0.9214  Y0.6790  
G01 X0.9152  Y0.6939  
G01 X0.9038  Y0.7053  
G01 X0.8889  Y0.7114  
G01 X0.8728  Y0.7114  
G01 X0.8579  Y0.7053  
G01 X0.8465  Y0.6939  
G01 X0.8415  Y0.6817  
G01 X0.8365  Y0.6939  
G00 Z0.1000  
G00 X0.8072  Y0.7661  
G01 Z-0.0070 F10    
G01 X0.8186  Y0.7547  F20    
G01 X0.8334  Y0.7486  
G01 X0.8496  Y0.7486  
G01 X0.8644  Y0.7547  
G01 X0.8758  Y0.7661  
G01 X0.8809  Y0.7783  
G01 X0.8859  Y0.7661  
G01 X0.8973  Y0.7547  
G01 X0.9122  Y0.7486  
G01 X0.9283  Y0.7486  
G01 X0.9432  Y0.7547  
G01 X0.9546  Y0.7661  
G01 X0.9607  Y0.7810  
G01 X0.9607  Y0.8591  
G01 X0.9546  Y0.8740  
G01 X0.9432  Y0.8854  
G01 X0.9283  Y0.8916  
G01 X0.9122  Y0.8916  
G01 X0.8973  Y0.8854  
G01 X0.8859  Y0.8740  
G01 X0.8809  Y0.8618  
G01 X0.8758  Y0.8740  
G01 X0.8644  Y0.8854  
G01 X0.8496  Y0.8916  
G01 X0.8334  Y0.8916  
G01 X0.8186  Y0.8854  
G01 X0.8072  Y0.8740  
G01 X0.8021  Y0.8618  
G01 X0.7971  Y0.8740  
G01 X0.7857  Y0.8854  
G01 X0.7708  Y0.8916  
G01 X0.7547  Y0.8916  
G01 X0.7398  Y0.8854  
G01 X0.7284  Y0.8740  
G01 X0.7223  Y0.8591  
G01 X0.7223  Y0.7810  
G01 X0.7284  Y0.7661  
G01 X0.7398  Y0.7547  
G01 X0.7547  Y0.7486  
G01 X0.7708  Y0.7486  
G01 X0.7857  Y0.7547  
G01 X0.7971  Y0.7661  
G01 X0.8021  Y0.7783  
G01 X0.8072  Y0.7661  
G00 Z0.1000  
G00 X1.5309  Y0.2995  
G01 Z-0.0070 F10    
G01 X1.6091  Y0.2995  F20    
G01 X1.6239  Y0.3057  
G01 X1.6353  Y0.3171  
G01 X1.6415  Y0.3319  
G01 X1.6415  Y0.3481  
G01 X1.6353  Y0.3629  
G01 X1.6239  Y0.3743  
G01 X1.6091  Y0.3805  
G01 X1.5309  Y0.3805  
G01 X1.5161  Y0.3743  
G01 X1.5047  Y0.3629  
G01 X1.4985  Y0.3481  
G01 X1.4985  Y0.3319  
G01 X1.5047  Y0.3171  
G01 X1.5161  Y0.3057  
G01 X1.5309  Y0.2995  
G00 Z0.1000  
G00 X1.5309  Y0.3995  
G01 Z-0.0070 F10    
G01 X1.6091  Y0.3995  F20    
G01 X1.6239  Y0.4057  
G01 X1.6353  Y0.4171  
G01 X1.6415  Y0.4319  
G01 X1.6415  Y0.4481  
G01 X1.6353  Y0.4629  
G01 X1.6239  Y0.4743  
G01 X1.6091  Y0.4805  
G01 X1.5309  Y0.4805  
G01 X1.5161  Y0.4743  
G01 X1.5047  Y0.4629  
G01 X1.4985  Y0.4481  
G01 X1.4985  Y0.4319  
G01 X1.5047  Y0.4171  
G01 X1.5161  Y0.4057  
G01 X1.5309  Y0.3995  
G00 Z0.1000  
G00 X1.5309  Y0.4995  
G01 Z-0.0070 F10    
G01 X1.6091  Y0.4995  F20    
G01 X1.6239  Y0.5057  
G01 X1.6353  Y0.5171  
G01 X1.6415  Y0.5319  
G01 X1.6415  Y0.5481  
G01 X1.6353  Y0.5629  
G01 X1.6239  Y0.5743  
G01 X1.6091  Y0.5805  
G01 X1.5309  Y0.5805  
G01 X1.5161  Y0.5743  
G01 X1.5047  Y0.5629  
G01 X1.4985  Y0.5481  
G01 X1.4985  Y0.5319  
G01 X1.5047  Y0.5171  
G01 X1.5161  Y0.5057  
G01 X1.5309  Y0.4995  
G00 Z0.1000  
G00 X1.5309  Y0.5995  
G01 Z-0.0070 F10    
G01 X1.6091  Y0.5995  F20    
G01 X1.6239  Y0.6057  
G01 X1.6353  Y0.6171  
G01 X1.6415  Y0.6319  
G01 X1.6415  Y0.6481  
G01 X1.6353  Y0.6629  
G01 X1.6239  Y0.6743  
G01 X1.6091  Y0.6805  
G01 X1.5309  Y0.6805  
G01 X1.5161  Y0.6743  
G01 X1.5047  Y0.6629  
G01 X1.4985  Y0.6481  
G01 X1.4985  Y0.6319  
G01 X1.5047  Y0.6171  
G01 X1.5161  Y0.6057  
G01 X1.5309  Y0.5995  
G00 Z0.1000  
G00 X1.5309  Y0.6995  
G01 Z-0.0070 F10    
G01 X1.6091  Y0.6995  F20    
G01 X1.6239  Y0.7057  
G01 X1.6353  Y0.7171  
G01 X1.6415  Y0.7319  
G01 X1.6415  Y0.7481  
G01 X1.6353  Y0.7629  
G01 X1.6239  Y0.7743  
G01 X1.6091  Y0.7805  
G01 X1.5309  Y0.7805  
G01 X1.5161  Y0.7743  
G01 X1.5047  Y0.7629  
G01 X1.4985  Y0.7481  
G01 X1.4985  Y0.7319  
G01 X1.5047  Y0.7171  
G01 X1.5161  Y0.7057  
G01 X1.5309  Y0.6995  
G00 Z0.1000  
G00 X1.5309  Y0.7995  
G01 Z-0.0070 F10    
G01 X1.6091  Y0.7995  F20    
G01 X1.6239  Y0.8057  
G01 X1.6353  Y0.8171  
G01 X1.6415  Y0.8319  
G01 X1.6415  Y0.8481  
G01 X1.6353  Y0.8629  
G01 X1.6239  Y0.8743  
G01 X1.6091  Y0.8805  
G01 X1.5309  Y0.8805  
G01 X1.5161  Y0.8743  
G01 X1.5047  Y0.8629  
G01 X1.4985  Y0.8481  
G01 X1.4985  Y0.8319  
G01 X1.5047  Y0.8171  
G01 X1.5161  Y0.8057  
G01 X1.5309  Y0.7995  
G00 Z0.1000  
G00 X1.5309  Y0.8995  
G01 Z-0.0070 F10    
G01 X1.6091  Y0.8995  F20    
G01 X1.6239  Y0.9057  
G01 X1.6353  Y0.9171  
G01 X1.6415  Y0.9319  
G01 X1.6415  Y0.9481  
G01 X1.6353  Y0.9629  
G01 X1.6239  Y0.9743  
G01 X1.6091  Y0.9805  
G01 X1.5309  Y0.9805  
G01 X1.5161  Y0.9743  
G01 X1.5047  Y0.9629  
G01 X1.4985  Y0.9481  
G01 X1.4985  Y0.9319  
G01 X1.5047  Y0.9171  
G01 X1.5161  Y0.9057  
G01 X1.5309  Y0.8995  
G00 Z0.1000  
G00 X1.5309  Y0.9995  
G01 Z-0.0070 F10    
G01 X1.6091  Y0.9995  F20    
G01 X1.6239  Y1.0057  
G01 X1.6353  Y1.0171  
G01 X1.6415  Y1.0319  
G01 X1.6415  Y1.0481  
G01 X1.6353  Y1.0629  
G01 X1.6239  Y1.0743  
G01 X1.6091  Y1.0805  
G01 X1.5309  Y1.0805  
G01 X1.5161  Y1.0743  
G01 X1.5047  Y1.0629  
G01 X1.4985  Y1.0481  
G01 X1.4985  Y1.0319  
G01 X1.5047  Y1.0171  
G01 X1.5161  Y1.0057  
G01 X1.5309  Y0.9995  
G00 Z0.1000  
G00 X1.2309  Y0.9995  
G01 Z-0.0070 F10    
G01 X1.3091  Y0.9995  F20    
G01 X1.3239  Y1.0057  
G01 X1.3353  Y1.0171  
G01 X1.3415  Y1.0319  
G01 X1.3415  Y1.0481  
G01 X1.3353  Y1.0629  
G01 X1.3239  Y1.0743  
G01 X1.3091  Y1.0805  
G01 X1.2309  Y1.0805  
G01 X1.2161  Y1.0743  
G01 X1.2047  Y1.0629  
G01 X1.1985  Y1.0481  
G01 X1.1985  Y1.0319  
G01 X1.2047  Y1.0171  
G01 X1.2161  Y1.0057  
G01 X1.2309  Y0.9995  
G00 Z0.1000  
G00 X1.2309  Y0.8995  
G01 Z-0.0070 F10    
G01 X1.3091  Y0.8995  F20    
G01 X1.3239  Y0.9057  
G01 X1.3353  Y0.9171  
G01 X1.3415  Y0.9319  
G01 X1.3415  Y0.9481  
G01 X1.3353  Y0.9629  
G01 X1.3239  Y0.9743  
G01 X1.3091  Y0.9805  
G01 X1.2309  Y0.9805  
G01 X1.2161  Y0.9743  
G01 X1.2047  Y0.9629  
G01 X1.1985  Y0.9481  
G01 X1.1985  Y0.9319  
G01 X1.2047  Y0.9171  
G01 X1.2161  Y0.9057  
G01 X1.2309  Y0.8995  
G00 Z0.1000  
G00 X1.2309  Y0.7995  
G01 Z-0.0070 F10    
G01 X1.3091  Y0.7995  F20    
G01 X1.3239  Y0.8057  
G01 X1.3353  Y0.8171  
G01 X1.3415  Y0.8319  
G01 X1.3415  Y0.8481  
G01 X1.3353  Y0.8629  
G01 X1.3239  Y0.8743  
G01 X1.3091  Y0.8805  
G01 X1.2309  Y0.8805  
G01 X1.2161  Y0.8743  
G01 X1.2047  Y0.8629  
G01 X1.1985  Y0.8481  
G01 X1.1985  Y0.8319  
G01 X1.2047  Y0.8171  
G01 X1.2161  Y0.8057  
G01 X1.2309  Y0.7995  
G00 Z0.1000  
G00 X1.2309  Y0.6995  
G01 Z-0.0070 F10    
G01 X1.3091  Y0.6995  F20    
G01 X1.3239  Y0.7057  
G01 X1.3353  Y0.7171  
G01 X1.3415  Y0.7319  
G01 X1.3415  Y0.7481  
G01 X1.3353  Y0.7629  
G01 X1.3239  Y0.7743  
G01 X1.3091  Y0.7805  
G01 X1.2309  Y0.7805  
G01 X1.2161  Y0.7743  
G01 X1.2047  Y0.7629  
G01 X1.1985  Y0.7481  
G01 X1.1985  Y0.7319  
G01 X1.2047  Y0.7171  
G01 X1.2161  Y0.7057  
G01 X1.2309  Y0.6995  
G00 Z0.1000  
G00 X1.2309  Y0.5995  
G01 Z-0.0070 F10    
G01 X1.3091  Y0.5995  F20    
G01 X1.3239  Y0.6057  
G01 X1.3353  Y0.6171  
G01 X1.3415  Y0.6319  
G01 X1.3415  Y0.6481  
G01 X1.3353  Y0.6629  
G01 X1.3239  Y0.6743  
G01 X1.3091  Y0.6805  
G01 X1.2309  Y0.6805  
G01 X1.2161  Y0.6743  
G01 X1.2047  Y0.6629  
G01 X1.1985  Y0.6481  
G01 X1.1985  Y0.6319  
G01 X1.2047  Y0.6171  
G01 X1.2161  Y0.6057  
G01 X1.2309  Y0.5995  
G00 Z0.1000  
G00 X1.2309  Y0.4995  
G01 Z-0.0070 F10    
G01 X1.3091  Y0.4995  F20    
G01 X1.3239  Y0.5057  
G01 X1.3353  Y0.5171  
G01 X1.3415  Y0.5319  
G01 X1.3415  Y0.5481  
G01 X1.3353  Y0.5629  
G01 X1.3239  Y0.5743  
G01 X1.3091  Y0.5805  
G01 X1.2309  Y0.5805  
G01 X1.2161  Y0.5743  
G01 X1.2047  Y0.5629  
G01 X1.1985  Y0.5481  
G01 X1.1985  Y0.5319  
G01 X1.2047  Y0.5171  
G01 X1.2161  Y0.5057  
G01 X1.2309  Y0.4995  
G00 Z0.1000  
G00 X1.2309  Y0.3995  
G01 Z-0.0070 F10    
G01 X1.3091  Y0.3995  F20    
G01 X1.3239  Y0.4057  
G01 X1.3353  Y0.4171  
G01 X1.3415  Y0.4319  
G01 X1.3415  Y0.4481  
G01 X1.3353  Y0.4629  
G01 X1.3239  Y0.4743  
G01 X1.3091  Y0.4805  
G01 X1.2309  Y0.4805  
G01 X1.2161  Y0.4743  
G01 X1.2047  Y0.4629  
G01 X1.1985  Y0.4481  
G01 X1.1985  Y0.4319  
G01 X1.2047  Y0.4171  
G01 X1.2161  Y0.4057  
G01 X1.2309  Y0.3995  
G00 Z0.1000  
G00 X1.2309  Y0.2995  
G01 Z-0.0070 F10    
G01 X1.3091  Y0.2995  F20    
G01 X1.3239  Y0.3057  
G01 X1.3353  Y0.3171  
G01 X1.3415  Y0.3319  
G01 X1.3415  Y0.3481  
G01 X1.3353  Y0.3629  
G01 X1.3239  Y0.3743  
G01 X1.3091  Y0.3805  
G01 X1.2309  Y0.3805  
G01 X1.2161  Y0.3743  
G01 X1.2047  Y0.3629  
G01 X1.1985  Y0.3481  
G01 X1.1985  Y0.3319  
G01 X1.2047  Y0.3171  
G01 X1.2161  Y0.3057  
G01 X1.2309  Y0.2995  
G00 Z0.1000  
G00 X0.3345  Y0.9816  
G01 Z-0.0070 F10    
G01 X0.3345  Y1.0184  F20    
G01 X0.3084  Y1.0445  
G01 X0.2716  Y1.0445  
G01 X0.2455  Y1.0184  
G01 X0.2455  Y0.9816  
G01 X0.2716  Y0.9555  
G01 X0.3084  Y0.9555  
G01 X0.3345  Y0.9816  
G00 Z0.1000  
G00 X0.3345  Y0.8816  
G01 Z-0.0070 F10    
G01 X0.3345  Y0.9184  F20    
G01 X0.3084  Y0.9445  
G01 X0.2716  Y0.9445  
G01 X0.2455  Y0.9184  
G01 X0.2455  Y0.8816  
G01 X0.2716  Y0.8555  
G01 X0.3084  Y0.8555  
G01 X0.3345  Y0.8816  
G00 Z0.1000  
G00 X0.3345  Y0.7816  
G01 Z-0.0070 F10    
G01 X0.3345  Y0.8184  F20    
G01 X0.3084  Y0.8445  
G01 X0.2716  Y0.8445  
G01 X0.2455  Y0.8184  
G01 X0.2455  Y0.7816  
G01 X0.2716  Y0.7555  
G01 X0.3084  Y0.7555  
G01 X0.3345  Y0.7816  
G00 Z0.1000  
G00 X0.3345  Y0.6816  
G01 Z-0.0070 F10    
G01 X0.3345  Y0.7184  F20    
G01 X0.3084  Y0.7445  
G01 X0.2716  Y0.7445  
G01 X0.2455  Y0.7184  
G01 X0.2455  Y0.6816  
G01 X0.2716  Y0.6555  
G01 X0.3084  Y0.6555  
G01 X0.3345  Y0.6816  
G00 Z0.1000  
G00 X0.3345  Y0.5816  
G01 Z-0.0070 F10    
G01 X0.3345  Y0.6184  F20    
G01 X0.3084  Y0.6445  
G01 X0.2716  Y0.6445  
G01 X0.2455  Y0.6184  
G01 X0.2455  Y0.5816  
G01 X0.2716  Y0.5555  
G01 X0.3084  Y0.5555  
G01 X0.3345  Y0.5816  
G00 Z0.1000  
G00 X0.3345  Y0.4816  
G01 Z-0.0070 F10    
G01 X0.3345  Y0.5184  F20    
G01 X0.3084  Y0.5445  
G01 X0.2716  Y0.5445  
G01 X0.2455  Y0.5184  
G01 X0.2455  Y0.4816  
G01 X0.2716  Y0.4555  
G01 X0.3084  Y0.4555  
G01 X0.3345  Y0.4816  
G00 Z0.1000  
G00 X0.2345  Y0.9816  
G01 Z-0.0070 F10    
G01 X0.2345  Y1.0184  F20    
G01 X0.2084  Y1.0445  
G01 X0.1716  Y1.0445  
G01 X0.1455  Y1.0184  
G01 X0.1455  Y0.9816  
G01 X0.1716  Y0.9555  
G01 X0.2084  Y0.9555  
G01 X0.2345  Y0.9816  
G00 Z0.1000  
G00 X0.2345  Y0.8816  
G01 Z-0.0070 F10    
G01 X0.2345  Y0.9184  F20    
G01 X0.2084  Y0.9445  
G01 X0.1716  Y0.9445  
G01 X0.1455  Y0.9184  
G01 X0.1455  Y0.8816  
G01 X0.1716  Y0.8555  
G01 X0.2084  Y0.8555  
G01 X0.2345  Y0.8816  
G00 Z0.1000  
G00 X0.2345  Y0.7816  
G01 Z-0.0070 F10    
G01 X0.2345  Y0.8184  F20    
G01 X0.2084  Y0.8445  
G01 X0.1716  Y0.8445  
G01 X0.1455  Y0.8184  
G01 X0.1455  Y0.7816  
G01 X0.1716  Y0.7555  
G01 X0.2084  Y0.7555  
G01 X0.2345  Y0.7816  
G00 Z0.1000  
G00 X0.2345  Y0.6816  
G01 Z-0.0070 F10    
G01 X0.2345  Y0.7184  F20    
G01 X0.2084  Y0.7445  
G01 X0.1716  Y0.7445  
G01 X0.1455  Y0.7184  
G01 X0.1455  Y0.6816  
G01 X0.1716  Y0.6555  
G01 X0.2084  Y0.6555  
G01 X0.2345  Y0.6816  
G00 Z0.1000  
G00 X0.2345  Y0.5816  
G01 Z-0.0070 F10    
G01 X0.2345  Y0.6184  F20    
G01 X0.2084  Y0.6445  
G01 X0.1716  Y0.6445  
G01 X0.1455  Y0.6184  
G01 X0.1455  Y0.5816  
G01 X0.1716  Y0.5555  
G01 X0.2084  Y0.5555  
G01 X0.2345  Y0.5816  
G00 Z0.1000  
G00 X0.2345  Y0.4816  
G01 Z-0.0070 F10    
G01 X0.2345  Y0.5184  F20    
G01 X0.2084  Y0.5445  
G01 X0.1716  Y0.5445  
G01 X0.1455  Y0.5184  
G01 X0.1455  Y0.4816  
G01 X0.1716  Y0.4555  
G01 X0.2084  Y0.4555  
G01 X0.2345  Y0.4816  
G00 Z0.1000  
G00 X0.3345  Y0.3816  
G01 Z-0.0070 F10    
G01 X0.3345  Y0.4184  F20    
G01 X0.3084  Y0.4445  
G01 X0.2716  Y0.4445  
G01 X0.2455  Y0.4184  
G01 X0.2455  Y0.3816  
G01 X0.2716  Y0.3555  
G01 X0.3084  Y0.3555  
G01 X0.3345  Y0.3816  
G00 Z0.1000  
G00 X0.2345  Y0.3816  
G01 Z-0.0070 F10    
G01 X0.2345  Y0.4184  F20    
G01 X0.2084  Y0.4445  
G01 X0.1716  Y0.4445  
G01 X0.1455  Y0.4184  
G01 X0.1455  Y0.3816  
G01 X0.1716  Y0.3555  
G01 X0.2084  Y0.3555  
G01 X0.2345  Y0.3816  
G00 Z0.1000  
G00 X0.8391  Y0.4105  
G01 Z-0.0070 F10    
G01 X0.7609  Y0.4105  F20    
G01 X0.7461  Y0.4043  
G01 X0.7347  Y0.3929  
G01 X0.7285  Y0.3781  
G01 X0.7285  Y0.3619  
G01 X0.7347  Y0.3471  
G01 X0.7461  Y0.3357  
G01 X0.7609  Y0.3295  
G01 X0.8391  Y0.3295  
G01 X0.8539  Y0.3357  
G01 X0.8653  Y0.3471  
G01 X0.8715  Y0.3619  
G01 X0.8715  Y0.3781  
G01 X0.8653  Y0.3929  
G01 X0.8539  Y0.4043  
G01 X0.8391  Y0.4105  
G00 Z0.1000  
G00 X1.1391  Y0.3105  
G01 Z-0.0070 F10    
G01 X1.0609  Y0.3105  F20    
G01 X1.0461  Y0.3043  
G01 X1.0347  Y0.2929  
G01 X1.0285  Y0.2781  
G01 X1.0285  Y0.2619  
G01 X1.0347  Y0.2471  
G01 X1.0461  Y0.2357  
G01 X1.0609  Y0.2295  
G01 X1.1391  Y0.2295  
G01 X1.1539  Y0.2357  
G01 X1.1653  Y0.2471  
G01 X1.1715  Y0.2619  
G01 X1.1715  Y0.2781  
G01 X1.1653  Y0.2929  
G01 X1.1539  Y0.3043  
G01 X1.1391  Y0.3105  
G00 Z0.1000  
G00 X0.6391  Y0.3105  
G01 Z-0.0070 F10    
G01 X0.5609  Y0.3105  F20    
G01 X0.5461  Y0.3043  
G01 X0.5347  Y0.2929  
G01 X0.5285  Y0.2781  
G01 X0.5285  Y0.2619  
G01 X0.5347  Y0.2471  
G01 X0.5461  Y0.2357  
G01 X0.5609  Y0.2295  
G01 X0.6391  Y0.2295  
G01 X0.6539  Y0.2357  
G01 X0.6653  Y0.2471  
G01 X0.6715  Y0.2619  
G01 X0.6715  Y0.2781  
G01 X0.6653  Y0.2929  
G01 X0.6539  Y0.3043  
G01 X0.6391  Y0.3105  
G00 Z0.1000  
G00 X2.1109  Y0.1095  
G01 Z-0.0070 F10    
G01 X2.1891  Y0.1095  F20    
G01 X2.2039  Y0.1157  
G01 X2.2153  Y0.1271  
G01 X2.2215  Y0.1419  
G01 X2.2215  Y0.1581  
G01 X2.2153  Y0.1729  
G01 X2.2039  Y0.1843  
G01 X2.1891  Y0.1905  
G01 X2.1109  Y0.1905  
G01 X2.0961  Y0.1843  
G01 X2.0847  Y0.1729  
G01 X2.0785  Y0.1581  
G01 X2.0785  Y0.1419  
G01 X2.0847  Y0.1271  
G01 X2.0961  Y0.1157  
G01 X2.1109  Y0.1095  
G00 Z0.1000  
G00 X2.1109  Y0.2095  
G01 Z-0.0070 F10    
G01 X2.1891  Y0.2095  F20    
G01 X2.2039  Y0.2157  
G01 X2.2153  Y0.2271  
G01 X2.2215  Y0.2419  
G01 X2.2215  Y0.2581  
G01 X2.2153  Y0.2729  
G01 X2.2039  Y0.2843  
G01 X2.1891  Y0.2905  
G01 X2.1109  Y0.2905  
G01 X2.0961  Y0.2843  
G01 X2.0847  Y0.2729  
G01 X2.0785  Y0.2581  
G01 X2.0785  Y0.2419  
G01 X2.0847  Y0.2271  
G01 X2.0961  Y0.2157  
G01 X2.1109  Y0.2095  
G00 Z0.1000  
G00 X2.1109  Y0.3095  
G01 Z-0.0070 F10    
G01 X2.1891  Y0.3095  F20    
G01 X2.2039  Y0.3157  
G01 X2.2153  Y0.3271  
G01 X2.2215  Y0.3419  
G01 X2.2215  Y0.3581  
G01 X2.2153  Y0.3729  
G01 X2.2039  Y0.3843  
G01 X2.1891  Y0.3905  
G01 X2.1109  Y0.3905  
G01 X2.0961  Y0.3843  
G01 X2.0847  Y0.3729  
G01 X2.0785  Y0.3581  
G01 X2.0785  Y0.3419  
G01 X2.0847  Y0.3271  
G01 X2.0961  Y0.3157  
G01 X2.1109  Y0.3095  
G00 Z0.1000  
G00 X1.8109  Y0.3095  
G01 Z-0.0070 F10    
G01 X1.8891  Y0.3095  F20    
G01 X1.9039  Y0.3157  
G01 X1.9153  Y0.3271  
G01 X1.9215  Y0.3419  
G01 X1.9215  Y0.3581  
G01 X1.9153  Y0.3729  
G01 X1.9039  Y0.3843  
G01 X1.8891  Y0.3905  
G01 X1.8109  Y0.3905  
G01 X1.7961  Y0.3843  
G01 X1.7847  Y0.3729  
G01 X1.7785  Y0.3581  
G01 X1.7785  Y0.3419  
G01 X1.7847  Y0.3271  
G01 X1.7961  Y0.3157  
G01 X1.8109  Y0.3095  
G00 Z0.1000  
G00 X1.8109  Y0.2095  
G01 Z-0.0070 F10    
G01 X1.8891  Y0.2095  F20    
G01 X1.9039  Y0.2157  
G01 X1.9153  Y0.2271  
G01 X1.9215  Y0.2419  
G01 X1.9215  Y0.2581  
G01 X1.9153  Y0.2729  
G01 X1.9039  Y0.2843  
G01 X1.8891  Y0.2905  
G01 X1.8109  Y0.2905  
G01 X1.7961  Y0.2843  
G01 X1.7847  Y0.2729  
G01 X1.7785  Y0.2581  
G01 X1.7785  Y0.2419  
G01 X1.7847  Y0.2271  
G01 X1.7961  Y0.2157  
G01 X1.8109  Y0.2095  
G00 Z0.1000  
G00 X1.8109  Y0.1095  
G01 Z-0.0070 F10    
G01 X1.8891  Y0.1095  F20    
G01 X1.9039  Y0.1157  
G01 X1.9153  Y0.1271  
G01 X1.9215  Y0.1419  
G01 X1.9215  Y0.1581  
G01 X1.9153  Y0.1729  
G01 X1.9039  Y0.1843  
G01 X1.8891  Y0.1905  
G01 X1.8109  Y0.1905  
G01 X1.7961  Y0.1843  
G01 X1.7847  Y0.1729  
G01 X1.7785  Y0.1581  
G01 X1.7785  Y0.1419  
G01 X1.7847  Y0.1271  
G01 X1.7961  Y0.1157  
G01 X1.8109  Y0.1095  
G00 Z0.1000  
G00 X1.8405  Y0.6632  
G01 Z-0.0070 F10    
G01 X1.8405  Y0.6968  F20    
G01 X1.8168  Y0.7205  
G01 X1.7832  Y0.7205  
G01 X1.7595  Y0.6968  
G01 X1.7595  Y0.6632  
G01 X1.7832  Y0.6395  
G01 X1.8168  Y0.6395  
G01 X1.8405  Y0.6632  
G00 Z0.1000  
G00 X1.8405  Y0.4632  
G01 Z-0.0070 F10    
G01 X1.8405  Y0.4968  F20    
G01 X1.8168  Y0.5205  
G01 X1.7832  Y0.5205  
G01 X1.7595  Y0.4968  
G01 X1.7595  Y0.4632  
G01 X1.7832  Y0.4395  
G01 X1.8168  Y0.4395  
G01 X1.8405  Y0.4632  
G00 Z0.1000  
G00 X1.9605  Y0.6632  
G01 Z-0.0070 F10    
G01 X1.9605  Y0.6968  F20    
G01 X1.9368  Y0.7205  
G01 X1.9032  Y0.7205  
G01 X1.8795  Y0.6968  
G01 X1.8795  Y0.6632  
G01 X1.9032  Y0.6395  
G01 X1.9368  Y0.6395  
G01 X1.9605  Y0.6632  
G00 Z0.1000  
G00 X1.9605  Y0.4632  
G01 Z-0.0070 F10    
G01 X1.9605  Y0.4968  F20    
G01 X1.9368  Y0.5205  
G01 X1.9032  Y0.5205  
G01 X1.8795  Y0.4968  
G01 X1.8795  Y0.4632  
G01 X1.9032  Y0.4395  
G01 X1.9368  Y0.4395  
G01 X1.9605  Y0.4632  
G00 Z0.1000  
G00 X2.0805  Y0.6632  
G01 Z-0.0070 F10    
G01 X2.0805  Y0.6968  F20    
G01 X2.0568  Y0.7205  
G01 X2.0232  Y0.7205  
G01 X1.9995  Y0.6968  
G01 X1.9995  Y0.6632  
G01 X2.0232  Y0.6395  
G01 X2.0568  Y0.6395  
G01 X2.0805  Y0.6632  
G00 Z0.1000  
G00 X2.0805  Y0.4632  
G01 Z-0.0070 F10    
G01 X2.0805  Y0.4968  F20    
G01 X2.0568  Y0.5205  
G01 X2.0232  Y0.5205  
G01 X1.9995  Y0.4968  
G01 X1.9995  Y0.4632  
G01 X2.0232  Y0.4395  
G01 X2.0568  Y0.4395  
G01 X2.0805  Y0.4632  
G00 Z0.1000  
G00 X1.3105  Y0.2132  
G01 Z-0.0070 F10    
G01 X1.3105  Y0.2468  F20    
G01 X1.2868  Y0.2705  
G01 X1.2532  Y0.2705  
G01 X1.2295  Y0.2468  
G01 X1.2295  Y0.2132  
G01 X1.2532  Y0.1895  
G01 X1.2868  Y0.1895  
G01 X1.3105  Y0.2132  
G00 Z0.1000  
G00 X1.4105  Y0.2132  
G01 Z-0.0070 F10    
G01 X1.4105  Y0.2468  F20    
G01 X1.3868  Y0.2705  
G01 X1.3532  Y0.2705  
G01 X1.3295  Y0.2468  
G01 X1.3295  Y0.2132  
G01 X1.3532  Y0.1895  
G01 X1.3868  Y0.1895  
G01 X1.4105  Y0.2132  
G00 Z0.1000  
G00 X2.3595  Y1.0054  
G01 Z-0.0070 F10    
G01 X2.3595  Y1.0546  F20    
G01 X2.3246  Y1.0895  
G01 X2.2754  Y1.0895  
G01 X2.2405  Y1.0546  
G01 X2.2405  Y1.0054  
G01 X2.2754  Y0.9705  
G01 X2.3246  Y0.9705  
G01 X2.3595  Y1.0054  
G00 Z0.1000  
G00 X2.0595  Y1.0054  
G01 Z-0.0070 F10    
G01 X2.0595  Y1.0546  F20    
G01 X2.0246  Y1.0895  
G01 X1.9754  Y1.0895  
G01 X1.9405  Y1.0546  
G01 X1.9405  Y1.0054  
G01 X1.9754  Y0.9705  
G01 X2.0246  Y0.9705  
G01 X2.0595  Y1.0054  
G00 Z0.1000  
G00 X0.5505  Y0.9832  
G01 Z-0.0070 F10    
G01 X0.5505  Y1.0168  F20    
G01 X0.5268  Y1.0405  
G01 X0.4932  Y1.0405  
G01 X0.4695  Y1.0168  
G01 X0.4695  Y0.9832  
G01 X0.4932  Y0.9595  
G01 X0.5268  Y0.9595  
G01 X0.5505  Y0.9832  
G00 Z0.1000  
G00 X0.4505  Y0.9832  
G01 Z-0.0070 F10    
G01 X0.4505  Y1.0168  F20    
G01 X0.4268  Y1.0405  
G01 X0.3932  Y1.0405  
G01 X0.3695  Y1.0168  
G01 X0.3695  Y0.9832  
G01 X0.3932  Y0.9595  
G01 X0.4268  Y0.9595  
G01 X0.4505  Y0.9832  
G00 Z0.1000  
G00 X1.4305  Y1.1532  
G01 Z-0.0070 F10    
G01 X1.4305  Y1.1868  F20    
G01 X1.4068  Y1.2105  
G01 X1.3732  Y1.2105  
G01 X1.3495  Y1.1868  
G01 X1.3495  Y1.1532  
G01 X1.3732  Y1.1295  
G01 X1.4068  Y1.1295  
G01 X1.4305  Y1.1532  
G00 Z0.1000  
G00 X1.5305  Y1.1532  
G01 Z-0.0070 F10    
G01 X1.5305  Y1.1868  F20    
G01 X1.5068  Y1.2105  
G01 X1.4732  Y1.2105  
G01 X1.4495  Y1.1868  
G01 X1.4495  Y1.1532  
G01 X1.4732  Y1.1295  
G01 X1.5068  Y1.1295  
G01 X1.5305  Y1.1532  
G00 Z0.1000  
G00 X1.1745  Y1.2097  
G01 Z-0.0070 F10    
G01 X1.1597  Y1.2245  F20    
G01 X1.1404  Y1.2325  
G01 X1.1196  Y1.2325  
G01 X1.1003  Y1.2245  
G01 X1.0855  Y1.2097  
G01 X1.0775  Y1.1904  
G01 X1.0775  Y1.1696  
G01 X1.0855  Y1.1503  
G01 X1.1003  Y1.1355  
G01 X1.1196  Y1.1275  
G01 X1.1404  Y1.1275  
G01 X1.1597  Y1.1355  
G01 X1.1745  Y1.1503  
G01 X1.1777  Y1.1580  
G01 X1.2083  Y1.1275  
G01 X1.2517  Y1.1275  
G01 X1.2825  Y1.1583  
G01 X1.2825  Y1.2017  
G01 X1.2517  Y1.2325  
G01 X1.2083  Y1.2325  
G01 X1.1777  Y1.2020  
G01 X1.1745  Y1.2097  
G00 Z0.1000  
G00 X1.8075  Y1.2086  
G01 Z-0.0070 F10    
G01 X1.8075  Y1.2314  F20    
G01 X1.7987  Y1.2526  
G01 X1.7826  Y1.2687  
G01 X1.7614  Y1.2775  
G01 X1.7386  Y1.2775  
G01 X1.7174  Y1.2687  
G01 X1.7013  Y1.2526  
G01 X1.6925  Y1.2314  
G01 X1.6925  Y1.2086  
G01 X1.7013  Y1.1874  
G01 X1.7174  Y1.1713  
G01 X1.7192  Y1.1705  
G01 X1.6925  Y1.1438  
G01 X1.6925  Y1.0962  
G01 X1.7262  Y1.0625  
G01 X1.7738  Y1.0625  
G01 X1.8075  Y1.0962  
G01 X1.8075  Y1.1438  
G01 X1.7808  Y1.1705  
G01 X1.7826  Y1.1713  
G01 X1.7987  Y1.1874  
G01 X1.8075  Y1.2086  
G00 Z0.1000  
G00 X0.8407  Y0.6967  
G01 Z-0.0070 F10    
G01 X0.8279  Y0.7095  F20    
G01 X0.8112  Y0.7164  
G01 X0.7931  Y0.7164  
G01 X0.7764  Y0.7095  
G01 X0.7636  Y0.6967  
G01 X0.7628  Y0.6948  
G01 X0.7620  Y0.6967  
G01 X0.7492  Y0.7095  
G01 X0.7324  Y0.7164  
G01 X0.7143  Y0.7164  
G01 X0.6976  Y0.7095  
G01 X0.6848  Y0.6967  
G01 X0.6779  Y0.6800  
G01 X0.6779  Y0.5999  
G01 X0.6848  Y0.5832  
G01 X0.6976  Y0.5704  
G01 X0.7143  Y0.5634  
G01 X0.7324  Y0.5634  
G01 X0.7492  Y0.5704  
G01 X0.7620  Y0.5832  
G01 X0.7628  Y0.5851  
G01 X0.7636  Y0.5832  
G01 X0.7764  Y0.5704  
G01 X0.7931  Y0.5634  
G01 X0.8112  Y0.5634  
G01 X0.8279  Y0.5704  
G01 X0.8407  Y0.5832  
G01 X0.8415  Y0.5851  
G01 X0.8423  Y0.5832  
G01 X0.8551  Y0.5704  
G01 X0.8718  Y0.5634  
G01 X0.8899  Y0.5634  
G01 X0.9066  Y0.5704  
G01 X0.9194  Y0.5832  
G01 X0.9264  Y0.5999  
G01 X0.9264  Y0.6800  
G01 X0.9194  Y0.6967  
G01 X0.9066  Y0.7095  
G01 X0.8899  Y0.7164  
G01 X0.8718  Y0.7164  
G01 X0.8551  Y0.7095  
G01 X0.8423  Y0.6967  
G01 X0.8415  Y0.6948  
G01 X0.8407  Y0.6967  
G00 Z0.1000  
G00 X0.8029  Y0.7633  
G01 Z-0.0070 F10    
G01 X0.8157  Y0.7505  F20    
G01 X0.8324  Y0.7436  
G01 X0.8505  Y0.7436  
G01 X0.8673  Y0.7505  
G01 X0.8801  Y0.7633  
G01 X0.8809  Y0.7652  
G01 X0.8817  Y0.7633  
G01 X0.8945  Y0.7505  
G01 X0.9112  Y0.7436  
G01 X0.9293  Y0.7436  
G01 X0.9460  Y0.7505  
G01 X0.9588  Y0.7633  
G01 X0.9657  Y0.7800  
G01 X0.9657  Y0.8601  
G01 X0.9588  Y0.8768  
G01 X0.9460  Y0.8896  
G01 X0.9293  Y0.8966  
G01 X0.9112  Y0.8966  
G01 X0.8945  Y0.8896  
G01 X0.8817  Y0.8768  
G01 X0.8809  Y0.8749  
G01 X0.8801  Y0.8768  
G01 X0.8673  Y0.8896  
G01 X0.8505  Y0.8966  
G01 X0.8324  Y0.8966  
G01 X0.8157  Y0.8896  
G01 X0.8029  Y0.8768  
G01 X0.8021  Y0.8749  
G01 X0.8013  Y0.8768  
G01 X0.7885  Y0.8896  
G01 X0.7718  Y0.8966  
G01 X0.7537  Y0.8966  
G01 X0.7370  Y0.8896  
G01 X0.7242  Y0.8768  
G01 X0.7173  Y0.8601  
G01 X0.7173  Y0.7800  
G01 X0.7242  Y0.7633  
G01 X0.7370  Y0.7505  
G01 X0.7537  Y0.7436  
G01 X0.7718  Y0.7436  
G01 X0.7885  Y0.7505  
G01 X0.8013  Y0.7633  
G01 X0.8021  Y0.7652  
G01 X0.8029  Y0.7633  
G00 Z0.1000  
G00 X1.5299  Y0.2945  
G01 Z-0.0070 F10    
G01 X1.6101  Y0.2945  F20    
G01 X1.6268  Y0.3014  
G01 X1.6396  Y0.3142  
G01 X1.6465  Y0.3309  
G01 X1.6465  Y0.3491  
G01 X1.6396  Y0.3658  
G01 X1.6268  Y0.3786  
G01 X1.6101  Y0.3855  
G01 X1.5299  Y0.3855  
G01 X1.5132  Y0.3786  
G01 X1.5004  Y0.3658  
G01 X1.4935  Y0.3491  
G01 X1.4935  Y0.3309  
G01 X1.5004  Y0.3142  
G01 X1.5132  Y0.3014  
G01 X1.5299  Y0.2945  
G00 Z0.1000  
G00 X1.5299  Y0.3945  
G01 Z-0.0070 F10    
G01 X1.6101  Y0.3945  F20    
G01 X1.6268  Y0.4014  
G01 X1.6396  Y0.4142  
G01 X1.6465  Y0.4309  
G01 X1.6465  Y0.4491  
G01 X1.6396  Y0.4658  
G01 X1.6268  Y0.4786  
G01 X1.6101  Y0.4855  
G01 X1.5299  Y0.4855  
G01 X1.5132  Y0.4786  
G01 X1.5004  Y0.4658  
G01 X1.4935  Y0.4491  
G01 X1.4935  Y0.4309  
G01 X1.5004  Y0.4142  
G01 X1.5132  Y0.4014  
G01 X1.5299  Y0.3945  
G00 Z0.1000  
G00 X1.5299  Y0.4945  
G01 Z-0.0070 F10    
G01 X1.6101  Y0.4945  F20    
G01 X1.6268  Y0.5014  
G01 X1.6396  Y0.5142  
G01 X1.6465  Y0.5309  
G01 X1.6465  Y0.5491  
G01 X1.6396  Y0.5658  
G01 X1.6268  Y0.5786  
G01 X1.6101  Y0.5855  
G01 X1.5299  Y0.5855  
G01 X1.5132  Y0.5786  
G01 X1.5004  Y0.5658  
G01 X1.4935  Y0.5491  
G01 X1.4935  Y0.5309  
G01 X1.5004  Y0.5142  
G01 X1.5132  Y0.5014  
G01 X1.5299  Y0.4945  
G00 Z0.1000  
G00 X1.5299  Y0.5945  
G01 Z-0.0070 F10    
G01 X1.6101  Y0.5945  F20    
G01 X1.6268  Y0.6014  
G01 X1.6396  Y0.6142  
G01 X1.6465  Y0.6309  
G01 X1.6465  Y0.6491  
G01 X1.6396  Y0.6658  
G01 X1.6268  Y0.6786  
G01 X1.6101  Y0.6855  
G01 X1.5299  Y0.6855  
G01 X1.5132  Y0.6786  
G01 X1.5004  Y0.6658  
G01 X1.4935  Y0.6491  
G01 X1.4935  Y0.6309  
G01 X1.5004  Y0.6142  
G01 X1.5132  Y0.6014  
G01 X1.5299  Y0.5945  
G00 Z0.1000  
G00 X1.5299  Y0.6945  
G01 Z-0.0070 F10    
G01 X1.6101  Y0.6945  F20    
G01 X1.6268  Y0.7014  
G01 X1.6396  Y0.7142  
G01 X1.6465  Y0.7309  
G01 X1.6465  Y0.7491  
G01 X1.6396  Y0.7658  
G01 X1.6268  Y0.7786  
G01 X1.6101  Y0.7855  
G01 X1.5299  Y0.7855  
G01 X1.5132  Y0.7786  
G01 X1.5004  Y0.7658  
G01 X1.4935  Y0.7491  
G01 X1.4935  Y0.7309  
G01 X1.5004  Y0.7142  
G01 X1.5132  Y0.7014  
G01 X1.5299  Y0.6945  
G00 Z0.1000  
G00 X1.5299  Y0.7945  
G01 Z-0.0070 F10    
G01 X1.6101  Y0.7945  F20    
G01 X1.6268  Y0.8014  
G01 X1.6396  Y0.8142  
G01 X1.6465  Y0.8309  
G01 X1.6465  Y0.8491  
G01 X1.6396  Y0.8658  
G01 X1.6268  Y0.8786  
G01 X1.6101  Y0.8855  
G01 X1.5299  Y0.8855  
G01 X1.5132  Y0.8786  
G01 X1.5004  Y0.8658  
G01 X1.4935  Y0.8491  
G01 X1.4935  Y0.8309  
G01 X1.5004  Y0.8142  
G01 X1.5132  Y0.8014  
G01 X1.5299  Y0.7945  
G00 Z0.1000  
G00 X1.5299  Y0.8945  
G01 Z-0.0070 F10    
G01 X1.6101  Y0.8945  F20    
G01 X1.6268  Y0.9014  
G01 X1.6396  Y0.9142  
G01 X1.6465  Y0.9309  
G01 X1.6465  Y0.9491  
G01 X1.6396  Y0.9658  
G01 X1.6268  Y0.9786  
G01 X1.6101  Y0.9855  
G01 X1.5299  Y0.9855  
G01 X1.5132  Y0.9786  
G01 X1.5004  Y0.9658  
G01 X1.4935  Y0.9491  
G01 X1.4935  Y0.9309  
G01 X1.5004  Y0.9142  
G01 X1.5132  Y0.9014  
G01 X1.5299  Y0.8945  
G00 Z0.1000  
G00 X1.5299  Y0.9945  
G01 Z-0.0070 F10    
G01 X1.6101  Y0.9945  F20    
G01 X1.6268  Y1.0014  
G01 X1.6396  Y1.0142  
G01 X1.6465  Y1.0309  
G01 X1.6465  Y1.0491  
G01 X1.6396  Y1.0658  
G01 X1.6268  Y1.0786  
G01 X1.6101  Y1.0855  
G01 X1.5299  Y1.0855  
G01 X1.5132  Y1.0786  
G01 X1.5004  Y1.0658  
G01 X1.4935  Y1.0491  
G01 X1.4935  Y1.0309  
G01 X1.5004  Y1.0142  
G01 X1.5132  Y1.0014  
G01 X1.5299  Y0.9945  
G00 Z0.1000  
G00 X1.2299  Y0.9945  
G01 Z-0.0070 F10    
G01 X1.3101  Y0.9945  F20    
G01 X1.3268  Y1.0014  
G01 X1.3396  Y1.0142  
G01 X1.3465  Y1.0309  
G01 X1.3465  Y1.0491  
G01 X1.3396  Y1.0658  
G01 X1.3268  Y1.0786  
G01 X1.3101  Y1.0855  
G01 X1.2299  Y1.0855  
G01 X1.2132  Y1.0786  
G01 X1.2004  Y1.0658  
G01 X1.1935  Y1.0491  
G01 X1.1935  Y1.0309  
G01 X1.2004  Y1.0142  
G01 X1.2132  Y1.0014  
G01 X1.2299  Y0.9945  
G00 Z0.1000  
G00 X1.2299  Y0.8945  
G01 Z-0.0070 F10    
G01 X1.3101  Y0.8945  F20    
G01 X1.3268  Y0.9014  
G01 X1.3396  Y0.9142  
G01 X1.3465  Y0.9309  
G01 X1.3465  Y0.9491  
G01 X1.3396  Y0.9658  
G01 X1.3268  Y0.9786  
G01 X1.3101  Y0.9855  
G01 X1.2299  Y0.9855  
G01 X1.2132  Y0.9786  
G01 X1.2004  Y0.9658  
G01 X1.1935  Y0.9491  
G01 X1.1935  Y0.9309  
G01 X1.2004  Y0.9142  
G01 X1.2132  Y0.9014  
G01 X1.2299  Y0.8945  
G00 Z0.1000  
G00 X1.2299  Y0.7945  
G01 Z-0.0070 F10    
G01 X1.3101  Y0.7945  F20    
G01 X1.3268  Y0.8014  
G01 X1.3396  Y0.8142  
G01 X1.3465  Y0.8309  
G01 X1.3465  Y0.8491  
G01 X1.3396  Y0.8658  
G01 X1.3268  Y0.8786  
G01 X1.3101  Y0.8855  
G01 X1.2299  Y0.8855  
G01 X1.2132  Y0.8786  
G01 X1.2004  Y0.8658  
G01 X1.1935  Y0.8491  
G01 X1.1935  Y0.8309  
G01 X1.2004  Y0.8142  
G01 X1.2132  Y0.8014  
G01 X1.2299  Y0.7945  
G00 Z0.1000  
G00 X1.2299  Y0.6945  
G01 Z-0.0070 F10    
G01 X1.3101  Y0.6945  F20    
G01 X1.3268  Y0.7014  
G01 X1.3396  Y0.7142  
G01 X1.3465  Y0.7309  
G01 X1.3465  Y0.7491  
G01 X1.3396  Y0.7658  
G01 X1.3268  Y0.7786  
G01 X1.3101  Y0.7855  
G01 X1.2299  Y0.7855  
G01 X1.2132  Y0.7786  
G01 X1.2004  Y0.7658  
G01 X1.1935  Y0.7491  
G01 X1.1935  Y0.7309  
G01 X1.2004  Y0.7142  
G01 X1.2132  Y0.7014  
G01 X1.2299  Y0.6945  
G00 Z0.1000  
G00 X1.2299  Y0.5945  
G01 Z-0.0070 F10    
G01 X1.3101  Y0.5945  F20    
G01 X1.3268  Y0.6014  
G01 X1.3396  Y0.6142  
G01 X1.3465  Y0.6309  
G01 X1.3465  Y0.6491  
G01 X1.3396  Y0.6658  
G01 X1.3268  Y0.6786  
G01 X1.3101  Y0.6855  
G01 X1.2299  Y0.6855  
G01 X1.2132  Y0.6786  
G01 X1.2004  Y0.6658  
G01 X1.1935  Y0.6491  
G01 X1.1935  Y0.6309  
G01 X1.2004  Y0.6142  
G01 X1.2132  Y0.6014  
G01 X1.2299  Y0.5945  
G00 Z0.1000  
G00 X1.2299  Y0.4945  
G01 Z-0.0070 F10    
G01 X1.3101  Y0.4945  F20    
G01 X1.3268  Y0.5014  
G01 X1.3396  Y0.5142  
G01 X1.3465  Y0.5309  
G01 X1.3465  Y0.5491  
G01 X1.3396  Y0.5658  
G01 X1.3268  Y0.5786  
G01 X1.3101  Y0.5855  
G01 X1.2299  Y0.5855  
G01 X1.2132  Y0.5786  
G01 X1.2004  Y0.5658  
G01 X1.1935  Y0.5491  
G01 X1.1935  Y0.5309  
G01 X1.2004  Y0.5142  
G01 X1.2132  Y0.5014  
G01 X1.2299  Y0.4945  
G00 Z0.1000  
G00 X1.2299  Y0.3945  
G01 Z-0.0070 F10    
G01 X1.3101  Y0.3945  F20    
G01 X1.3268  Y0.4014  
G01 X1.3396  Y0.4142  
G01 X1.3465  Y0.4309  
G01 X1.3465  Y0.4491  
G01 X1.3396  Y0.4658  
G01 X1.3268  Y0.4786  
G01 X1.3101  Y0.4855  
G01 X1.2299  Y0.4855  
G01 X1.2132  Y0.4786  
G01 X1.2004  Y0.4658  
G01 X1.1935  Y0.4491  
G01 X1.1935  Y0.4309  
G01 X1.2004  Y0.4142  
G01 X1.2132  Y0.4014  
G01 X1.2299  Y0.3945  
G00 Z0.1000  
G00 X1.2299  Y0.2945  
G01 Z-0.0070 F10    
G01 X1.3101  Y0.2945  F20    
G01 X1.3268  Y0.3014  
G01 X1.3396  Y0.3142  
G01 X1.3465  Y0.3309  
G01 X1.3465  Y0.3491  
G01 X1.3396  Y0.3658  
G01 X1.3268  Y0.3786  
G01 X1.3101  Y0.3855  
G01 X1.2299  Y0.3855  
G01 X1.2132  Y0.3786  
G01 X1.2004  Y0.3658  
G01 X1.1935  Y0.3491  
G01 X1.1935  Y0.3309  
G01 X1.2004  Y0.3142  
G01 X1.2132  Y0.3014  
G01 X1.2299  Y0.2945  
G00 Z0.1000  
G00 X0.3395  Y0.9795  
G01 Z-0.0070 F10    
G01 X0.3395  Y1.0205  F20    
G01 X0.3105  Y1.0495  
G01 X0.2695  Y1.0495  
G01 X0.2405  Y1.0205  
G01 X0.2405  Y0.9795  
G01 X0.2695  Y0.9505  
G01 X0.3105  Y0.9505  
G01 X0.3395  Y0.9795  
G00 Z0.1000  
G00 X0.3395  Y0.8795  
G01 Z-0.0070 F10    
G01 X0.3395  Y0.9205  F20    
G01 X0.3105  Y0.9495  
G01 X0.2695  Y0.9495  
G01 X0.2405  Y0.9205  
G01 X0.2405  Y0.8795  
G01 X0.2695  Y0.8505  
G01 X0.3105  Y0.8505  
G01 X0.3395  Y0.8795  
G00 Z0.1000  
G00 X0.3395  Y0.7795  
G01 Z-0.0070 F10    
G01 X0.3395  Y0.8205  F20    
G01 X0.3105  Y0.8495  
G01 X0.2695  Y0.8495  
G01 X0.2405  Y0.8205  
G01 X0.2405  Y0.7795  
G01 X0.2695  Y0.7505  
G01 X0.3105  Y0.7505  
G01 X0.3395  Y0.7795  
G00 Z0.1000  
G00 X0.3395  Y0.6795  
G01 Z-0.0070 F10    
G01 X0.3395  Y0.7205  F20    
G01 X0.3105  Y0.7495  
G01 X0.2695  Y0.7495  
G01 X0.2405  Y0.7205  
G01 X0.2405  Y0.6795  
G01 X0.2695  Y0.6505  
G01 X0.3105  Y0.6505  
G01 X0.3395  Y0.6795  
G00 Z0.1000  
G00 X0.3395  Y0.5795  
G01 Z-0.0070 F10    
G01 X0.3395  Y0.6205  F20    
G01 X0.3105  Y0.6495  
G01 X0.2695  Y0.6495  
G01 X0.2405  Y0.6205  
G01 X0.2405  Y0.5795  
G01 X0.2695  Y0.5505  
G01 X0.3105  Y0.5505  
G01 X0.3395  Y0.5795  
G00 Z0.1000  
G00 X0.3395  Y0.4795  
G01 Z-0.0070 F10    
G01 X0.3395  Y0.5205  F20    
G01 X0.3105  Y0.5495  
G01 X0.2695  Y0.5495  
G01 X0.2405  Y0.5205  
G01 X0.2405  Y0.4795  
G01 X0.2695  Y0.4505  
G01 X0.3105  Y0.4505  
G01 X0.3395  Y0.4795  
G00 Z0.1000  
G00 X0.2395  Y0.9795  
G01 Z-0.0070 F10    
G01 X0.2395  Y1.0205  F20    
G01 X0.2105  Y1.0495  
G01 X0.1695  Y1.0495  
G01 X0.1405  Y1.0205  
G01 X0.1405  Y0.9795  
G01 X0.1695  Y0.9505  
G01 X0.2105  Y0.9505  
G01 X0.2395  Y0.9795  
G00 Z0.1000  
G00 X0.2395  Y0.8795  
G01 Z-0.0070 F10    
G01 X0.2395  Y0.9205  F20    
G01 X0.2105  Y0.9495  
G01 X0.1695  Y0.9495  
G01 X0.1405  Y0.9205  
G01 X0.1405  Y0.8795  
G01 X0.1695  Y0.8505  
G01 X0.2105  Y0.8505  
G01 X0.2395  Y0.8795  
G00 Z0.1000  
G00 X0.2395  Y0.7795  
G01 Z-0.0070 F10    
G01 X0.2395  Y0.8205  F20    
G01 X0.2105  Y0.8495  
G01 X0.1695  Y0.8495  
G01 X0.1405  Y0.8205  
G01 X0.1405  Y0.7795  
G01 X0.1695  Y0.7505  
G01 X0.2105  Y0.7505  
G01 X0.2395  Y0.7795  
G00 Z0.1000  
G00 X0.2395  Y0.6795  
G01 Z-0.0070 F10    
G01 X0.2395  Y0.7205  F20    
G01 X0.2105  Y0.7495  
G01 X0.1695  Y0.7495  
G01 X0.1405  Y0.7205  
G01 X0.1405  Y0.6795  
G01 X0.1695  Y0.6505  
G01 X0.2105  Y0.6505  
G01 X0.2395  Y0.6795  
G00 Z0.1000  
G00 X0.2395  Y0.5795  
G01 Z-0.0070 F10    
G01 X0.2395  Y0.6205  F20    
G01 X0.2105  Y0.6495  
G01 X0.1695  Y0.6495  
G01 X0.1405  Y0.6205  
G01 X0.1405  Y0.5795  
G01 X0.1695  Y0.5505  
G01 X0.2105  Y0.5505  
G01 X0.2395  Y0.5795  
G00 Z0.1000  
G00 X0.2395  Y0.4795  
G01 Z-0.0070 F10    
G01 X0.2395  Y0.5205  F20    
G01 X0.2105  Y0.5495  
G01 X0.1695  Y0.5495  
G01 X0.1405  Y0.5205  
G01 X0.1405  Y0.4795  
G01 X0.1695  Y0.4505  
G01 X0.2105  Y0.4505  
G01 X0.2395  Y0.4795  
G00 Z0.1000  
G00 X0.3395  Y0.3795  
G01 Z-0.0070 F10    
G01 X0.3395  Y0.4205  F20    
G01 X0.3105  Y0.4495  
G01 X0.2695  Y0.4495  
G01 X0.2405  Y0.4205  
G01 X0.2405  Y0.3795  
G01 X0.2695  Y0.3505  
G01 X0.3105  Y0.3505  
G01 X0.3395  Y0.3795  
G00 Z0.1000  
G00 X0.2395  Y0.3795  
G01 Z-0.0070 F10    
G01 X0.2395  Y0.4205  F20    
G01 X0.2105  Y0.4495  
G01 X0.1695  Y0.4495  
G01 X0.1405  Y0.4205  
G01 X0.1405  Y0.3795  
G01 X0.1695  Y0.3505  
G01 X0.2105  Y0.3505  
G01 X0.2395  Y0.3795  
G00 Z0.1000  
G00 X0.8401  Y0.4155  
G01 Z-0.0070 F10    
G01 X0.7599  Y0.4155  F20    
G01 X0.7432  Y0.4086  
G01 X0.7304  Y0.3958  
G01 X0.7235  Y0.3791  
G01 X0.7235  Y0.3609  
G01 X0.7304  Y0.3442  
G01 X0.7432  Y0.3314  
G01 X0.7599  Y0.3245  
G01 X0.8401  Y0.3245  
G01 X0.8568  Y0.3314  
G01 X0.8696  Y0.3442  
G01 X0.8765  Y0.3609  
G01 X0.8765  Y0.3791  
G01 X0.8696  Y0.3958  
G01 X0.8568  Y0.4086  
G01 X0.8401  Y0.4155  
G00 Z0.1000  
G00 X1.1401  Y0.3155  
G01 Z-0.0070 F10    
G01 X1.0599  Y0.3155  F20    
G01 X1.0432  Y0.3086  
G01 X1.0304  Y0.2958  
G01 X1.0235  Y0.2791  
G01 X1.0235  Y0.2609  
G01 X1.0304  Y0.2442  
G01 X1.0432  Y0.2314  
G01 X1.0599  Y0.2245  
G01 X1.1401  Y0.2245  
G01 X1.1568  Y0.2314  
G01 X1.1696  Y0.2442  
G01 X1.1765  Y0.2609  
G01 X1.1765  Y0.2791  
G01 X1.1696  Y0.2958  
G01 X1.1568  Y0.3086  
G01 X1.1401  Y0.3155  
G00 Z0.1000  
G00 X0.6401  Y0.3155  
G01 Z-0.0070 F10    
G01 X0.5599  Y0.3155  F20    
G01 X0.5432  Y0.3086  
G01 X0.5304  Y0.2958  
G01 X0.5235  Y0.2791  
G01 X0.5235  Y0.2609  
G01 X0.5304  Y0.2442  
G01 X0.5432  Y0.2314  
G01 X0.5599  Y0.2245  
G01 X0.6401  Y0.2245  
G01 X0.6568  Y0.2314  
G01 X0.6696  Y0.2442  
G01 X0.6765  Y0.2609  
G01 X0.6765  Y0.2791  
G01 X0.6696  Y0.2958  
G01 X0.6568  Y0.3086  
G01 X0.6401  Y0.3155  
G00 Z0.1000  
G00 X2.1099  Y0.1045  
G01 Z-0.0070 F10    
G01 X2.1901  Y0.1045  F20    
G01 X2.2068  Y0.1114  
G01 X2.2196  Y0.1242  
G01 X2.2265  Y0.1409  
G01 X2.2265  Y0.1591  
G01 X2.2196  Y0.1758  
G01 X2.2068  Y0.1886  
G01 X2.1901  Y0.1955  
G01 X2.1099  Y0.1955  
G01 X2.0932  Y0.1886  
G01 X2.0804  Y0.1758  
G01 X2.0735  Y0.1591  
G01 X2.0735  Y0.1409  
G01 X2.0804  Y0.1242  
G01 X2.0932  Y0.1114  
G01 X2.1099  Y0.1045  
G00 Z0.1000  
G00 X2.1099  Y0.2045  
G01 Z-0.0070 F10    
G01 X2.1901  Y0.2045  F20    
G01 X2.2068  Y0.2114  
G01 X2.2196  Y0.2242  
G01 X2.2265  Y0.2409  
G01 X2.2265  Y0.2591  
G01 X2.2196  Y0.2758  
G01 X2.2068  Y0.2886  
G01 X2.1901  Y0.2955  
G01 X2.1099  Y0.2955  
G01 X2.0932  Y0.2886  
G01 X2.0804  Y0.2758  
G01 X2.0735  Y0.2591  
G01 X2.0735  Y0.2409  
G01 X2.0804  Y0.2242  
G01 X2.0932  Y0.2114  
G01 X2.1099  Y0.2045  
G00 Z0.1000  
G00 X2.1099  Y0.3045  
G01 Z-0.0070 F10    
G01 X2.1901  Y0.3045  F20    
G01 X2.2068  Y0.3114  
G01 X2.2196  Y0.3242  
G01 X2.2265  Y0.3409  
G01 X2.2265  Y0.3591  
G01 X2.2196  Y0.3758  
G01 X2.2068  Y0.3886  
G01 X2.1901  Y0.3955  
G01 X2.1099  Y0.3955  
G01 X2.0932  Y0.3886  
G01 X2.0804  Y0.3758  
G01 X2.0735  Y0.3591  
G01 X2.0735  Y0.3409  
G01 X2.0804  Y0.3242  
G01 X2.0932  Y0.3114  
G01 X2.1099  Y0.3045  
G00 Z0.1000  
G00 X1.8099  Y0.3045  
G01 Z-0.0070 F10    
G01 X1.8901  Y0.3045  F20    
G01 X1.9068  Y0.3114  
G01 X1.9196  Y0.3242  
G01 X1.9265  Y0.3409  
G01 X1.9265  Y0.3591  
G01 X1.9196  Y0.3758  
G01 X1.9068  Y0.3886  
G01 X1.8901  Y0.3955  
G01 X1.8099  Y0.3955  
G01 X1.7932  Y0.3886  
G01 X1.7804  Y0.3758  
G01 X1.7735  Y0.3591  
G01 X1.7735  Y0.3409  
G01 X1.7804  Y0.3242  
G01 X1.7932  Y0.3114  
G01 X1.8099  Y0.3045  
G00 Z0.1000  
G00 X1.8099  Y0.2045  
G01 Z-0.0070 F10    
G01 X1.8901  Y0.2045  F20    
G01 X1.9068  Y0.2114  
G01 X1.9196  Y0.2242  
G01 X1.9265  Y0.2409  
G01 X1.9265  Y0.2591  
G01 X1.9196  Y0.2758  
G01 X1.9068  Y0.2886  
G01 X1.8901  Y0.2955  
G01 X1.8099  Y0.2955  
G01 X1.7932  Y0.2886  
G01 X1.7804  Y0.2758  
G01 X1.7735  Y0.2591  
G01 X1.7735  Y0.2409  
G01 X1.7804  Y0.2242  
G01 X1.7932  Y0.2114  
G01 X1.8099  Y0.2045  
G00 Z0.1000  
G00 X1.8099  Y0.1045  
G01 Z-0.0070 F10    
G01 X1.8901  Y0.1045  F20    
G01 X1.9068  Y0.1114  
G01 X1.9196  Y0.1242  
G01 X1.9265  Y0.1409  
G01 X1.9265  Y0.1591  
G01 X1.9196  Y0.1758  
G01 X1.9068  Y0.1886  
G01 X1.8901  Y0.1955  
G01 X1.8099  Y0.1955  
G01 X1.7932  Y0.1886  
G01 X1.7804  Y0.1758  
G01 X1.7735  Y0.1591  
G01 X1.7735  Y0.1409  
G01 X1.7804  Y0.1242  
G01 X1.7932  Y0.1114  
G01 X1.8099  Y0.1045  
G00 Z0.1000  
G00 X1.8455  Y0.6612  
G01 Z-0.0070 F10    
G01 X1.8455  Y0.6988  F20    
G01 X1.8188  Y0.7255  
G01 X1.7812  Y0.7255  
G01 X1.7545  Y0.6988  
G01 X1.7545  Y0.6612  
G01 X1.7812  Y0.6345  
G01 X1.8188  Y0.6345  
G01 X1.8455  Y0.6612  
G00 Z0.1000  
G00 X1.8455  Y0.4612  
G01 Z-0.0070 F10    
G01 X1.8455  Y0.4988  F20    
G01 X1.8188  Y0.5255  
G01 X1.7812  Y0.5255  
G01 X1.7545  Y0.4988  
G01 X1.7545  Y0.4612  
G01 X1.7812  Y0.4345  
G01 X1.8188  Y0.4345  
G01 X1.8455  Y0.4612  
G00 Z0.1000  
G00 X1.9655  Y0.6612  
G01 Z-0.0070 F10    
G01 X1.9655  Y0.6988  F20    
G01 X1.9388  Y0.7255  
G01 X1.9012  Y0.7255  
G01 X1.8745  Y0.6988  
G01 X1.8745  Y0.6612  
G01 X1.9012  Y0.6345  
G01 X1.9388  Y0.6345  
G01 X1.9655  Y0.6612  
G00 Z0.1000  
G00 X1.9655  Y0.4612  
G01 Z-0.0070 F10    
G01 X1.9655  Y0.4988  F20    
G01 X1.9388  Y0.5255  
G01 X1.9012  Y0.5255  
G01 X1.8745  Y0.4988  
G01 X1.8745  Y0.4612  
G01 X1.9012  Y0.4345  
G01 X1.9388  Y0.4345  
G01 X1.9655  Y0.4612  
G00 Z0.1000  
G00 X2.0855  Y0.6612  
G01 Z-0.0070 F10    
G01 X2.0855  Y0.6988  F20    
G01 X2.0588  Y0.7255  
G01 X2.0212  Y0.7255  
G01 X1.9945  Y0.6988  
G01 X1.9945  Y0.6612  
G01 X2.0212  Y0.6345  
G01 X2.0588  Y0.6345  
G01 X2.0855  Y0.6612  
G00 Z0.1000  
G00 X2.0855  Y0.4612  
G01 Z-0.0070 F10    
G01 X2.0855  Y0.4988  F20    
G01 X2.0588  Y0.5255  
G01 X2.0212  Y0.5255  
G01 X1.9945  Y0.4988  
G01 X1.9945  Y0.4612  
G01 X2.0212  Y0.4345  
G01 X2.0588  Y0.4345  
G01 X2.0855  Y0.4612  
G00 Z0.1000  
G00 X1.3155  Y0.2112  
G01 Z-0.0070 F10    
G01 X1.3155  Y0.2488  F20    
G01 X1.2888  Y0.2755  
G01 X1.2512  Y0.2755  
G01 X1.2245  Y0.2488  
G01 X1.2245  Y0.2112  
G01 X1.2512  Y0.1845  
G01 X1.2888  Y0.1845  
G01 X1.3155  Y0.2112  
G00 Z0.1000  
G00 X1.4155  Y0.2112  
G01 Z-0.0070 F10    
G01 X1.4155  Y0.2488  F20    
G01 X1.3888  Y0.2755  
G01 X1.3512  Y0.2755  
G01 X1.3245  Y0.2488  
G01 X1.3245  Y0.2112  
G01 X1.3512  Y0.1845  
G01 X1.3888  Y0.1845  
G01 X1.4155  Y0.2112  
G00 Z0.1000  
G00 X2.3645  Y1.0033  
G01 Z-0.0070 F10    
G01 X2.3645  Y1.0567  F20    
G01 X2.3267  Y1.0945  
G01 X2.2733  Y1.0945  
G01 X2.2355  Y1.0567  
G01 X2.2355  Y1.0033  
G01 X2.2733  Y0.9655  
G01 X2.3267  Y0.9655  
G01 X2.3645  Y1.0033  
G00 Z0.1000  
G00 X2.0645  Y1.0033  
G01 Z-0.0070 F10    
G01 X2.0645  Y1.0567  F20    
G01 X2.0267  Y1.0945  
G01 X1.9733  Y1.0945  
G01 X1.9355  Y1.0567  
G01 X1.9355  Y1.0033  
G01 X1.9733  Y0.9655  
G01 X2.0267  Y0.9655  
G01 X2.0645  Y1.0033  
G00 Z0.1000  
G00 X0.5555  Y0.9812  
G01 Z-0.0070 F10    
G01 X0.5555  Y1.0188  F20    
G01 X0.5288  Y1.0455  
G01 X0.4912  Y1.0455  
G01 X0.4645  Y1.0188  
G01 X0.4645  Y0.9812  
G01 X0.4912  Y0.9545  
G01 X0.5288  Y0.9545  
G01 X0.5555  Y0.9812  
G00 Z0.1000  
G00 X0.4555  Y0.9812  
G01 Z-0.0070 F10    
G01 X0.4555  Y1.0188  F20    
G01 X0.4288  Y1.0455  
G01 X0.3912  Y1.0455  
G01 X0.3645  Y1.0188  
G01 X0.3645  Y0.9812  
G01 X0.3912  Y0.9545  
G01 X0.4288  Y0.9545  
G01 X0.4555  Y0.9812  
G00 Z0.1000  
G00 X1.4355  Y1.1512  
G01 Z-0.0070 F10    
G01 X1.4355  Y1.1888  F20    
G01 X1.4248  Y1.1995  
G01 X1.4552  Y1.1995  
G01 X1.4445  Y1.1888  
G01 X1.4445  Y1.1512  
G01 X1.4712  Y1.1245  
G01 X1.5088  Y1.1245  
G01 X1.5355  Y1.1512  
G01 X1.5355  Y1.1888  
G01 X1.5088  Y1.2155  
G01 X1.4748  Y1.2155  
G01 X1.4855  Y1.2262  
G01 X1.4855  Y1.2638  
G01 X1.4588  Y1.2905  
G01 X1.4212  Y1.2905  
G01 X1.3945  Y1.2638  
G01 X1.3945  Y1.2262  
G01 X1.4052  Y1.2155  
G01 X1.3712  Y1.2155  
G01 X1.3445  Y1.1888  
G01 X1.3445  Y1.1512  
G01 X1.3712  Y1.1245  
G01 X1.4088  Y1.1245  
G01 X1.4355  Y1.1512  
G00 Z0.1000  
G00 X1.1787  Y1.2126  
G01 Z-0.0070 F10    
G01 X1.1626  Y1.2287  F20    
G01 X1.1414  Y1.2375  
G01 X1.1186  Y1.2375  
G01 X1.0974  Y1.2287  
G01 X1.0813  Y1.2126  
G01 X1.0725  Y1.1914  
G01 X1.0725  Y1.1686  
G01 X1.0813  Y1.1474  
G01 X1.0974  Y1.1313  
G01 X1.1186  Y1.1225  
G01 X1.1414  Y1.1225  
G01 X1.1626  Y1.1313  
G01 X1.1787  Y1.1474  
G01 X1.1795  Y1.1492  
G01 X1.2062  Y1.1225  
G01 X1.2538  Y1.1225  
G01 X1.2875  Y1.1562  
G01 X1.2875  Y1.2038  
G01 X1.2538  Y1.2375  
G01 X1.2062  Y1.2375  
G01 X1.1795  Y1.2108  
G01 X1.1787  Y1.2126  
G00 Z0.1000  
G00 X1.4369  Y1.1945  
G01 Z-0.0070 F10    
G01 X1.4431  Y1.1945  F20    
G01 X1.4400  Y1.1914  
G01 X1.4369  Y1.1945  
G00 Z0.1000  
G00 X0.2400  Y0.9729  
G01 Z-0.0070 F10    
G01 X0.2629  Y0.9500  F20    
G01 X0.2400  Y0.9271  
G01 X0.2171  Y0.9500  
G01 X0.2400  Y0.9729  
G00 Z0.1000  
G00 X0.2400  Y0.7729  
G01 Z-0.0070 F10    
G01 X0.2629  Y0.7500  F20    
G01 X0.2400  Y0.7271  
G01 X0.2171  Y0.7500  
G01 X0.2400  Y0.7729  
G00 Z0.1000  
G00 X0.2400  Y0.5729  
G01 Z-0.0070 F10    
G01 X0.2629  Y0.5500  F20    
G01 X0.2400  Y0.5271  
G01 X0.2171  Y0.5500  
G01 X0.2400  Y0.5729  
G00 Z0.1000  
G00 X0.2400  Y0.4729  
G01 Z-0.0070 F10    
G01 X0.2629  Y0.4500  F20    
G01 X0.2400  Y0.4271  
G01 X0.2171  Y0.4500  
G01 X0.2400  Y0.4729  
G00 Z0.1000  
G00 X0.2400  Y0.6729  
G01 Z-0.0070 F10    
G01 X0.2629  Y0.6500  F20    
G01 X0.2400  Y0.6271  
G01 X0.2171  Y0.6500  
G01 X0.2400  Y0.6729  
G00 Z0.1000  
G00 X0.2400  Y0.8729  
G01 Z-0.0070 F10    
G01 X0.2629  Y0.8500  F20    
G01 X0.2400  Y0.8271  
G01 X0.2171  Y0.8500  
G01 X0.2400  Y0.8729  
G00 Z0.1000  
G00 X1.8125  Y1.2076  
G01 Z-0.0070 F10    
G01 X1.8125  Y1.2324  F20    
G01 X1.8030  Y1.2554  
G01 X1.7854  Y1.2730  
G01 X1.7624  Y1.2825  
G01 X1.7376  Y1.2825  
G01 X1.7146  Y1.2730  
G01 X1.6970  Y1.2554  
G01 X1.6875  Y1.2324  
G01 X1.6875  Y1.2076  
G01 X1.6970  Y1.1846  
G01 X1.7116  Y1.1700  
G01 X1.6875  Y1.1459  
G01 X1.6875  Y1.0941  
G01 X1.7241  Y1.0575  
G01 X1.7759  Y1.0575  
G01 X1.8125  Y1.0941  
G01 X1.8125  Y1.1459  
G01 X1.7884  Y1.1700  
G01 X1.8030  Y1.1846  
G01 X1.8125  Y1.2076  
G00 Z0.1000  
G00 X0.5605  Y0.9791  
G01 Z-0.0070 F10    
G01 X0.5605  Y1.0209  F20    
G01 X0.5309  Y1.0505  
G01 X0.4891  Y1.0505  
G01 X0.4600  Y1.0214  
G01 X0.4309  Y1.0505  
G01 X0.3891  Y1.0505  
G01 X0.3595  Y1.0209  
G01 X0.3595  Y0.9791  
G01 X0.3891  Y0.9495  
G01 X0.4309  Y0.9495  
G01 X0.4600  Y0.9786  
G01 X0.4891  Y0.9495  
G01 X0.5309  Y0.9495  
G01 X0.5605  Y0.9791  
G00 Z0.1000  
G00 X2.0695  Y1.0012  
G01 Z-0.0070 F10    
G01 X2.0695  Y1.0588  F20    
G01 X2.0288  Y1.0995  
G01 X1.9712  Y1.0995  
G01 X1.9305  Y1.0588  
G01 X1.9305  Y1.0012  
G01 X1.9712  Y0.9605  
G01 X2.0288  Y0.9605  
G01 X2.0695  Y1.0012  
G00 Z0.1000  
G00 X2.3695  Y1.0012  
G01 Z-0.0070 F10    
G01 X2.3695  Y1.0588  F20    
G01 X2.3288  Y1.0995  
G01 X2.2712  Y1.0995  
G01 X2.2305  Y1.0588  
G01 X2.2305  Y1.0012  
G01 X2.2712  Y0.9605  
G01 X2.3288  Y0.9605  
G01 X2.3695  Y1.0012  
G00 Z0.1000  
G00 X0.3445  Y0.9774  
G01 Z-0.0070 F10    
G01 X0.3445  Y1.0226  F20    
G01 X0.3126  Y1.0545  
G01 X0.2674  Y1.0545  
G01 X0.2400  Y1.0271  
G01 X0.2126  Y1.0545  
G01 X0.1674  Y1.0545  
G01 X0.1355  Y1.0226  
G01 X0.1355  Y0.9774  
G01 X0.1629  Y0.9500  
G01 X0.1355  Y0.9226  
G01 X0.1355  Y0.8774  
G01 X0.1629  Y0.8500  
G01 X0.1355  Y0.8226  
G01 X0.1355  Y0.7774  
G01 X0.1629  Y0.7500  
G01 X0.1355  Y0.7226  
G01 X0.1355  Y0.6774  
G01 X0.1629  Y0.6500  
G01 X0.1355  Y0.6226  
G01 X0.1355  Y0.5774  
G01 X0.1629  Y0.5500  
G01 X0.1355  Y0.5226  
G01 X0.1355  Y0.4774  
G01 X0.1629  Y0.4500  
G01 X0.1355  Y0.4226  
G01 X0.1355  Y0.3774  
G01 X0.1674  Y0.3455  
G01 X0.2126  Y0.3455  
G01 X0.2400  Y0.3729  
G01 X0.2674  Y0.3455  
G01 X0.3126  Y0.3455  
G01 X0.3445  Y0.3774  
G01 X0.3445  Y0.4226  
G01 X0.3171  Y0.4500  
G01 X0.3445  Y0.4774  
G01 X0.3445  Y0.5226  
G01 X0.3171  Y0.5500  
G01 X0.3445  Y0.5774  
G01 X0.3445  Y0.6226  
G01 X0.3171  Y0.6500  
G01 X0.3445  Y0.6774  
G01 X0.3445  Y0.7226  
G01 X0.3171  Y0.7500  
G01 X0.3445  Y0.7774  
G01 X0.3445  Y0.8226  
G01 X0.3171  Y0.8500  
G01 X0.3445  Y0.8774  
G01 X0.3445  Y0.9226  
G01 X0.3171  Y0.9500  
G01 X0.3445  Y0.9774  
G00 Z0.1000  
G00 X1.5290  Y0.2895  
G01 Z-0.0070 F10    
G01 X1.6110  Y0.2895  F20    
G01 X1.6296  Y0.2972  
G01 X1.6438  Y0.3114  
G01 X1.6515  Y0.3300  
G01 X1.6515  Y0.3500  
G01 X1.6438  Y0.3686  
G01 X1.6296  Y0.3828  
G01 X1.6122  Y0.3900  
G01 X1.6296  Y0.3972  
G01 X1.6438  Y0.4114  
G01 X1.6515  Y0.4300  
G01 X1.6515  Y0.4500  
G01 X1.6438  Y0.4686  
G01 X1.6296  Y0.4828  
G01 X1.6122  Y0.4900  
G01 X1.6296  Y0.4972  
G01 X1.6438  Y0.5114  
G01 X1.6515  Y0.5300  
G01 X1.6515  Y0.5500  
G01 X1.6438  Y0.5686  
G01 X1.6296  Y0.5828  
G01 X1.6122  Y0.5900  
G01 X1.6296  Y0.5972  
G01 X1.6438  Y0.6114  
G01 X1.6515  Y0.6300  
G01 X1.6515  Y0.6500  
G01 X1.6438  Y0.6686  
G01 X1.6296  Y0.6828  
G01 X1.6122  Y0.6900  
G01 X1.6296  Y0.6972  
G01 X1.6438  Y0.7114  
G01 X1.6515  Y0.7300  
G01 X1.6515  Y0.7500  
G01 X1.6438  Y0.7686  
G01 X1.6296  Y0.7828  
G01 X1.6122  Y0.7900  
G01 X1.6296  Y0.7972  
G01 X1.6438  Y0.8114  
G01 X1.6515  Y0.8300  
G01 X1.6515  Y0.8500  
G01 X1.6438  Y0.8686  
G01 X1.6296  Y0.8828  
G01 X1.6122  Y0.8900  
G01 X1.6296  Y0.8972  
G01 X1.6438  Y0.9114  
G01 X1.6515  Y0.9300  
G01 X1.6515  Y0.9500  
G01 X1.6438  Y0.9686  
G01 X1.6296  Y0.9828  
G01 X1.6122  Y0.9900  
G01 X1.6296  Y0.9972  
G01 X1.6438  Y1.0114  
G01 X1.6515  Y1.0300  
G01 X1.6515  Y1.0500  
G01 X1.6438  Y1.0686  
G01 X1.6296  Y1.0828  
G01 X1.6110  Y1.0905  
G01 X1.5290  Y1.0905  
G01 X1.5104  Y1.0828  
G01 X1.4962  Y1.0686  
G01 X1.4885  Y1.0500  
G01 X1.4885  Y1.0300  
G01 X1.4962  Y1.0114  
G01 X1.5104  Y0.9972  
G01 X1.5278  Y0.9900  
G01 X1.5104  Y0.9828  
G01 X1.4962  Y0.9686  
G01 X1.4885  Y0.9500  
G01 X1.4885  Y0.9300  
G01 X1.4962  Y0.9114  
G01 X1.5104  Y0.8972  
G01 X1.5278  Y0.8900  
G01 X1.5104  Y0.8828  
G01 X1.4962  Y0.8686  
G01 X1.4885  Y0.8500  
G01 X1.4885  Y0.8300  
G01 X1.4962  Y0.8114  
G01 X1.5104  Y0.7972  
G01 X1.5278  Y0.7900  
G01 X1.5104  Y0.7828  
G01 X1.4962  Y0.7686  
G01 X1.4885  Y0.7500  
G01 X1.4885  Y0.7300  
G01 X1.4962  Y0.7114  
G01 X1.5104  Y0.6972  
G01 X1.5278  Y0.6900  
G01 X1.5104  Y0.6828  
G01 X1.4962  Y0.6686  
G01 X1.4885  Y0.6500  
G01 X1.4885  Y0.6300  
G01 X1.4962  Y0.6114  
G01 X1.5104  Y0.5972  
G01 X1.5278  Y0.5900  
G01 X1.5104  Y0.5828  
G01 X1.4962  Y0.5686  
G01 X1.4885  Y0.5500  
G01 X1.4885  Y0.5300  
G01 X1.4962  Y0.5114  
G01 X1.5104  Y0.4972  
G01 X1.5278  Y0.4900  
G01 X1.5104  Y0.4828  
G01 X1.4962  Y0.4686  
G01 X1.4885  Y0.4500  
G01 X1.4885  Y0.4300  
G01 X1.4962  Y0.4114  
G01 X1.5104  Y0.3972  
G01 X1.5278  Y0.3900  
G01 X1.5104  Y0.3828  
G01 X1.4962  Y0.3686  
G01 X1.4885  Y0.3500  
G01 X1.4885  Y0.3300  
G01 X1.4962  Y0.3114  
G01 X1.5104  Y0.2972  
G01 X1.5290  Y0.2895  
G00 Z0.1000  
G00 X0.8129  Y0.7462  
G01 Z-0.0070 F10    
G01 X0.8314  Y0.7386  F20    
G01 X0.8515  Y0.7386  
G01 X0.8701  Y0.7462  
G01 X0.8809  Y0.7570  
G01 X0.8916  Y0.7462  
G01 X0.9102  Y0.7386  
G01 X0.9303  Y0.7386  
G01 X0.9488  Y0.7462  
G01 X0.9630  Y0.7604  
G01 X0.9707  Y0.7790  
G01 X0.9707  Y0.8611  
G01 X0.9630  Y0.8797  
G01 X0.9488  Y0.8939  
G01 X0.9303  Y0.9016  
G01 X0.9102  Y0.9016  
G01 X0.8916  Y0.8939  
G01 X0.8809  Y0.8831  
G01 X0.8701  Y0.8939  
G01 X0.8515  Y0.9016  
G01 X0.8314  Y0.9016  
G01 X0.8129  Y0.8939  
G01 X0.8021  Y0.8831  
G01 X0.7914  Y0.8939  
G01 X0.7728  Y0.9016  
G01 X0.7527  Y0.9016  
G01 X0.7341  Y0.8939  
G01 X0.7199  Y0.8797  
G01 X0.7123  Y0.8611  
G01 X0.7123  Y0.7790  
G01 X0.7199  Y0.7604  
G01 X0.7341  Y0.7462  
G01 X0.7527  Y0.7386  
G01 X0.7728  Y0.7386  
G01 X0.7914  Y0.7462  
G01 X0.8021  Y0.7570  
G01 X0.8129  Y0.7462  
G00 Z0.1000  
G00 X0.8307  Y0.7138  
G01 Z-0.0070 F10    
G01 X0.8122  Y0.7214  F20    
G01 X0.7921  Y0.7214  
G01 X0.7735  Y0.7138  
G01 X0.7628  Y0.7030  
G01 X0.7520  Y0.7138  
G01 X0.7334  Y0.7214  
G01 X0.7133  Y0.7214  
G01 X0.6948  Y0.7138  
G01 X0.6806  Y0.6995  
G01 X0.6729  Y0.6810  
G01 X0.6729  Y0.5989  
G01 X0.6806  Y0.5803  
G01 X0.6948  Y0.5661  
G01 X0.7133  Y0.5584  
G01 X0.7334  Y0.5584  
G01 X0.7520  Y0.5661  
G01 X0.7628  Y0.5769  
G01 X0.7735  Y0.5661  
G01 X0.7921  Y0.5584  
G01 X0.8122  Y0.5584  
G01 X0.8307  Y0.5661  
G01 X0.8415  Y0.5769  
G01 X0.8523  Y0.5661  
G01 X0.8708  Y0.5584  
G01 X0.8909  Y0.5584  
G01 X0.9095  Y0.5661  
G01 X0.9237  Y0.5803  
G01 X0.9314  Y0.5989  
G01 X0.9314  Y0.6810  
G01 X0.9237  Y0.6995  
G01 X0.9095  Y0.7138  
G01 X0.8909  Y0.7214  
G01 X0.8708  Y0.7214  
G01 X0.8523  Y0.7138  
G01 X0.8415  Y0.7030  
G01 X0.8307  Y0.7138  
G00 Z0.1000  
G00 X1.3296  Y0.9972  
G01 Z-0.0070 F10    
G01 X1.3438  Y1.0114  F20    
G01 X1.3515  Y1.0300  
G01 X1.3515  Y1.0500  
G01 X1.3438  Y1.0686  
G01 X1.3296  Y1.0828  
G01 X1.3110  Y1.0905  
G01 X1.2290  Y1.0905  
G01 X1.2104  Y1.0828  
G01 X1.1962  Y1.0686  
G01 X1.1885  Y1.0500  
G01 X1.1885  Y1.0300  
G01 X1.1962  Y1.0114  
G01 X1.2104  Y0.9972  
G01 X1.2278  Y0.9900  
G01 X1.2104  Y0.9828  
G01 X1.1962  Y0.9686  
G01 X1.1885  Y0.9500  
G01 X1.1885  Y0.9300  
G01 X1.1962  Y0.9114  
G01 X1.2104  Y0.8972  
G01 X1.2278  Y0.8900  
G01 X1.2104  Y0.8828  
G01 X1.1962  Y0.8686  
G01 X1.1885  Y0.8500  
G01 X1.1885  Y0.8300  
G01 X1.1962  Y0.8114  
G01 X1.2104  Y0.7972  
G01 X1.2278  Y0.7900  
G01 X1.2104  Y0.7828  
G01 X1.1962  Y0.7686  
G01 X1.1885  Y0.7500  
G01 X1.1885  Y0.7300  
G01 X1.1962  Y0.7114  
G01 X1.2104  Y0.6972  
G01 X1.2278  Y0.6900  
G01 X1.2104  Y0.6828  
G01 X1.1962  Y0.6686  
G01 X1.1885  Y0.6500  
G01 X1.1885  Y0.6300  
G01 X1.1962  Y0.6114  
G01 X1.2104  Y0.5972  
G01 X1.2278  Y0.5900  
G01 X1.2104  Y0.5828  
G01 X1.1962  Y0.5686  
G01 X1.1885  Y0.5500  
G01 X1.1885  Y0.5300  
G01 X1.1962  Y0.5114  
G01 X1.2104  Y0.4972  
G01 X1.2278  Y0.4900  
G01 X1.2104  Y0.4828  
G01 X1.1962  Y0.4686  
G01 X1.1885  Y0.4500  
G01 X1.1885  Y0.4300  
G01 X1.1962  Y0.4114  
G01 X1.2104  Y0.3972  
G01 X1.2278  Y0.3900  
G01 X1.2104  Y0.3828  
G01 X1.1962  Y0.3686  
G01 X1.1885  Y0.3500  
G01 X1.1885  Y0.3300  
G01 X1.1962  Y0.3114  
G01 X1.2104  Y0.2972  
G01 X1.2290  Y0.2895  
G01 X1.3110  Y0.2895  
G01 X1.3296  Y0.2972  
G01 X1.3438  Y0.3114  
G01 X1.3515  Y0.3300  
G01 X1.3515  Y0.3500  
G01 X1.3438  Y0.3686  
G01 X1.3296  Y0.3828  
G01 X1.3122  Y0.3900  
G01 X1.3296  Y0.3972  
G01 X1.3438  Y0.4114  
G01 X1.3515  Y0.4300  
G01 X1.3515  Y0.4500  
G01 X1.3438  Y0.4686  
G01 X1.3296  Y0.4828  
G01 X1.3122  Y0.4900  
G01 X1.3296  Y0.4972  
G01 X1.3438  Y0.5114  
G01 X1.3515  Y0.5300  
G01 X1.3515  Y0.5500  
G01 X1.3438  Y0.5686  
G01 X1.3296  Y0.5828  
G01 X1.3122  Y0.5900  
G01 X1.3296  Y0.5972  
G01 X1.3438  Y0.6114  
G01 X1.3515  Y0.6300  
G01 X1.3515  Y0.6500  
G01 X1.3438  Y0.6686  
G01 X1.3296  Y0.6828  
G01 X1.3122  Y0.6900  
G01 X1.3296  Y0.6972  
G01 X1.3438  Y0.7114  
G01 X1.3515  Y0.7300  
G01 X1.3515  Y0.7500  
G01 X1.3438  Y0.7686  
G01 X1.3296  Y0.7828  
G01 X1.3122  Y0.7900  
G01 X1.3296  Y0.7972  
G01 X1.3438  Y0.8114  
G01 X1.3515  Y0.8300  
G01 X1.3515  Y0.8500  
G01 X1.3438  Y0.8686  
G01 X1.3296  Y0.8828  
G01 X1.3122  Y0.8900  
G01 X1.3296  Y0.8972  
G01 X1.3438  Y0.9114  
G01 X1.3515  Y0.9300  
G01 X1.3515  Y0.9500  
G01 X1.3438  Y0.9686  
G01 X1.3296  Y0.9828  
G01 X1.3122  Y0.9900  
G01 X1.3296  Y0.9972  
G00 Z0.1000  
G00 X0.8410  Y0.4205  
G01 Z-0.0070 F10    
G01 X0.7590  Y0.4205  F20    
G01 X0.7404  Y0.4128  
G01 X0.7262  Y0.3986  
G01 X0.7185  Y0.3800  
G01 X0.7185  Y0.3600  
G01 X0.7262  Y0.3414  
G01 X0.7404  Y0.3272  
G01 X0.7590  Y0.3195  
G01 X0.8410  Y0.3195  
G01 X0.8596  Y0.3272  
G01 X0.8738  Y0.3414  
G01 X0.8815  Y0.3600  
G01 X0.8815  Y0.3800  
G01 X0.8738  Y0.3986  
G01 X0.8596  Y0.4128  
G01 X0.8410  Y0.4205  
G00 Z0.1000  
G00 X1.1410  Y0.3205  
G01 Z-0.0070 F10    
G01 X1.0590  Y0.3205  F20    
G01 X1.0404  Y0.3128  
G01 X1.0262  Y0.2986  
G01 X1.0185  Y0.2800  
G01 X1.0185  Y0.2600  
G01 X1.0262  Y0.2414  
G01 X1.0404  Y0.2272  
G01 X1.0590  Y0.2195  
G01 X1.1410  Y0.2195  
G01 X1.1596  Y0.2272  
G01 X1.1738  Y0.2414  
G01 X1.1815  Y0.2600  
G01 X1.1815  Y0.2800  
G01 X1.1738  Y0.2986  
G01 X1.1596  Y0.3128  
G01 X1.1410  Y0.3205  
G00 Z0.1000  
G00 X0.6410  Y0.3205  
G01 Z-0.0070 F10    
G01 X0.5590  Y0.3205  F20    
G01 X0.5404  Y0.3128  
G01 X0.5262  Y0.2986  
G01 X0.5185  Y0.2800  
G01 X0.5185  Y0.2600  
G01 X0.5262  Y0.2414  
G01 X0.5404  Y0.2272  
G01 X0.5590  Y0.2195  
G01 X0.6410  Y0.2195  
G01 X0.6596  Y0.2272  
G01 X0.6738  Y0.2414  
G01 X0.6815  Y0.2600  
G01 X0.6815  Y0.2800  
G01 X0.6738  Y0.2986  
G01 X0.6596  Y0.3128  
G01 X0.6410  Y0.3205  
G00 Z0.1000  
G00 X2.1090  Y0.0995  
G01 Z-0.0070 F10    
G01 X2.1910  Y0.0995  F20    
G01 X2.2096  Y0.1072  
G01 X2.2238  Y0.1214  
G01 X2.2315  Y0.1400  
G01 X2.2315  Y0.1600  
G01 X2.2238  Y0.1786  
G01 X2.2096  Y0.1928  
G01 X2.1922  Y0.2000  
G01 X2.2096  Y0.2072  
G01 X2.2238  Y0.2214  
G01 X2.2315  Y0.2400  
G01 X2.2315  Y0.2600  
G01 X2.2238  Y0.2786  
G01 X2.2096  Y0.2928  
G01 X2.1922  Y0.3000  
G01 X2.2096  Y0.3072  
G01 X2.2238  Y0.3214  
G01 X2.2315  Y0.3400  
G01 X2.2315  Y0.3600  
G01 X2.2238  Y0.3786  
G01 X2.2096  Y0.3928  
G01 X2.1910  Y0.4005  
G01 X2.1090  Y0.4005  
G01 X2.0904  Y0.3928  
G01 X2.0762  Y0.3786  
G01 X2.0685  Y0.3600  
G01 X2.0685  Y0.3400  
G01 X2.0762  Y0.3214  
G01 X2.0904  Y0.3072  
G01 X2.1078  Y0.3000  
G01 X2.0904  Y0.2928  
G01 X2.0762  Y0.2786  
G01 X2.0685  Y0.2600  
G01 X2.0685  Y0.2400  
G01 X2.0762  Y0.2214  
G01 X2.0904  Y0.2072  
G01 X2.1078  Y0.2000  
G01 X2.0904  Y0.1928  
G01 X2.0762  Y0.1786  
G01 X2.0685  Y0.1600  
G01 X2.0685  Y0.1400  
G01 X2.0762  Y0.1214  
G01 X2.0904  Y0.1072  
G01 X2.1090  Y0.0995  
G00 Z0.1000  
G00 X1.9096  Y0.3072  
G01 Z-0.0070 F10    
G01 X1.9238  Y0.3214  F20    
G01 X1.9315  Y0.3400  
G01 X1.9315  Y0.3600  
G01 X1.9238  Y0.3786  
G01 X1.9096  Y0.3928  
G01 X1.8910  Y0.4005  
G01 X1.8090  Y0.4005  
G01 X1.7904  Y0.3928  
G01 X1.7762  Y0.3786  
G01 X1.7685  Y0.3600  
G01 X1.7685  Y0.3400  
G01 X1.7762  Y0.3214  
G01 X1.7904  Y0.3072  
G01 X1.8078  Y0.3000  
G01 X1.7904  Y0.2928  
G01 X1.7762  Y0.2786  
G01 X1.7685  Y0.2600  
G01 X1.7685  Y0.2400  
G01 X1.7762  Y0.2214  
G01 X1.7904  Y0.2072  
G01 X1.8078  Y0.2000  
G01 X1.7904  Y0.1928  
G01 X1.7762  Y0.1786  
G01 X1.7685  Y0.1600  
G01 X1.7685  Y0.1400  
G01 X1.7762  Y0.1214  
G01 X1.7904  Y0.1072  
G01 X1.8090  Y0.0995  
G01 X1.8910  Y0.0995  
G01 X1.9096  Y0.1072  
G01 X1.9238  Y0.1214  
G01 X1.9315  Y0.1400  
G01 X1.9315  Y0.1600  
G01 X1.9238  Y0.1786  
G01 X1.9096  Y0.1928  
G01 X1.8922  Y0.2000  
G01 X1.9096  Y0.2072  
G01 X1.9238  Y0.2214  
G01 X1.9315  Y0.2400  
G01 X1.9315  Y0.2600  
G01 X1.9238  Y0.2786  
G01 X1.9096  Y0.2928  
G01 X1.8922  Y0.3000  
G01 X1.9096  Y0.3072  
G00 Z0.1000  
G00 X1.8505  Y0.6591  
G01 Z-0.0070 F10    
G01 X1.8505  Y0.7009  F20    
G01 X1.8209  Y0.7305  
G01 X1.7791  Y0.7305  
G01 X1.7495  Y0.7009  
G01 X1.7495  Y0.6591  
G01 X1.7791  Y0.6295  
G01 X1.8209  Y0.6295  
G01 X1.8505  Y0.6591  
G00 Z0.1000  
G00 X1.8505  Y0.4591  
G01 Z-0.0070 F10    
G01 X1.8505  Y0.5009  F20    
G01 X1.8209  Y0.5305  
G01 X1.7791  Y0.5305  
G01 X1.7495  Y0.5009  
G01 X1.7495  Y0.4591  
G01 X1.7791  Y0.4295  
G01 X1.8209  Y0.4295  
G01 X1.8505  Y0.4591  
G00 Z0.1000  
G00 X1.9705  Y0.6591  
G01 Z-0.0070 F10    
G01 X1.9705  Y0.7009  F20    
G01 X1.9409  Y0.7305  
G01 X1.8991  Y0.7305  
G01 X1.8695  Y0.7009  
G01 X1.8695  Y0.6591  
G01 X1.8991  Y0.6295  
G01 X1.9409  Y0.6295  
G01 X1.9705  Y0.6591  
G00 Z0.1000  
G00 X1.9705  Y0.4591  
G01 Z-0.0070 F10    
G01 X1.9705  Y0.5009  F20    
G01 X1.9409  Y0.5305  
G01 X1.8991  Y0.5305  
G01 X1.8695  Y0.5009  
G01 X1.8695  Y0.4591  
G01 X1.8991  Y0.4295  
G01 X1.9409  Y0.4295  
G01 X1.9705  Y0.4591  
G00 Z0.1000  
G00 X2.0905  Y0.6591  
G01 Z-0.0070 F10    
G01 X2.0905  Y0.7009  F20    
G01 X2.0609  Y0.7305  
G01 X2.0191  Y0.7305  
G01 X1.9895  Y0.7009  
G01 X1.9895  Y0.6591  
G01 X2.0191  Y0.6295  
G01 X2.0609  Y0.6295  
G01 X2.0905  Y0.6591  
G00 Z0.1000  
G00 X2.0905  Y0.4591  
G01 Z-0.0070 F10    
G01 X2.0905  Y0.5009  F20    
G01 X2.0609  Y0.5305  
G01 X2.0191  Y0.5305  
G01 X1.9895  Y0.5009  
G01 X1.9895  Y0.4591  
G01 X2.0191  Y0.4295  
G01 X2.0609  Y0.4295  
G01 X2.0905  Y0.4591  
G00 Z0.1000  
G00 X1.2909  Y0.2805  
G01 Z-0.0070 F10    
G01 X1.2491  Y0.2805  F20    
G01 X1.2195  Y0.2509  
G01 X1.2195  Y0.2091  
G01 X1.2491  Y0.1795  
G01 X1.2909  Y0.1795  
G01 X1.3200  Y0.2086  
G01 X1.3491  Y0.1795  
G01 X1.3909  Y0.1795  
G01 X1.4205  Y0.2091  
G01 X1.4205  Y0.2509  
G01 X1.3909  Y0.2805  
G01 X1.3491  Y0.2805  
G01 X1.3200  Y0.2514  
G01 X1.2909  Y0.2805  
G00 Z0.1000  
G00 X1.4905  Y1.2241  
G01 Z-0.0070 F10    
G01 X1.4905  Y1.2659  F20    
G01 X1.4609  Y1.2955  
G01 X1.4191  Y1.2955  
G01 X1.3895  Y1.2659  
G01 X1.3895  Y1.2241  
G01 X1.3931  Y1.2205  
G01 X1.3691  Y1.2205  
G01 X1.3395  Y1.1909  
G01 X1.3395  Y1.1491  
G01 X1.3691  Y1.1195  
G01 X1.4109  Y1.1195  
G01 X1.4400  Y1.1486  
G01 X1.4691  Y1.1195  
G01 X1.5109  Y1.1195  
G01 X1.5405  Y1.1491  
G01 X1.5405  Y1.1909  
G01 X1.5109  Y1.2205  
G01 X1.4869  Y1.2205  
G01 X1.4905  Y1.2241  
G00 Z0.1000  
G00 X1.1654  Y1.2330  
G01 Z-0.0070 F10    
G01 X1.1424  Y1.2425  F20    
G01 X1.1176  Y1.2425  
G01 X1.0946  Y1.2330  
G01 X1.0770  Y1.2154  
G01 X1.0675  Y1.1924  
G01 X1.0675  Y1.1676  
G01 X1.0770  Y1.1446  
G01 X1.0946  Y1.1270  
G01 X1.1176  Y1.1175  
G01 X1.1424  Y1.1175  
G01 X1.1654  Y1.1270  
G01 X1.1800  Y1.1416  
G01 X1.2041  Y1.1175  
G01 X1.2559  Y1.1175  
G01 X1.2925  Y1.1541  
G01 X1.2925  Y1.2059  
G01 X1.2559  Y1.2425  
G01 X1.2041  Y1.2425  
G01 X1.1800  Y1.2184  
G01 X1.1654  Y1.2330  
G00 Z0.1000  
G00 X0.2400  Y0.9659  
G01 Z-0.0070 F10    
G01 X0.2559  Y0.9500  F20    
G01 X0.2400  Y0.9341  
G01 X0.2241  Y0.9500  
G01 X0.2400  Y0.9659  
G00 Z0.1000  
G00 X0.2400  Y0.7659  
G01 Z-0.0070 F10    
G01 X0.2559  Y0.7500  F20    
G01 X0.2400  Y0.7341  
G01 X0.2241  Y0.7500  
G01 X0.2400  Y0.7659  
G00 Z0.1000  
G00 X0.2400  Y0.5659  
G01 Z-0.0070 F10    
G01 X0.2559  Y0.5500  F20    
G01 X0.2400  Y0.5341  
G01 X0.2241  Y0.5500  
G01 X0.2400  Y0.5659  
G00 Z0.1000  
G00 X0.2400  Y0.4659  
G01 Z-0.0070 F10    
G01 X0.2559  Y0.4500  F20    
G01 X0.2400  Y0.4341  
G01 X0.2241  Y0.4500  
G01 X0.2400  Y0.4659  
G00 Z0.1000  
G00 X0.2400  Y0.6659  
G01 Z-0.0070 F10    
G01 X0.2559  Y0.6500  F20    
G01 X0.2400  Y0.6341  
G01 X0.2241  Y0.6500  
G01 X0.2400  Y0.6659  
G00 Z0.1000  
G00 X0.2400  Y0.8659  
G01 Z-0.0070 F10    
G01 X0.2559  Y0.8500  F20    
G01 X0.2400  Y0.8341  
G01 X0.2241  Y0.8500  
G01 X0.2400  Y0.8659  
G00 Z0.1000  
G00 X1.8175  Y1.2066  
G01 Z-0.0070 F10    
G01 X1.8175  Y1.2334  F20    
G01 X1.8072  Y1.2582  
G01 X1.7882  Y1.2772  
G01 X1.7634  Y1.2875  
G01 X1.7366  Y1.2875  
G01 X1.7118  Y1.2772  
G01 X1.6928  Y1.2582  
G01 X1.6825  Y1.2334  
G01 X1.6825  Y1.2066  
G01 X1.6928  Y1.1818  
G01 X1.7045  Y1.1700  
G01 X1.6825  Y1.1480  
G01 X1.6825  Y1.0920  
G01 X1.7220  Y1.0525  
G01 X1.7780  Y1.0525  
G01 X1.8175  Y1.0920  
G01 X1.8175  Y1.1480  
G01 X1.7955  Y1.1700  
G01 X1.8072  Y1.1818  
G01 X1.8175  Y1.2066  
G00 Z0.1000  
G00 X0.5655  Y0.9770  
G01 Z-0.0070 F10    
G01 X0.5655  Y1.0230  F20    
G01 X0.5330  Y1.0555  
G01 X0.4870  Y1.0555  
G01 X0.4600  Y1.0285  
G01 X0.4330  Y1.0555  
G01 X0.3870  Y1.0555  
G01 X0.3545  Y1.0230  
G01 X0.3545  Y0.9770  
G01 X0.3870  Y0.9445  
G01 X0.4330  Y0.9445  
G01 X0.4600  Y0.9715  
G01 X0.4870  Y0.9445  
G01 X0.5330  Y0.9445  
G01 X0.5655  Y0.9770  
G00 Z0.1000  
G00 X2.0745  Y0.9991  
G01 Z-0.0070 F10    
G01 X2.0745  Y1.0609  F20    
G01 X2.0309  Y1.1045  
G01 X1.9691  Y1.1045  
G01 X1.9255  Y1.0609  
G01 X1.9255  Y0.9991  
G01 X1.9691  Y0.9555  
G01 X2.0309  Y0.9555  
G01 X2.0745  Y0.9991  
G00 Z0.1000  
G00 X2.3745  Y0.9991  
G01 Z-0.0070 F10    
G01 X2.3745  Y1.0609  F20    
G01 X2.3309  Y1.1045  
G01 X2.2691  Y1.1045  
G01 X2.2255  Y1.0609  
G01 X2.2255  Y0.9991  
G01 X2.2691  Y0.9555  
G01 X2.3309  Y0.9555  
G01 X2.3745  Y0.9991  
G00 Z0.1000  
G00 X2.0955  Y0.4570  
G01 Z-0.0070 F10    
G01 X2.0955  Y0.5030  F20    
G01 X2.0630  Y0.5355  
G01 X2.0170  Y0.5355  
G01 X1.9845  Y0.5030  
G01 X1.9845  Y0.4570  
G01 X2.0170  Y0.4245  
G01 X2.0630  Y0.4245  
G01 X2.0955  Y0.4570  
G00 Z0.1000  
G00 X2.0955  Y0.6570  
G01 Z-0.0070 F10    
G01 X2.0955  Y0.7030  F20    
G01 X2.0630  Y0.7355  
G01 X2.0170  Y0.7355  
G01 X1.9845  Y0.7030  
G01 X1.9845  Y0.6570  
G01 X2.0170  Y0.6245  
G01 X2.0630  Y0.6245  
G01 X2.0955  Y0.6570  
G00 Z0.1000  
G00 X1.9755  Y0.4570  
G01 Z-0.0070 F10    
G01 X1.9755  Y0.5030  F20    
G01 X1.9430  Y0.5355  
G01 X1.8970  Y0.5355  
G01 X1.8645  Y0.5030  
G01 X1.8645  Y0.4570  
G01 X1.8970  Y0.4245  
G01 X1.9430  Y0.4245  
G01 X1.9755  Y0.4570  
G00 Z0.1000  
G00 X1.9755  Y0.6570  
G01 Z-0.0070 F10    
G01 X1.9755  Y0.7030  F20    
G01 X1.9430  Y0.7355  
G01 X1.8970  Y0.7355  
G01 X1.8645  Y0.7030  
G01 X1.8645  Y0.6570  
G01 X1.8970  Y0.6245  
G01 X1.9430  Y0.6245  
G01 X1.9755  Y0.6570  
G00 Z0.1000  
G00 X1.8555  Y0.4570  
G01 Z-0.0070 F10    
G01 X1.8555  Y0.5030  F20    
G01 X1.8230  Y0.5355  
G01 X1.7770  Y0.5355  
G01 X1.7445  Y0.5030  
G01 X1.7445  Y0.4570  
G01 X1.7770  Y0.4245  
G01 X1.8230  Y0.4245  
G01 X1.8555  Y0.4570  
G00 Z0.1000  
G00 X1.8555  Y0.6570  
G01 Z-0.0070 F10    
G01 X1.8555  Y0.7030  F20    
G01 X1.8230  Y0.7355  
G01 X1.7770  Y0.7355  
G01 X1.7445  Y0.7030  
G01 X1.7445  Y0.6570  
G01 X1.7770  Y0.6245  
G01 X1.8230  Y0.6245  
G01 X1.8555  Y0.6570  
G00 Z0.1000  
G00 X1.9124  Y0.3029  
G01 Z-0.0070 F10    
G01 X1.9280  Y0.3186  F20    
G01 X1.9365  Y0.3390  
G01 X1.9365  Y0.3610  
G01 X1.9280  Y0.3814  
G01 X1.9124  Y0.3970  
G01 X1.8920  Y0.4055  
G01 X1.8080  Y0.4055  
G01 X1.7876  Y0.3970  
G01 X1.7719  Y0.3814  
G01 X1.7635  Y0.3610  
G01 X1.7635  Y0.3390  
G01 X1.7719  Y0.3186  
G01 X1.7876  Y0.3029  
G01 X1.7947  Y0.3000  
G01 X1.7876  Y0.2970  
G01 X1.7719  Y0.2814  
G01 X1.7635  Y0.2610  
G01 X1.7635  Y0.2390  
G01 X1.7719  Y0.2186  
G01 X1.7876  Y0.2029  
G01 X1.7947  Y0.2000  
G01 X1.7876  Y0.1970  
G01 X1.7719  Y0.1814  
G01 X1.7635  Y0.1610  
G01 X1.7635  Y0.1390  
G01 X1.7719  Y0.1186  
G01 X1.7876  Y0.1029  
G01 X1.8080  Y0.0945  
G01 X1.8920  Y0.0945  
G01 X1.9124  Y0.1029  
G01 X1.9280  Y0.1186  
G01 X1.9365  Y0.1390  
G01 X1.9365  Y0.1610  
G01 X1.9280  Y0.1814  
G01 X1.9124  Y0.1970  
G01 X1.9053  Y0.2000  
G01 X1.9124  Y0.2029  
G01 X1.9280  Y0.2186  
G01 X1.9365  Y0.2390  
G01 X1.9365  Y0.2610  
G01 X1.9280  Y0.2814  
G01 X1.9124  Y0.2970  
G01 X1.9053  Y0.3000  
G01 X1.9124  Y0.3029  
G00 Z0.1000  
G00 X2.1080  Y0.0945  
G01 Z-0.0070 F10    
G01 X2.1920  Y0.0945  F20    
G01 X2.2124  Y0.1029  
G01 X2.2280  Y0.1186  
G01 X2.2365  Y0.1390  
G01 X2.2365  Y0.1610  
G01 X2.2280  Y0.1814  
G01 X2.2124  Y0.1970  
G01 X2.2053  Y0.2000  
G01 X2.2124  Y0.2029  
G01 X2.2280  Y0.2186  
G01 X2.2365  Y0.2390  
G01 X2.2365  Y0.2610  
G01 X2.2280  Y0.2814  
G01 X2.2124  Y0.2970  
G01 X2.2053  Y0.3000  
G01 X2.2124  Y0.3029  
G01 X2.2280  Y0.3186  
G01 X2.2365  Y0.3390  
G01 X2.2365  Y0.3610  
G01 X2.2280  Y0.3814  
G01 X2.2124  Y0.3970  
G01 X2.1920  Y0.4055  
G01 X2.1080  Y0.4055  
G01 X2.0876  Y0.3970  
G01 X2.0719  Y0.3814  
G01 X2.0635  Y0.3610  
G01 X2.0635  Y0.3390  
G01 X2.0719  Y0.3186  
G01 X2.0876  Y0.3029  
G01 X2.0947  Y0.3000  
G01 X2.0876  Y0.2970  
G01 X2.0719  Y0.2814  
G01 X2.0635  Y0.2610  
G01 X2.0635  Y0.2390  
G01 X2.0719  Y0.2186  
G01 X2.0876  Y0.2029  
G01 X2.0947  Y0.2000  
G01 X2.0876  Y0.1970  
G01 X2.0719  Y0.1814  
G01 X2.0635  Y0.1610  
G01 X2.0635  Y0.1390  
G01 X2.0719  Y0.1186  
G01 X2.0876  Y0.1029  
G01 X2.1080  Y0.0945  
G00 Z0.1000  
G00 X0.6420  Y0.3255  
G01 Z-0.0070 F10    
G01 X0.5580  Y0.3255  F20    
G01 X0.5376  Y0.3170  
G01 X0.5219  Y0.3014  
G01 X0.5135  Y0.2810  
G01 X0.5135  Y0.2590  
G01 X0.5219  Y0.2386  
G01 X0.5376  Y0.2229  
G01 X0.5580  Y0.2145  
G01 X0.6420  Y0.2145  
G01 X0.6624  Y0.2229  
G01 X0.6780  Y0.2386  
G01 X0.6865  Y0.2590  
G01 X0.6865  Y0.2810  
G01 X0.6780  Y0.3014  
G01 X0.6624  Y0.3170  
G01 X0.6420  Y0.3255  
G00 Z0.1000  
G00 X1.1420  Y0.3255  
G01 Z-0.0070 F10    
G01 X1.0580  Y0.3255  F20    
G01 X1.0376  Y0.3170  
G01 X1.0219  Y0.3014  
G01 X1.0135  Y0.2810  
G01 X1.0135  Y0.2590  
G01 X1.0219  Y0.2386  
G01 X1.0376  Y0.2229  
G01 X1.0580  Y0.2145  
G01 X1.1420  Y0.2145  
G01 X1.1624  Y0.2229  
G01 X1.1780  Y0.2386  
G01 X1.1865  Y0.2590  
G01 X1.1865  Y0.2810  
G01 X1.1780  Y0.3014  
G01 X1.1624  Y0.3170  
G01 X1.1420  Y0.3255  
G00 Z0.1000  
G00 X0.3495  Y0.9754  
G01 Z-0.0070 F10    
G01 X0.3495  Y1.0246  F20    
G01 X0.3146  Y1.0595  
G01 X0.2654  Y1.0595  
G01 X0.2400  Y1.0341  
G01 X0.2146  Y1.0595  
G01 X0.1654  Y1.0595  
G01 X0.1305  Y1.0246  
G01 X0.1305  Y0.9754  
G01 X0.1559  Y0.9500  
G01 X0.1305  Y0.9246  
G01 X0.1305  Y0.8754  
G01 X0.1559  Y0.8500  
G01 X0.1305  Y0.8246  
G01 X0.1305  Y0.7754  
G01 X0.1559  Y0.7500  
G01 X0.1305  Y0.7246  
G01 X0.1305  Y0.6754  
G01 X0.1559  Y0.6500  
G01 X0.1305  Y0.6246  
G01 X0.1305  Y0.5754  
G01 X0.1559  Y0.5500  
G01 X0.1305  Y0.5246  
G01 X0.1305  Y0.4754  
G01 X0.1559  Y0.4500  
G01 X0.1305  Y0.4246  
G01 X0.1305  Y0.3754  
G01 X0.1654  Y0.3405  
G01 X0.2146  Y0.3405  
G01 X0.2400  Y0.3659  
G01 X0.2654  Y0.3405  
G01 X0.3146  Y0.3405  
G01 X0.3495  Y0.3754  
G01 X0.3495  Y0.4246  
G01 X0.3241  Y0.4500  
G01 X0.3495  Y0.4754  
G01 X0.3495  Y0.5246  
G01 X0.3241  Y0.5500  
G01 X0.3495  Y0.5754  
G01 X0.3495  Y0.6246  
G01 X0.3241  Y0.6500  
G01 X0.3495  Y0.6754  
G01 X0.3495  Y0.7246  
G01 X0.3241  Y0.7500  
G01 X0.3495  Y0.7754  
G01 X0.3495  Y0.8246  
G01 X0.3241  Y0.8500  
G01 X0.3495  Y0.8754  
G01 X0.3495  Y0.9246  
G01 X0.3241  Y0.9500  
G01 X0.3495  Y0.9754  
G00 Z0.1000  
G00 X1.5280  Y0.2845  
G01 Z-0.0070 F10    
G01 X1.6120  Y0.2845  F20    
G01 X1.6324  Y0.2929  
G01 X1.6480  Y0.3086  
G01 X1.6565  Y0.3290  
G01 X1.6565  Y0.3510  
G01 X1.6480  Y0.3714  
G01 X1.6324  Y0.3870  
G01 X1.6253  Y0.3900  
G01 X1.6324  Y0.3929  
G01 X1.6480  Y0.4086  
G01 X1.6565  Y0.4290  
G01 X1.6565  Y0.4510  
G01 X1.6480  Y0.4714  
G01 X1.6324  Y0.4870  
G01 X1.6253  Y0.4900  
G01 X1.6324  Y0.4929  
G01 X1.6480  Y0.5086  
G01 X1.6565  Y0.5290  
G01 X1.6565  Y0.5510  
G01 X1.6480  Y0.5714  
G01 X1.6324  Y0.5870  
G01 X1.6253  Y0.5900  
G01 X1.6324  Y0.5929  
G01 X1.6480  Y0.6086  
G01 X1.6565  Y0.6290  
G01 X1.6565  Y0.6510  
G01 X1.6480  Y0.6714  
G01 X1.6324  Y0.6870  
G01 X1.6253  Y0.6900  
G01 X1.6324  Y0.6929  
G01 X1.6480  Y0.7086  
G01 X1.6565  Y0.7290  
G01 X1.6565  Y0.7510  
G01 X1.6480  Y0.7714  
G01 X1.6324  Y0.7870  
G01 X1.6253  Y0.7900  
G01 X1.6324  Y0.7929  
G01 X1.6480  Y0.8086  
G01 X1.6565  Y0.8290  
G01 X1.6565  Y0.8510  
G01 X1.6480  Y0.8714  
G01 X1.6324  Y0.8870  
G01 X1.6253  Y0.8900  
G01 X1.6324  Y0.8929  
G01 X1.6480  Y0.9086  
G01 X1.6565  Y0.9290  
G01 X1.6565  Y0.9510  
G01 X1.6480  Y0.9714  
G01 X1.6324  Y0.9870  
G01 X1.6253  Y0.9900  
G01 X1.6324  Y0.9929  
G01 X1.6480  Y1.0086  
G01 X1.6565  Y1.0290  
G01 X1.6565  Y1.0510  
G01 X1.6480  Y1.0714  
G01 X1.6324  Y1.0870  
G01 X1.6120  Y1.0955  
G01 X1.5280  Y1.0955  
G01 X1.5076  Y1.0870  
G01 X1.4919  Y1.0714  
G01 X1.4835  Y1.0510  
G01 X1.4835  Y1.0290  
G01 X1.4919  Y1.0086  
G01 X1.5076  Y0.9929  
G01 X1.5147  Y0.9900  
G01 X1.5076  Y0.9870  
G01 X1.4919  Y0.9714  
G01 X1.4835  Y0.9510  
G01 X1.4835  Y0.9290  
G01 X1.4919  Y0.9086  
G01 X1.5076  Y0.8929  
G01 X1.5147  Y0.8900  
G01 X1.5076  Y0.8870  
G01 X1.4919  Y0.8714  
G01 X1.4835  Y0.8510  
G01 X1.4835  Y0.8290  
G01 X1.4919  Y0.8086  
G01 X1.5076  Y0.7929  
G01 X1.5147  Y0.7900  
G01 X1.5076  Y0.7870  
G01 X1.4919  Y0.7714  
G01 X1.4835  Y0.7510  
G01 X1.4835  Y0.7290  
G01 X1.4919  Y0.7086  
G01 X1.5076  Y0.6929  
G01 X1.5147  Y0.6900  
G01 X1.5076  Y0.6870  
G01 X1.4919  Y0.6714  
G01 X1.4835  Y0.6510  
G01 X1.4835  Y0.6290  
G01 X1.4919  Y0.6086  
G01 X1.5076  Y0.5929  
G01 X1.5147  Y0.5900  
G01 X1.5076  Y0.5870  
G01 X1.4919  Y0.5714  
G01 X1.4835  Y0.5510  
G01 X1.4835  Y0.5290  
G01 X1.4919  Y0.5086  
G01 X1.5076  Y0.4929  
G01 X1.5147  Y0.4900  
G01 X1.5076  Y0.4870  
G01 X1.4919  Y0.4714  
G01 X1.4835  Y0.4510  
G01 X1.4835  Y0.4290  
G01 X1.4919  Y0.4086  
G01 X1.5076  Y0.3929  
G01 X1.5147  Y0.3900  
G01 X1.5076  Y0.3870  
G01 X1.4919  Y0.3714  
G01 X1.4835  Y0.3510  
G01 X1.4835  Y0.3290  
G01 X1.4919  Y0.3086  
G01 X1.5076  Y0.2929  
G01 X1.5280  Y0.2845  
G00 Z0.1000  
G00 X0.8101  Y0.7420  
G01 Z-0.0070 F10    
G01 X0.8305  Y0.7336  F20    
G01 X0.8525  Y0.7336  
G01 X0.8729  Y0.7420  
G01 X0.8809  Y0.7499  
G01 X0.8888  Y0.7420  
G01 X0.9092  Y0.7336  
G01 X0.9313  Y0.7336  
G01 X0.9517  Y0.7420  
G01 X0.9673  Y0.7576  
G01 X0.9757  Y0.7780  
G01 X0.9757  Y0.8621  
G01 X0.9673  Y0.8825  
G01 X0.9517  Y0.8981  
G01 X0.9313  Y0.9066  
G01 X0.9092  Y0.9066  
G01 X0.8888  Y0.8981  
G01 X0.8809  Y0.8902  
G01 X0.8729  Y0.8981  
G01 X0.8525  Y0.9066  
G01 X0.8305  Y0.9066  
G01 X0.8101  Y0.8981  
G01 X0.8021  Y0.8902  
G01 X0.7942  Y0.8981  
G01 X0.7738  Y0.9066  
G01 X0.7517  Y0.9066  
G01 X0.7313  Y0.8981  
G01 X0.7157  Y0.8825  
G01 X0.7073  Y0.8621  
G01 X0.7073  Y0.7780  
G01 X0.7157  Y0.7576  
G01 X0.7313  Y0.7420  
G01 X0.7517  Y0.7336  
G01 X0.7738  Y0.7336  
G01 X0.7942  Y0.7420  
G01 X0.8021  Y0.7499  
G01 X0.8101  Y0.7420  
G00 Z0.1000  
G00 X0.8336  Y0.7180  
G01 Z-0.0070 F10    
G01 X0.8132  Y0.7264  F20    
G01 X0.7911  Y0.7264  
G01 X0.7707  Y0.7180  
G01 X0.7628  Y0.7101  
G01 X0.7548  Y0.7180  
G01 X0.7344  Y0.7264  
G01 X0.7123  Y0.7264  
G01 X0.6919  Y0.7180  
G01 X0.6763  Y0.7024  
G01 X0.6679  Y0.6820  
G01 X0.6679  Y0.5979  
G01 X0.6763  Y0.5775  
G01 X0.6919  Y0.5619  
G01 X0.7123  Y0.5534  
G01 X0.7344  Y0.5534  
G01 X0.7548  Y0.5619  
G01 X0.7628  Y0.5698  
G01 X0.7707  Y0.5619  
G01 X0.7911  Y0.5534  
G01 X0.8132  Y0.5534  
G01 X0.8336  Y0.5619  
G01 X0.8415  Y0.5698  
G01 X0.8494  Y0.5619  
G01 X0.8698  Y0.5534  
G01 X0.8919  Y0.5534  
G01 X0.9123  Y0.5619  
G01 X0.9279  Y0.5775  
G01 X0.9364  Y0.5979  
G01 X0.9364  Y0.6820  
G01 X0.9279  Y0.7024  
G01 X0.9123  Y0.7180  
G01 X0.8919  Y0.7264  
G01 X0.8698  Y0.7264  
G01 X0.8494  Y0.7180  
G01 X0.8415  Y0.7101  
G01 X0.8336  Y0.7180  
G00 Z0.1000  
G00 X1.3324  Y0.9929  
G01 Z-0.0070 F10    
G01 X1.3480  Y1.0086  F20    
G01 X1.3565  Y1.0290  
G01 X1.3565  Y1.0510  
G01 X1.3480  Y1.0714  
G01 X1.3324  Y1.0870  
G01 X1.3120  Y1.0955  
G01 X1.2280  Y1.0955  
G01 X1.2076  Y1.0870  
G01 X1.1919  Y1.0714  
G01 X1.1835  Y1.0510  
G01 X1.1835  Y1.0290  
G01 X1.1919  Y1.0086  
G01 X1.2076  Y0.9929  
G01 X1.2147  Y0.9900  
G01 X1.2076  Y0.9870  
G01 X1.1919  Y0.9714  
G01 X1.1835  Y0.9510  
G01 X1.1835  Y0.9290  
G01 X1.1919  Y0.9086  
G01 X1.2076  Y0.8929  
G01 X1.2147  Y0.8900  
G01 X1.2076  Y0.8870  
G01 X1.1919  Y0.8714  
G01 X1.1835  Y0.8510  
G01 X1.1835  Y0.8290  
G01 X1.1919  Y0.8086  
G01 X1.2076  Y0.7929  
G01 X1.2147  Y0.7900  
G01 X1.2076  Y0.7870  
G01 X1.1919  Y0.7714  
G01 X1.1835  Y0.7510  
G01 X1.1835  Y0.7290  
G01 X1.1919  Y0.7086  
G01 X1.2076  Y0.6929  
G01 X1.2147  Y0.6900  
G01 X1.2076  Y0.6870  
G01 X1.1919  Y0.6714  
G01 X1.1835  Y0.6510  
G01 X1.1835  Y0.6290  
G01 X1.1919  Y0.6086  
G01 X1.2076  Y0.5929  
G01 X1.2147  Y0.5900  
G01 X1.2076  Y0.5870  
G01 X1.1919  Y0.5714  
G01 X1.1835  Y0.5510  
G01 X1.1835  Y0.5290  
G01 X1.1919  Y0.5086  
G01 X1.2076  Y0.4929  
G01 X1.2147  Y0.4900  
G01 X1.2076  Y0.4870  
G01 X1.1919  Y0.4714  
G01 X1.1835  Y0.4510  
G01 X1.1835  Y0.4290  
G01 X1.1919  Y0.4086  
G01 X1.2076  Y0.3929  
G01 X1.2147  Y0.3900  
G01 X1.2076  Y0.3870  
G01 X1.1919  Y0.3714  
G01 X1.1835  Y0.3510  
G01 X1.1835  Y0.3290  
G01 X1.1919  Y0.3086  
G01 X1.2076  Y0.2929  
G01 X1.2280  Y0.2845  
G01 X1.2460  Y0.2845  
G01 X1.2145  Y0.2530  
G01 X1.2145  Y0.2070  
G01 X1.2470  Y0.1745  
G01 X1.2930  Y0.1745  
G01 X1.3200  Y0.2015  
G01 X1.3470  Y0.1745  
G01 X1.3930  Y0.1745  
G01 X1.4255  Y0.2070  
G01 X1.4255  Y0.2530  
G01 X1.3930  Y0.2855  
G01 X1.3470  Y0.2855  
G01 X1.3200  Y0.2585  
G01 X1.2940  Y0.2845  
G01 X1.3120  Y0.2845  
G01 X1.3324  Y0.2929  
G01 X1.3480  Y0.3086  
G01 X1.3565  Y0.3290  
G01 X1.3565  Y0.3510  
G01 X1.3480  Y0.3714  
G01 X1.3324  Y0.3870  
G01 X1.3253  Y0.3900  
G01 X1.3324  Y0.3929  
G01 X1.3480  Y0.4086  
G01 X1.3565  Y0.4290  
G01 X1.3565  Y0.4510  
G01 X1.3480  Y0.4714  
G01 X1.3324  Y0.4870  
G01 X1.3253  Y0.4900  
G01 X1.3324  Y0.4929  
G01 X1.3480  Y0.5086  
G01 X1.3565  Y0.5290  
G01 X1.3565  Y0.5510  
G01 X1.3480  Y0.5714  
G01 X1.3324  Y0.5870  
G01 X1.3253  Y0.5900  
G01 X1.3324  Y0.5929  
G01 X1.3480  Y0.6086  
G01 X1.3565  Y0.6290  
G01 X1.3565  Y0.6510  
G01 X1.3480  Y0.6714  
G01 X1.3324  Y0.6870  
G01 X1.3253  Y0.6900  
G01 X1.3324  Y0.6929  
G01 X1.3480  Y0.7086  
G01 X1.3565  Y0.7290  
G01 X1.3565  Y0.7510  
G01 X1.3480  Y0.7714  
G01 X1.3324  Y0.7870  
G01 X1.3253  Y0.7900  
G01 X1.3324  Y0.7929  
G01 X1.3480  Y0.8086  
G01 X1.3565  Y0.8290  
G01 X1.3565  Y0.8510  
G01 X1.3480  Y0.8714  
G01 X1.3324  Y0.8870  
G01 X1.3253  Y0.8900  
G01 X1.3324  Y0.8929  
G01 X1.3480  Y0.9086  
G01 X1.3565  Y0.9290  
G01 X1.3565  Y0.9510  
G01 X1.3480  Y0.9714  
G01 X1.3324  Y0.9870  
G01 X1.3253  Y0.9900  
G01 X1.3324  Y0.9929  
G00 Z0.1000  
G00 X0.8420  Y0.4255  
G01 Z-0.0070 F10    
G01 X0.7580  Y0.4255  F20    
G01 X0.7376  Y0.4170  
G01 X0.7219  Y0.4014  
G01 X0.7135  Y0.3810  
G01 X0.7135  Y0.3590  
G01 X0.7219  Y0.3386  
G01 X0.7376  Y0.3229  
G01 X0.7580  Y0.3145  
G01 X0.8420  Y0.3145  
G01 X0.8624  Y0.3229  
G01 X0.8780  Y0.3386  
G01 X0.8865  Y0.3590  
G01 X0.8865  Y0.3810  
G01 X0.8780  Y0.4014  
G01 X0.8624  Y0.4170  
G01 X0.8420  Y0.4255  
G00 Z0.1000  
G00 X1.4955  Y1.2680  
G01 Z-0.0070 F10    
G01 X1.4630  Y1.3005  F20    
G01 X1.4170  Y1.3005  
G01 X1.3845  Y1.2680  
G01 X1.3845  Y1.2255  
G01 X1.3670  Y1.2255  
G01 X1.3345  Y1.1930  
G01 X1.3345  Y1.1470  
G01 X1.3670  Y1.1145  
G01 X1.4130  Y1.1145  
G01 X1.4400  Y1.1415  
G01 X1.4670  Y1.1145  
G01 X1.5130  Y1.1145  
G01 X1.5455  Y1.1470  
G01 X1.5455  Y1.1930  
G01 X1.5130  Y1.2255  
G01 X1.4955  Y1.2255  
G01 X1.4955  Y1.2680  
G00 Z0.1000  
G00 X1.1682  Y1.2372  
G01 Z-0.0070 F10    
G01 X1.1434  Y1.2475  F20    
G01 X1.1166  Y1.2475  
G01 X1.0918  Y1.2372  
G01 X1.0728  Y1.2182  
G01 X1.0625  Y1.1934  
G01 X1.0625  Y1.1666  
G01 X1.0728  Y1.1418  
G01 X1.0918  Y1.1228  
G01 X1.1166  Y1.1125  
G01 X1.1434  Y1.1125  
G01 X1.1682  Y1.1228  
G01 X1.1800  Y1.1345  
G01 X1.2020  Y1.1125  
G01 X1.2580  Y1.1125  
G01 X1.2975  Y1.1520  
G01 X1.2975  Y1.2080  
G01 X1.2580  Y1.2475  
G01 X1.2020  Y1.2475  
G01 X1.1800  Y1.2255  
G01 X1.1682  Y1.2372  
G00 Z0.1000  
G82 X0.1500  Y1.1900  Z-0.0110 F10    R0.1000  P1.000000
G82 X0.1500  Y0.1300  
G82 X1.2700  Y0.2300  
G82 X1.3700  Y0.2300  
G82 X0.5100  Y1.0000  
G82 X0.4100  Y1.0000  
G82 X1.1300  Y1.1800  
G82 X1.2300  Y1.1800  
G82 X1.7500  Y1.2200  
G82 X1.7500  Y1.1200  
G82 X1.5700  Y0.3400  
G82 X1.5700  Y0.4400  
