(.../pcb-gcode-3.5.2.11/pcb-gcode.ulp)
(Copyright 2005 - 2009 by John Johnson)
(See readme.txt for licensing terms.)
(This file generated from the board:)
(.../docs/examples/04151_lcdi2c.brd)
(Current profile is .../pcb-gcode-3.5.2.11/profiles/emc.pp  )
(This file generated 11/23/11 4:06 PM)
(Settings from pcb-machine.h)
(  Tool Size)
(0.0100 )
(Z Axis Settings)
(  High     Up        Down     Drill)
(0.5000 	0.1000 	-0.0070 	-0.0320 )
(spindle on time = 3.0000)
(milling depth = -0.0100)
(text depth = -0.0050)
(tool change at 0.5000 0.6000 1.5432 )
(feed rate xy = F20.00 )
(feed rate z  = F10.00 )
(Settings from pcb-defaults.h)
(Default isolate = 0.0010)
(isolate max = 0.0002)
(isolate step = 0.0050)
(Generated )
(Unit of measure: inch)
(Inch Mode)
G20
(Absolute Coordinates)
G90
G00 X0.0000 Y0.0000 
M03
G04 P3.000000
G01 X-0.0100 Y-0.0100 
G01 X-2.7900 Y-0.0100 
G01 X-2.7900 Y1.3300 
G00 Z0.1000 
G00 X0.0100 Y1.3200 
G01 Z-0.0100 F10.00 
G01 X0.0100 Y0.0000 F20.00 
G00 Z0.1000 
G00 X0.0100 Y1.3300 
G01 Z-0.0100 F10.00 
G01 X-2.7900 Y1.3300 F20.00 
G00 Z0.1000 
G00 X-0.3000 Y0.1300 
G01 Z-0.0100 F10.00 
G01 X-1.3550 Y0.1300 F20.00 
G01 X-1.3550 Y0.2000 
G01 X-0.2950 Y0.2000 
G01 X-0.2950 Y0.1300 
G00 Z0.1000 
G00 X-0.4800 Y0.9850 
G01 Z-0.0100 F10.00 
G01 X-0.4800 Y1.0100 F20.00 
G01 X-0.4850 Y1.0100 
G01 X-0.4850 Y1.0150 
G01 X-0.4950 Y1.0250 
G01 X-0.5200 Y1.0250 
G01 X-0.5300 Y1.0150 
G01 X-0.5350 Y1.0050 
G01 X-0.5350 Y0.8750 
G01 X-0.5300 Y0.8650 
G01 X-0.5200 Y0.8600 
G01 X-0.3850 Y0.8600 
G01 X-0.3800 Y0.8650 
G01 X-0.3750 Y0.8750 
G01 X-0.3750 Y0.8850 
G01 X-0.3800 Y0.8900 
G01 X-0.3900 Y0.8950 
G01 X-0.4050 Y0.9000 
G01 X-0.4250 Y0.9000 
G01 X-0.4400 Y0.8900 
G01 X-0.4550 Y0.8850 
G01 X-0.4700 Y0.8900 
G01 X-0.4800 Y0.9000 
G01 X-0.4800 Y0.9800 
G00 Z0.1000 
G00 X-1.8750 Y1.0300 
G01 Z-0.0100 F10.00 
G01 X-1.8750 Y1.0600 F20.00 
G01 X-1.8900 Y1.1150 
G01 X-1.9200 Y1.1800 
G01 X-1.9600 Y1.2300 
G01 X-2.0200 Y1.2750 
G01 X-2.0900 Y1.3000 
G01 X-2.1550 Y1.3050 
G01 X-2.2250 Y1.2950 
G01 X-2.2800 Y1.2700 
G01 X-2.3350 Y1.2350 
G01 X-2.3700 Y1.1950 
G01 X-2.4050 Y1.1300 
G01 X-2.4250 Y1.0600 
G01 X-2.4250 Y0.9850 
G01 X-2.4050 Y0.9250 
G01 X-2.3700 Y0.8650 
G01 X-2.3250 Y0.8150 
G01 X-2.2600 Y0.7800 
G01 X-2.1950 Y0.7600 
G01 X-2.1250 Y0.7550 
G01 X-2.0600 Y0.7700 
G01 X-2.0050 Y0.7950 
G01 X-1.9550 Y0.8350 
G01 X-1.9200 Y0.8800 
G01 X-1.8900 Y0.9350 
G01 X-1.8800 Y0.9850 
G01 X-1.8750 Y1.0300 
G00 Z0.5000 
M05
M02
