(.../src/pcbgcode.repo/pcb-gcode.ulp)
(Copyright 2005 - 2012 by John Johnson)
(See readme.txt for licensing terms.)
(This file generated from the board:)
(.../docs/examples/04151_lcdi2c.brd)
(Current profile is .../pcbgcode-work/profiles/mach.pp  )
(This file generated 1/11/14 2:54 PM)
(Settings from pcb-machine.h)
(  Tool Size)
(0.0070  )
(Z Axis Settings)
(  High     Up        Down     Drill)
(0.5000  	0.1000  	-0.0070 	-0.0320 )
(spindle on time = 3.0000)
(milling depth = -0.0100)
(text depth = -0.0050)
(tool change at 0.0000  0.0000  1.0000  )
(feed rate xy = F20    )
(feed rate z  = F10    )
(Settings from pcb-defaults.h)
(isolate min = 0.0010)
(isolate max = 0.0200)
(isolate step = 0.0050)
(Generated top outlines, top drill, bottom outlines, bottom drill, )
(Unit of measure: inch)
(Inch Mode)
G20
(Absolute Coordinates)
G90
S30000
G00 Z0.5000  
G00 X0.0000  Y0.0000  
M03
G04 P3.000000
G00 Z0.1000  
G00 X0.8376  Y0.6054  
G01 Z-0.0070 F10    
G01 X0.8376  Y0.6744  F20    
G01 X0.8363  Y0.6813  
G01 X0.8336  Y0.6878  
G01 X0.8297  Y0.6936  
G01 X0.8248  Y0.6985  
G01 X0.8189  Y0.7024  
G01 X0.8125  Y0.7051  
G01 X0.8056  Y0.7064  
G01 X0.7986  Y0.7064  
G01 X0.7918  Y0.7051  
G01 X0.7853  Y0.7024  
G01 X0.7795  Y0.6985  
G01 X0.7746  Y0.6936  
G01 X0.7707  Y0.6878  
G01 X0.7680  Y0.6813  
G01 X0.7666  Y0.6744  
G01 X0.7666  Y0.6054  
G01 X0.7680  Y0.5986  
G01 X0.7707  Y0.5921  
G01 X0.7746  Y0.5863  
G01 X0.7795  Y0.5814  
G01 X0.7853  Y0.5775  
G01 X0.7918  Y0.5748  
G01 X0.7986  Y0.5734  
G01 X0.8056  Y0.5734  
G01 X0.8125  Y0.5748  
G01 X0.8189  Y0.5775  
G01 X0.8248  Y0.5814  
G01 X0.8297  Y0.5863  
G01 X0.8336  Y0.5921  
G01 X0.8363  Y0.5986  
G01 X0.8376  Y0.6054  
G00 Z0.1000  
G00 X0.8060  Y0.8546  
G01 Z-0.0070 F10    
G01 X0.8060  Y0.7856  F20    
G01 X0.8074  Y0.7787  
G01 X0.8100  Y0.7722  
G01 X0.8139  Y0.7664  
G01 X0.8189  Y0.7615  
G01 X0.8247  Y0.7576  
G01 X0.8311  Y0.7549  
G01 X0.8380  Y0.7536  
G01 X0.8450  Y0.7536  
G01 X0.8519  Y0.7549  
G01 X0.8583  Y0.7576  
G01 X0.8641  Y0.7615  
G01 X0.8691  Y0.7664  
G01 X0.8730  Y0.7722  
G01 X0.8756  Y0.7787  
G01 X0.8770  Y0.7856  
G01 X0.8770  Y0.8546  
G01 X0.8756  Y0.8614  
G01 X0.8730  Y0.8679  
G01 X0.8691  Y0.8737  
G01 X0.8641  Y0.8786  
G01 X0.8583  Y0.8825  
G01 X0.8519  Y0.8852  
G01 X0.8450  Y0.8866  
G01 X0.8380  Y0.8866  
G01 X0.8311  Y0.8852  
G01 X0.8247  Y0.8825  
G01 X0.8189  Y0.8786  
G01 X0.8139  Y0.8737  
G01 X0.8100  Y0.8679  
G01 X0.8074  Y0.8614  
G01 X0.8060  Y0.8546  
G00 Z0.1000  
G00 X0.7589  Y0.6054  
G01 Z-0.0070 F10    
G01 X0.7589  Y0.6744  F20    
G01 X0.7575  Y0.6813  
G01 X0.7548  Y0.6878  
G01 X0.7510  Y0.6936  
G01 X0.7460  Y0.6985  
G01 X0.7402  Y0.7024  
G01 X0.7337  Y0.7051  
G01 X0.7269  Y0.7064  
G01 X0.7199  Y0.7064  
G01 X0.7130  Y0.7051  
G01 X0.7066  Y0.7024  
G01 X0.7008  Y0.6985  
G01 X0.6958  Y0.6936  
G01 X0.6919  Y0.6878  
G01 X0.6893  Y0.6813  
G01 X0.6879  Y0.6744  
G01 X0.6879  Y0.6054  
G01 X0.6893  Y0.5986  
G01 X0.6919  Y0.5921  
G01 X0.6958  Y0.5863  
G01 X0.7008  Y0.5814  
G01 X0.7066  Y0.5775  
G01 X0.7130  Y0.5748  
G01 X0.7199  Y0.5734  
G01 X0.7269  Y0.5734  
G01 X0.7337  Y0.5748  
G01 X0.7402  Y0.5775  
G01 X0.7460  Y0.5814  
G01 X0.7510  Y0.5863  
G01 X0.7548  Y0.5921  
G01 X0.7575  Y0.5986  
G01 X0.7589  Y0.6054  
G00 Z0.1000  
G00 X0.9164  Y0.6054  
G01 Z-0.0070 F10    
G01 X0.9164  Y0.6744  F20    
G01 X0.9150  Y0.6813  
G01 X0.9123  Y0.6878  
G01 X0.9084  Y0.6936  
G01 X0.9035  Y0.6985  
G01 X0.8977  Y0.7024  
G01 X0.8912  Y0.7051  
G01 X0.8844  Y0.7064  
G01 X0.8774  Y0.7064  
G01 X0.8705  Y0.7051  
G01 X0.8641  Y0.7024  
G01 X0.8582  Y0.6985  
G01 X0.8533  Y0.6936  
G01 X0.8494  Y0.6878  
G01 X0.8467  Y0.6813  
G01 X0.8454  Y0.6744  
G01 X0.8454  Y0.6054  
G01 X0.8467  Y0.5986  
G01 X0.8494  Y0.5921  
G01 X0.8533  Y0.5863  
G01 X0.8582  Y0.5814  
G01 X0.8641  Y0.5775  
G01 X0.8705  Y0.5748  
G01 X0.8774  Y0.5734  
G01 X0.8844  Y0.5734  
G01 X0.8912  Y0.5748  
G01 X0.8977  Y0.5775  
G01 X0.9035  Y0.5814  
G01 X0.9084  Y0.5863  
G01 X0.9123  Y0.5921  
G01 X0.9150  Y0.5986  
G01 X0.9164  Y0.6054  
G00 Z0.1000  
G00 X0.8847  Y0.8546  
G01 Z-0.0070 F10    
G01 X0.8847  Y0.7856  F20    
G01 X0.8861  Y0.7787  
G01 X0.8888  Y0.7722  
G01 X0.8927  Y0.7664  
G01 X0.8976  Y0.7615  
G01 X0.9034  Y0.7576  
G01 X0.9099  Y0.7549  
G01 X0.9167  Y0.7536  
G01 X0.9237  Y0.7536  
G01 X0.9306  Y0.7549  
G01 X0.9371  Y0.7576  
G01 X0.9429  Y0.7615  
G01 X0.9478  Y0.7664  
G01 X0.9517  Y0.7722  
G01 X0.9544  Y0.7787  
G01 X0.9557  Y0.7856  
G01 X0.9557  Y0.8546  
G01 X0.9544  Y0.8614  
G01 X0.9517  Y0.8679  
G01 X0.9478  Y0.8737  
G01 X0.9429  Y0.8786  
G01 X0.9371  Y0.8825  
G01 X0.9306  Y0.8852  
G01 X0.9237  Y0.8866  
G01 X0.9167  Y0.8866  
G01 X0.9099  Y0.8852  
G01 X0.9034  Y0.8825  
G01 X0.8976  Y0.8786  
G01 X0.8927  Y0.8737  
G01 X0.8888  Y0.8679  
G01 X0.8861  Y0.8614  
G01 X0.8847  Y0.8546  
G00 Z0.1000  
G00 X0.7273  Y0.8546  
G01 Z-0.0070 F10    
G01 X0.7273  Y0.7856  F20    
G01 X0.7286  Y0.7787  
G01 X0.7313  Y0.7722  
G01 X0.7352  Y0.7664  
G01 X0.7401  Y0.7615  
G01 X0.7459  Y0.7576  
G01 X0.7524  Y0.7549  
G01 X0.7593  Y0.7536  
G01 X0.7663  Y0.7536  
G01 X0.7731  Y0.7549  
G01 X0.7796  Y0.7576  
G01 X0.7854  Y0.7615  
G01 X0.7903  Y0.7664  
G01 X0.7942  Y0.7722  
G01 X0.7969  Y0.7787  
G01 X0.7983  Y0.7856  
G01 X0.7983  Y0.8546  
G01 X0.7969  Y0.8614  
G01 X0.7942  Y0.8679  
G01 X0.7903  Y0.8737  
G01 X0.7854  Y0.8786  
G01 X0.7796  Y0.8825  
G01 X0.7731  Y0.8852  
G01 X0.7663  Y0.8866  
G01 X0.7593  Y0.8866  
G01 X0.7524  Y0.8852  
G01 X0.7459  Y0.8825  
G01 X0.7401  Y0.8786  
G01 X0.7352  Y0.8737  
G01 X0.7313  Y0.8679  
G01 X0.7286  Y0.8614  
G01 X0.7273  Y0.8546  
G00 Z0.1000  
G00 X1.5355  Y0.3045  
G01 Z-0.0070 F10    
G01 X1.6045  Y0.3045  F20    
G01 X1.6114  Y0.3059  
G01 X1.6178  Y0.3085  
G01 X1.6236  Y0.3124  
G01 X1.6286  Y0.3174  
G01 X1.6325  Y0.3232  
G01 X1.6351  Y0.3296  
G01 X1.6365  Y0.3365  
G01 X1.6365  Y0.3435  
G01 X1.6351  Y0.3504  
G01 X1.6325  Y0.3568  
G01 X1.6286  Y0.3626  
G01 X1.6236  Y0.3676  
G01 X1.6178  Y0.3715  
G01 X1.6114  Y0.3741  
G01 X1.6045  Y0.3755  
G01 X1.5355  Y0.3755  
G01 X1.5286  Y0.3741  
G01 X1.5222  Y0.3715  
G01 X1.5164  Y0.3676  
G01 X1.5114  Y0.3626  
G01 X1.5075  Y0.3568  
G01 X1.5049  Y0.3504  
G01 X1.5035  Y0.3435  
G01 X1.5035  Y0.3365  
G01 X1.5049  Y0.3296  
G01 X1.5075  Y0.3232  
G01 X1.5114  Y0.3174  
G01 X1.5164  Y0.3124  
G01 X1.5222  Y0.3085  
G01 X1.5286  Y0.3059  
G01 X1.5355  Y0.3045  
G00 Z0.1000  
G00 X1.5355  Y0.4045  
G01 Z-0.0070 F10    
G01 X1.6045  Y0.4045  F20    
G01 X1.6114  Y0.4059  
G01 X1.6178  Y0.4085  
G01 X1.6236  Y0.4124  
G01 X1.6286  Y0.4174  
G01 X1.6325  Y0.4232  
G01 X1.6351  Y0.4296  
G01 X1.6365  Y0.4365  
G01 X1.6365  Y0.4435  
G01 X1.6351  Y0.4504  
G01 X1.6325  Y0.4568  
G01 X1.6286  Y0.4626  
G01 X1.6236  Y0.4676  
G01 X1.6178  Y0.4715  
G01 X1.6114  Y0.4741  
G01 X1.6045  Y0.4755  
G01 X1.5355  Y0.4755  
G01 X1.5286  Y0.4741  
G01 X1.5222  Y0.4715  
G01 X1.5164  Y0.4676  
G01 X1.5114  Y0.4626  
G01 X1.5075  Y0.4568  
G01 X1.5049  Y0.4504  
G01 X1.5035  Y0.4435  
G01 X1.5035  Y0.4365  
G01 X1.5049  Y0.4296  
G01 X1.5075  Y0.4232  
G01 X1.5114  Y0.4174  
G01 X1.5164  Y0.4124  
G01 X1.5222  Y0.4085  
G01 X1.5286  Y0.4059  
G01 X1.5355  Y0.4045  
G00 Z0.1000  
G00 X1.5355  Y0.5045  
G01 Z-0.0070 F10    
G01 X1.6045  Y0.5045  F20    
G01 X1.6114  Y0.5059  
G01 X1.6178  Y0.5085  
G01 X1.6236  Y0.5124  
G01 X1.6286  Y0.5174  
G01 X1.6325  Y0.5232  
G01 X1.6351  Y0.5296  
G01 X1.6365  Y0.5365  
G01 X1.6365  Y0.5435  
G01 X1.6351  Y0.5504  
G01 X1.6325  Y0.5568  
G01 X1.6286  Y0.5626  
G01 X1.6236  Y0.5676  
G01 X1.6178  Y0.5715  
G01 X1.6114  Y0.5741  
G01 X1.6045  Y0.5755  
G01 X1.5355  Y0.5755  
G01 X1.5286  Y0.5741  
G01 X1.5222  Y0.5715  
G01 X1.5164  Y0.5676  
G01 X1.5114  Y0.5626  
G01 X1.5075  Y0.5568  
G01 X1.5049  Y0.5504  
G01 X1.5035  Y0.5435  
G01 X1.5035  Y0.5365  
G01 X1.5049  Y0.5296  
G01 X1.5075  Y0.5232  
G01 X1.5114  Y0.5174  
G01 X1.5164  Y0.5124  
G01 X1.5222  Y0.5085  
G01 X1.5286  Y0.5059  
G01 X1.5355  Y0.5045  
G00 Z0.1000  
G00 X1.5355  Y0.6045  
G01 Z-0.0070 F10    
G01 X1.6045  Y0.6045  F20    
G01 X1.6114  Y0.6059  
G01 X1.6178  Y0.6085  
G01 X1.6236  Y0.6124  
G01 X1.6286  Y0.6174  
G01 X1.6325  Y0.6232  
G01 X1.6351  Y0.6296  
G01 X1.6365  Y0.6365  
G01 X1.6365  Y0.6435  
G01 X1.6351  Y0.6504  
G01 X1.6325  Y0.6568  
G01 X1.6286  Y0.6626  
G01 X1.6236  Y0.6676  
G01 X1.6178  Y0.6715  
G01 X1.6114  Y0.6741  
G01 X1.6045  Y0.6755  
G01 X1.5355  Y0.6755  
G01 X1.5286  Y0.6741  
G01 X1.5222  Y0.6715  
G01 X1.5164  Y0.6676  
G01 X1.5114  Y0.6626  
G01 X1.5075  Y0.6568  
G01 X1.5049  Y0.6504  
G01 X1.5035  Y0.6435  
G01 X1.5035  Y0.6365  
G01 X1.5049  Y0.6296  
G01 X1.5075  Y0.6232  
G01 X1.5114  Y0.6174  
G01 X1.5164  Y0.6124  
G01 X1.5222  Y0.6085  
G01 X1.5286  Y0.6059  
G01 X1.5355  Y0.6045  
G00 Z0.1000  
G00 X1.5355  Y0.7045  
G01 Z-0.0070 F10    
G01 X1.6045  Y0.7045  F20    
G01 X1.6114  Y0.7059  
G01 X1.6178  Y0.7085  
G01 X1.6236  Y0.7124  
G01 X1.6286  Y0.7174  
G01 X1.6325  Y0.7232  
G01 X1.6351  Y0.7296  
G01 X1.6365  Y0.7365  
G01 X1.6365  Y0.7435  
G01 X1.6351  Y0.7504  
G01 X1.6325  Y0.7568  
G01 X1.6286  Y0.7626  
G01 X1.6236  Y0.7676  
G01 X1.6178  Y0.7715  
G01 X1.6114  Y0.7741  
G01 X1.6045  Y0.7755  
G01 X1.5355  Y0.7755  
G01 X1.5286  Y0.7741  
G01 X1.5222  Y0.7715  
G01 X1.5164  Y0.7676  
G01 X1.5114  Y0.7626  
G01 X1.5075  Y0.7568  
G01 X1.5049  Y0.7504  
G01 X1.5035  Y0.7435  
G01 X1.5035  Y0.7365  
G01 X1.5049  Y0.7296  
G01 X1.5075  Y0.7232  
G01 X1.5114  Y0.7174  
G01 X1.5164  Y0.7124  
G01 X1.5222  Y0.7085  
G01 X1.5286  Y0.7059  
G01 X1.5355  Y0.7045  
G00 Z0.1000  
G00 X1.5355  Y0.8045  
G01 Z-0.0070 F10    
G01 X1.6045  Y0.8045  F20    
G01 X1.6114  Y0.8059  
G01 X1.6178  Y0.8085  
G01 X1.6236  Y0.8124  
G01 X1.6286  Y0.8174  
G01 X1.6325  Y0.8232  
G01 X1.6351  Y0.8296  
G01 X1.6365  Y0.8365  
G01 X1.6365  Y0.8435  
G01 X1.6351  Y0.8504  
G01 X1.6325  Y0.8568  
G01 X1.6286  Y0.8626  
G01 X1.6236  Y0.8676  
G01 X1.6178  Y0.8715  
G01 X1.6114  Y0.8741  
G01 X1.6045  Y0.8755  
G01 X1.5355  Y0.8755  
G01 X1.5286  Y0.8741  
G01 X1.5222  Y0.8715  
G01 X1.5164  Y0.8676  
G01 X1.5114  Y0.8626  
G01 X1.5075  Y0.8568  
G01 X1.5049  Y0.8504  
G01 X1.5035  Y0.8435  
G01 X1.5035  Y0.8365  
G01 X1.5049  Y0.8296  
G01 X1.5075  Y0.8232  
G01 X1.5114  Y0.8174  
G01 X1.5164  Y0.8124  
G01 X1.5222  Y0.8085  
G01 X1.5286  Y0.8059  
G01 X1.5355  Y0.8045  
G00 Z0.1000  
G00 X1.5355  Y0.9045  
G01 Z-0.0070 F10    
G01 X1.6045  Y0.9045  F20    
G01 X1.6114  Y0.9059  
G01 X1.6178  Y0.9085  
G01 X1.6236  Y0.9124  
G01 X1.6286  Y0.9174  
G01 X1.6325  Y0.9232  
G01 X1.6351  Y0.9296  
G01 X1.6365  Y0.9365  
G01 X1.6365  Y0.9435  
G01 X1.6351  Y0.9504  
G01 X1.6325  Y0.9568  
G01 X1.6286  Y0.9626  
G01 X1.6236  Y0.9676  
G01 X1.6178  Y0.9715  
G01 X1.6114  Y0.9741  
G01 X1.6045  Y0.9755  
G01 X1.5355  Y0.9755  
G01 X1.5286  Y0.9741  
G01 X1.5222  Y0.9715  
G01 X1.5164  Y0.9676  
G01 X1.5114  Y0.9626  
G01 X1.5075  Y0.9568  
G01 X1.5049  Y0.9504  
G01 X1.5035  Y0.9435  
G01 X1.5035  Y0.9365  
G01 X1.5049  Y0.9296  
G01 X1.5075  Y0.9232  
G01 X1.5114  Y0.9174  
G01 X1.5164  Y0.9124  
G01 X1.5222  Y0.9085  
G01 X1.5286  Y0.9059  
G01 X1.5355  Y0.9045  
G00 Z0.1000  
G00 X1.5355  Y1.0045  
G01 Z-0.0070 F10    
G01 X1.6045  Y1.0045  F20    
G01 X1.6114  Y1.0059  
G01 X1.6178  Y1.0085  
G01 X1.6236  Y1.0124  
G01 X1.6286  Y1.0174  
G01 X1.6325  Y1.0232  
G01 X1.6351  Y1.0296  
G01 X1.6365  Y1.0365  
G01 X1.6365  Y1.0435  
G01 X1.6351  Y1.0504  
G01 X1.6325  Y1.0568  
G01 X1.6286  Y1.0626  
G01 X1.6236  Y1.0676  
G01 X1.6178  Y1.0715  
G01 X1.6114  Y1.0741  
G01 X1.6045  Y1.0755  
G01 X1.5355  Y1.0755  
G01 X1.5286  Y1.0741  
G01 X1.5222  Y1.0715  
G01 X1.5164  Y1.0676  
G01 X1.5114  Y1.0626  
G01 X1.5075  Y1.0568  
G01 X1.5049  Y1.0504  
G01 X1.5035  Y1.0435  
G01 X1.5035  Y1.0365  
G01 X1.5049  Y1.0296  
G01 X1.5075  Y1.0232  
G01 X1.5114  Y1.0174  
G01 X1.5164  Y1.0124  
G01 X1.5222  Y1.0085  
G01 X1.5286  Y1.0059  
G01 X1.5355  Y1.0045  
G00 Z0.1000  
G00 X1.2355  Y1.0045  
G01 Z-0.0070 F10    
G01 X1.3045  Y1.0045  F20    
G01 X1.3114  Y1.0059  
G01 X1.3178  Y1.0085  
G01 X1.3236  Y1.0124  
G01 X1.3286  Y1.0174  
G01 X1.3325  Y1.0232  
G01 X1.3351  Y1.0296  
G01 X1.3365  Y1.0365  
G01 X1.3365  Y1.0435  
G01 X1.3351  Y1.0504  
G01 X1.3325  Y1.0568  
G01 X1.3286  Y1.0626  
G01 X1.3236  Y1.0676  
G01 X1.3178  Y1.0715  
G01 X1.3114  Y1.0741  
G01 X1.3045  Y1.0755  
G01 X1.2355  Y1.0755  
G01 X1.2286  Y1.0741  
G01 X1.2222  Y1.0715  
G01 X1.2164  Y1.0676  
G01 X1.2114  Y1.0626  
G01 X1.2075  Y1.0568  
G01 X1.2049  Y1.0504  
G01 X1.2035  Y1.0435  
G01 X1.2035  Y1.0365  
G01 X1.2049  Y1.0296  
G01 X1.2075  Y1.0232  
G01 X1.2114  Y1.0174  
G01 X1.2164  Y1.0124  
G01 X1.2222  Y1.0085  
G01 X1.2286  Y1.0059  
G01 X1.2355  Y1.0045  
G00 Z0.1000  
G00 X1.2355  Y0.9045  
G01 Z-0.0070 F10    
G01 X1.3045  Y0.9045  F20    
G01 X1.3114  Y0.9059  
G01 X1.3178  Y0.9085  
G01 X1.3236  Y0.9124  
G01 X1.3286  Y0.9174  
G01 X1.3325  Y0.9232  
G01 X1.3351  Y0.9296  
G01 X1.3365  Y0.9365  
G01 X1.3365  Y0.9435  
G01 X1.3351  Y0.9504  
G01 X1.3325  Y0.9568  
G01 X1.3286  Y0.9626  
G01 X1.3236  Y0.9676  
G01 X1.3178  Y0.9715  
G01 X1.3114  Y0.9741  
G01 X1.3045  Y0.9755  
G01 X1.2355  Y0.9755  
G01 X1.2286  Y0.9741  
G01 X1.2222  Y0.9715  
G01 X1.2164  Y0.9676  
G01 X1.2114  Y0.9626  
G01 X1.2075  Y0.9568  
G01 X1.2049  Y0.9504  
G01 X1.2035  Y0.9435  
G01 X1.2035  Y0.9365  
G01 X1.2049  Y0.9296  
G01 X1.2075  Y0.9232  
G01 X1.2114  Y0.9174  
G01 X1.2164  Y0.9124  
G01 X1.2222  Y0.9085  
G01 X1.2286  Y0.9059  
G01 X1.2355  Y0.9045  
G00 Z0.1000  
G00 X1.2355  Y0.8045  
G01 Z-0.0070 F10    
G01 X1.3045  Y0.8045  F20    
G01 X1.3114  Y0.8059  
G01 X1.3178  Y0.8085  
G01 X1.3236  Y0.8124  
G01 X1.3286  Y0.8174  
G01 X1.3325  Y0.8232  
G01 X1.3351  Y0.8296  
G01 X1.3365  Y0.8365  
G01 X1.3365  Y0.8435  
G01 X1.3351  Y0.8504  
G01 X1.3325  Y0.8568  
G01 X1.3286  Y0.8626  
G01 X1.3236  Y0.8676  
G01 X1.3178  Y0.8715  
G01 X1.3114  Y0.8741  
G01 X1.3045  Y0.8755  
G01 X1.2355  Y0.8755  
G01 X1.2286  Y0.8741  
G01 X1.2222  Y0.8715  
G01 X1.2164  Y0.8676  
G01 X1.2114  Y0.8626  
G01 X1.2075  Y0.8568  
G01 X1.2049  Y0.8504  
G01 X1.2035  Y0.8435  
G01 X1.2035  Y0.8365  
G01 X1.2049  Y0.8296  
G01 X1.2075  Y0.8232  
G01 X1.2114  Y0.8174  
G01 X1.2164  Y0.8124  
G01 X1.2222  Y0.8085  
G01 X1.2286  Y0.8059  
G01 X1.2355  Y0.8045  
G00 Z0.1000  
G00 X1.2355  Y0.7045  
G01 Z-0.0070 F10    
G01 X1.3045  Y0.7045  F20    
G01 X1.3114  Y0.7059  
G01 X1.3178  Y0.7085  
G01 X1.3236  Y0.7124  
G01 X1.3286  Y0.7174  
G01 X1.3325  Y0.7232  
G01 X1.3351  Y0.7296  
G01 X1.3365  Y0.7365  
G01 X1.3365  Y0.7435  
G01 X1.3351  Y0.7504  
G01 X1.3325  Y0.7568  
G01 X1.3286  Y0.7626  
G01 X1.3236  Y0.7676  
G01 X1.3178  Y0.7715  
G01 X1.3114  Y0.7741  
G01 X1.3045  Y0.7755  
G01 X1.2355  Y0.7755  
G01 X1.2286  Y0.7741  
G01 X1.2222  Y0.7715  
G01 X1.2164  Y0.7676  
G01 X1.2114  Y0.7626  
G01 X1.2075  Y0.7568  
G01 X1.2049  Y0.7504  
G01 X1.2035  Y0.7435  
G01 X1.2035  Y0.7365  
G01 X1.2049  Y0.7296  
G01 X1.2075  Y0.7232  
G01 X1.2114  Y0.7174  
G01 X1.2164  Y0.7124  
G01 X1.2222  Y0.7085  
G01 X1.2286  Y0.7059  
G01 X1.2355  Y0.7045  
G00 Z0.1000  
G00 X1.2355  Y0.6045  
G01 Z-0.0070 F10    
G01 X1.3045  Y0.6045  F20    
G01 X1.3114  Y0.6059  
G01 X1.3178  Y0.6085  
G01 X1.3236  Y0.6124  
G01 X1.3286  Y0.6174  
G01 X1.3325  Y0.6232  
G01 X1.3351  Y0.6296  
G01 X1.3365  Y0.6365  
G01 X1.3365  Y0.6435  
G01 X1.3351  Y0.6504  
G01 X1.3325  Y0.6568  
G01 X1.3286  Y0.6626  
G01 X1.3236  Y0.6676  
G01 X1.3178  Y0.6715  
G01 X1.3114  Y0.6741  
G01 X1.3045  Y0.6755  
G01 X1.2355  Y0.6755  
G01 X1.2286  Y0.6741  
G01 X1.2222  Y0.6715  
G01 X1.2164  Y0.6676  
G01 X1.2114  Y0.6626  
G01 X1.2075  Y0.6568  
G01 X1.2049  Y0.6504  
G01 X1.2035  Y0.6435  
G01 X1.2035  Y0.6365  
G01 X1.2049  Y0.6296  
G01 X1.2075  Y0.6232  
G01 X1.2114  Y0.6174  
G01 X1.2164  Y0.6124  
G01 X1.2222  Y0.6085  
G01 X1.2286  Y0.6059  
G01 X1.2355  Y0.6045  
G00 Z0.1000  
G00 X1.2355  Y0.5045  
G01 Z-0.0070 F10    
G01 X1.3045  Y0.5045  F20    
G01 X1.3114  Y0.5059  
G01 X1.3178  Y0.5085  
G01 X1.3236  Y0.5124  
G01 X1.3286  Y0.5174  
G01 X1.3325  Y0.5232  
G01 X1.3351  Y0.5296  
G01 X1.3365  Y0.5365  
G01 X1.3365  Y0.5435  
G01 X1.3351  Y0.5504  
G01 X1.3325  Y0.5568  
G01 X1.3286  Y0.5626  
G01 X1.3236  Y0.5676  
G01 X1.3178  Y0.5715  
G01 X1.3114  Y0.5741  
G01 X1.3045  Y0.5755  
G01 X1.2355  Y0.5755  
G01 X1.2286  Y0.5741  
G01 X1.2222  Y0.5715  
G01 X1.2164  Y0.5676  
G01 X1.2114  Y0.5626  
G01 X1.2075  Y0.5568  
G01 X1.2049  Y0.5504  
G01 X1.2035  Y0.5435  
G01 X1.2035  Y0.5365  
G01 X1.2049  Y0.5296  
G01 X1.2075  Y0.5232  
G01 X1.2114  Y0.5174  
G01 X1.2164  Y0.5124  
G01 X1.2222  Y0.5085  
G01 X1.2286  Y0.5059  
G01 X1.2355  Y0.5045  
G00 Z0.1000  
G00 X1.2355  Y0.4045  
G01 Z-0.0070 F10    
G01 X1.3045  Y0.4045  F20    
G01 X1.3114  Y0.4059  
G01 X1.3178  Y0.4085  
G01 X1.3236  Y0.4124  
G01 X1.3286  Y0.4174  
G01 X1.3325  Y0.4232  
G01 X1.3351  Y0.4296  
G01 X1.3365  Y0.4365  
G01 X1.3365  Y0.4435  
G01 X1.3351  Y0.4504  
G01 X1.3325  Y0.4568  
G01 X1.3286  Y0.4626  
G01 X1.3236  Y0.4676  
G01 X1.3178  Y0.4715  
G01 X1.3114  Y0.4741  
G01 X1.3045  Y0.4755  
G01 X1.2355  Y0.4755  
G01 X1.2286  Y0.4741  
G01 X1.2222  Y0.4715  
G01 X1.2164  Y0.4676  
G01 X1.2114  Y0.4626  
G01 X1.2075  Y0.4568  
G01 X1.2049  Y0.4504  
G01 X1.2035  Y0.4435  
G01 X1.2035  Y0.4365  
G01 X1.2049  Y0.4296  
G01 X1.2075  Y0.4232  
G01 X1.2114  Y0.4174  
G01 X1.2164  Y0.4124  
G01 X1.2222  Y0.4085  
G01 X1.2286  Y0.4059  
G01 X1.2355  Y0.4045  
G00 Z0.1000  
G00 X1.2355  Y0.3045  
G01 Z-0.0070 F10    
G01 X1.3045  Y0.3045  F20    
G01 X1.3114  Y0.3059  
G01 X1.3178  Y0.3085  
G01 X1.3236  Y0.3124  
G01 X1.3286  Y0.3174  
G01 X1.3325  Y0.3232  
G01 X1.3351  Y0.3296  
G01 X1.3365  Y0.3365  
G01 X1.3365  Y0.3435  
G01 X1.3351  Y0.3504  
G01 X1.3325  Y0.3568  
G01 X1.3286  Y0.3626  
G01 X1.3236  Y0.3676  
G01 X1.3178  Y0.3715  
G01 X1.3114  Y0.3741  
G01 X1.3045  Y0.3755  
G01 X1.2355  Y0.3755  
G01 X1.2286  Y0.3741  
G01 X1.2222  Y0.3715  
G01 X1.2164  Y0.3676  
G01 X1.2114  Y0.3626  
G01 X1.2075  Y0.3568  
G01 X1.2049  Y0.3504  
G01 X1.2035  Y0.3435  
G01 X1.2035  Y0.3365  
G01 X1.2049  Y0.3296  
G01 X1.2075  Y0.3232  
G01 X1.2114  Y0.3174  
G01 X1.2164  Y0.3124  
G01 X1.2222  Y0.3085  
G01 X1.2286  Y0.3059  
G01 X1.2355  Y0.3045  
G00 Z0.1000  
G00 X0.3295  Y0.9836  
G01 Z-0.0070 F10    
G01 X0.3295  Y1.0164  F20    
G01 X0.3064  Y1.0395  
G01 X0.2736  Y1.0395  
G01 X0.2505  Y1.0164  
G01 X0.2505  Y0.9836  
G01 X0.2736  Y0.9605  
G01 X0.3064  Y0.9605  
G01 X0.3295  Y0.9836  
G00 Z0.1000  
G00 X0.3295  Y0.8836  
G01 Z-0.0070 F10    
G01 X0.3295  Y0.9164  F20    
G01 X0.3064  Y0.9395  
G01 X0.2736  Y0.9395  
G01 X0.2505  Y0.9164  
G01 X0.2505  Y0.8836  
G01 X0.2736  Y0.8605  
G01 X0.3064  Y0.8605  
G01 X0.3295  Y0.8836  
G00 Z0.1000  
G00 X0.3295  Y0.7836  
G01 Z-0.0070 F10    
G01 X0.3295  Y0.8164  F20    
G01 X0.3064  Y0.8395  
G01 X0.2736  Y0.8395  
G01 X0.2505  Y0.8164  
G01 X0.2505  Y0.7836  
G01 X0.2736  Y0.7605  
G01 X0.3064  Y0.7605  
G01 X0.3295  Y0.7836  
G00 Z0.1000  
G00 X0.3295  Y0.6836  
G01 Z-0.0070 F10    
G01 X0.3295  Y0.7164  F20    
G01 X0.3064  Y0.7395  
G01 X0.2736  Y0.7395  
G01 X0.2505  Y0.7164  
G01 X0.2505  Y0.6836  
G01 X0.2736  Y0.6605  
G01 X0.3064  Y0.6605  
G01 X0.3295  Y0.6836  
G00 Z0.1000  
G00 X0.3295  Y0.5836  
G01 Z-0.0070 F10    
G01 X0.3295  Y0.6164  F20    
G01 X0.3064  Y0.6395  
G01 X0.2736  Y0.6395  
G01 X0.2505  Y0.6164  
G01 X0.2505  Y0.5836  
G01 X0.2736  Y0.5605  
G01 X0.3064  Y0.5605  
G01 X0.3295  Y0.5836  
G00 Z0.1000  
G00 X0.3295  Y0.4836  
G01 Z-0.0070 F10    
G01 X0.3295  Y0.5164  F20    
G01 X0.3064  Y0.5395  
G01 X0.2736  Y0.5395  
G01 X0.2505  Y0.5164  
G01 X0.2505  Y0.4836  
G01 X0.2736  Y0.4605  
G01 X0.3064  Y0.4605  
G01 X0.3295  Y0.4836  
G00 Z0.1000  
G00 X0.2295  Y0.9836  
G01 Z-0.0070 F10    
G01 X0.2295  Y1.0164  F20    
G01 X0.2064  Y1.0395  
G01 X0.1736  Y1.0395  
G01 X0.1505  Y1.0164  
G01 X0.1505  Y0.9836  
G01 X0.1736  Y0.9605  
G01 X0.2064  Y0.9605  
G01 X0.2295  Y0.9836  
G00 Z0.1000  
G00 X0.2295  Y0.8836  
G01 Z-0.0070 F10    
G01 X0.2295  Y0.9164  F20    
G01 X0.2064  Y0.9395  
G01 X0.1736  Y0.9395  
G01 X0.1505  Y0.9164  
G01 X0.1505  Y0.8836  
G01 X0.1736  Y0.8605  
G01 X0.2064  Y0.8605  
G01 X0.2295  Y0.8836  
G00 Z0.1000  
G00 X0.2295  Y0.7836  
G01 Z-0.0070 F10    
G01 X0.2295  Y0.8164  F20    
G01 X0.2064  Y0.8395  
G01 X0.1736  Y0.8395  
G01 X0.1505  Y0.8164  
G01 X0.1505  Y0.7836  
G01 X0.1736  Y0.7605  
G01 X0.2064  Y0.7605  
G01 X0.2295  Y0.7836  
G00 Z0.1000  
G00 X0.2295  Y0.6836  
G01 Z-0.0070 F10    
G01 X0.2295  Y0.7164  F20    
G01 X0.2064  Y0.7395  
G01 X0.1736  Y0.7395  
G01 X0.1505  Y0.7164  
G01 X0.1505  Y0.6836  
G01 X0.1736  Y0.6605  
G01 X0.2064  Y0.6605  
G01 X0.2295  Y0.6836  
G00 Z0.1000  
G00 X0.2295  Y0.5836  
G01 Z-0.0070 F10    
G01 X0.2295  Y0.6164  F20    
G01 X0.2064  Y0.6395  
G01 X0.1736  Y0.6395  
G01 X0.1505  Y0.6164  
G01 X0.1505  Y0.5836  
G01 X0.1736  Y0.5605  
G01 X0.2064  Y0.5605  
G01 X0.2295  Y0.5836  
G00 Z0.1000  
G00 X0.2295  Y0.4836  
G01 Z-0.0070 F10    
G01 X0.2295  Y0.5164  F20    
G01 X0.2064  Y0.5395  
G01 X0.1736  Y0.5395  
G01 X0.1505  Y0.5164  
G01 X0.1505  Y0.4836  
G01 X0.1736  Y0.4605  
G01 X0.2064  Y0.4605  
G01 X0.2295  Y0.4836  
G00 Z0.1000  
G00 X0.3295  Y0.3836  
G01 Z-0.0070 F10    
G01 X0.3295  Y0.4164  F20    
G01 X0.3064  Y0.4395  
G01 X0.2736  Y0.4395  
G01 X0.2505  Y0.4164  
G01 X0.2505  Y0.3836  
G01 X0.2736  Y0.3605  
G01 X0.3064  Y0.3605  
G01 X0.3295  Y0.3836  
G00 Z0.1000  
G00 X0.2295  Y0.3836  
G01 Z-0.0070 F10    
G01 X0.2295  Y0.4164  F20    
G01 X0.2064  Y0.4395  
G01 X0.1736  Y0.4395  
G01 X0.1505  Y0.4164  
G01 X0.1505  Y0.3836  
G01 X0.1736  Y0.3605  
G01 X0.2064  Y0.3605  
G01 X0.2295  Y0.3836  
G00 Z0.1000  
G00 X0.8345  Y0.4055  
G01 Z-0.0070 F10    
G01 X0.7655  Y0.4055  F20    
G01 X0.7586  Y0.4041  
G01 X0.7522  Y0.4015  
G01 X0.7464  Y0.3976  
G01 X0.7414  Y0.3926  
G01 X0.7375  Y0.3868  
G01 X0.7349  Y0.3804  
G01 X0.7335  Y0.3735  
G01 X0.7335  Y0.3665  
G01 X0.7349  Y0.3596  
G01 X0.7375  Y0.3532  
G01 X0.7414  Y0.3474  
G01 X0.7464  Y0.3424  
G01 X0.7522  Y0.3385  
G01 X0.7586  Y0.3359  
G01 X0.7655  Y0.3345  
G01 X0.8345  Y0.3345  
G01 X0.8414  Y0.3359  
G01 X0.8478  Y0.3385  
G01 X0.8536  Y0.3424  
G01 X0.8586  Y0.3474  
G01 X0.8625  Y0.3532  
G01 X0.8651  Y0.3596  
G01 X0.8665  Y0.3665  
G01 X0.8665  Y0.3735  
G01 X0.8651  Y0.3804  
G01 X0.8625  Y0.3868  
G01 X0.8586  Y0.3926  
G01 X0.8536  Y0.3976  
G01 X0.8478  Y0.4015  
G01 X0.8414  Y0.4041  
G01 X0.8345  Y0.4055  
G00 Z0.1000  
G00 X1.1345  Y0.3055  
G01 Z-0.0070 F10    
G01 X1.0655  Y0.3055  F20    
G01 X1.0586  Y0.3041  
G01 X1.0522  Y0.3015  
G01 X1.0464  Y0.2976  
G01 X1.0414  Y0.2926  
G01 X1.0375  Y0.2868  
G01 X1.0349  Y0.2804  
G01 X1.0335  Y0.2735  
G01 X1.0335  Y0.2665  
G01 X1.0349  Y0.2596  
G01 X1.0375  Y0.2532  
G01 X1.0414  Y0.2474  
G01 X1.0464  Y0.2424  
G01 X1.0522  Y0.2385  
G01 X1.0586  Y0.2359  
G01 X1.0655  Y0.2345  
G01 X1.1345  Y0.2345  
G01 X1.1414  Y0.2359  
G01 X1.1478  Y0.2385  
G01 X1.1536  Y0.2424  
G01 X1.1586  Y0.2474  
G01 X1.1625  Y0.2532  
G01 X1.1651  Y0.2596  
G01 X1.1665  Y0.2665  
G01 X1.1665  Y0.2735  
G01 X1.1651  Y0.2804  
G01 X1.1625  Y0.2868  
G01 X1.1586  Y0.2926  
G01 X1.1536  Y0.2976  
G01 X1.1478  Y0.3015  
G01 X1.1414  Y0.3041  
G01 X1.1345  Y0.3055  
G00 Z0.1000  
G00 X0.6345  Y0.3055  
G01 Z-0.0070 F10    
G01 X0.5655  Y0.3055  F20    
G01 X0.5586  Y0.3041  
G01 X0.5522  Y0.3015  
G01 X0.5464  Y0.2976  
G01 X0.5414  Y0.2926  
G01 X0.5375  Y0.2868  
G01 X0.5349  Y0.2804  
G01 X0.5335  Y0.2735  
G01 X0.5335  Y0.2665  
G01 X0.5349  Y0.2596  
G01 X0.5375  Y0.2532  
G01 X0.5414  Y0.2474  
G01 X0.5464  Y0.2424  
G01 X0.5522  Y0.2385  
G01 X0.5586  Y0.2359  
G01 X0.5655  Y0.2345  
G01 X0.6345  Y0.2345  
G01 X0.6414  Y0.2359  
G01 X0.6478  Y0.2385  
G01 X0.6536  Y0.2424  
G01 X0.6586  Y0.2474  
G01 X0.6625  Y0.2532  
G01 X0.6651  Y0.2596  
G01 X0.6665  Y0.2665  
G01 X0.6665  Y0.2735  
G01 X0.6651  Y0.2804  
G01 X0.6625  Y0.2868  
G01 X0.6586  Y0.2926  
G01 X0.6536  Y0.2976  
G01 X0.6478  Y0.3015  
G01 X0.6414  Y0.3041  
G01 X0.6345  Y0.3055  
G00 Z0.1000  
G00 X2.1155  Y0.1145  
G01 Z-0.0070 F10    
G01 X2.1845  Y0.1145  F20    
G01 X2.1914  Y0.1159  
G01 X2.1978  Y0.1185  
G01 X2.2036  Y0.1224  
G01 X2.2086  Y0.1274  
G01 X2.2125  Y0.1332  
G01 X2.2151  Y0.1396  
G01 X2.2165  Y0.1465  
G01 X2.2165  Y0.1535  
G01 X2.2151  Y0.1604  
G01 X2.2125  Y0.1668  
G01 X2.2086  Y0.1726  
G01 X2.2036  Y0.1776  
G01 X2.1978  Y0.1815  
G01 X2.1914  Y0.1841  
G01 X2.1845  Y0.1855  
G01 X2.1155  Y0.1855  
G01 X2.1086  Y0.1841  
G01 X2.1022  Y0.1815  
G01 X2.0964  Y0.1776  
G01 X2.0914  Y0.1726  
G01 X2.0875  Y0.1668  
G01 X2.0849  Y0.1604  
G01 X2.0835  Y0.1535  
G01 X2.0835  Y0.1465  
G01 X2.0849  Y0.1396  
G01 X2.0875  Y0.1332  
G01 X2.0914  Y0.1274  
G01 X2.0964  Y0.1224  
G01 X2.1022  Y0.1185  
G01 X2.1086  Y0.1159  
G01 X2.1155  Y0.1145  
G00 Z0.1000  
G00 X2.1155  Y0.2145  
G01 Z-0.0070 F10    
G01 X2.1845  Y0.2145  F20    
G01 X2.1914  Y0.2159  
G01 X2.1978  Y0.2185  
G01 X2.2036  Y0.2224  
G01 X2.2086  Y0.2274  
G01 X2.2125  Y0.2332  
G01 X2.2151  Y0.2396  
G01 X2.2165  Y0.2465  
G01 X2.2165  Y0.2535  
G01 X2.2151  Y0.2604  
G01 X2.2125  Y0.2668  
G01 X2.2086  Y0.2726  
G01 X2.2036  Y0.2776  
G01 X2.1978  Y0.2815  
G01 X2.1914  Y0.2841  
G01 X2.1845  Y0.2855  
G01 X2.1155  Y0.2855  
G01 X2.1086  Y0.2841  
G01 X2.1022  Y0.2815  
G01 X2.0964  Y0.2776  
G01 X2.0914  Y0.2726  
G01 X2.0875  Y0.2668  
G01 X2.0849  Y0.2604  
G01 X2.0835  Y0.2535  
G01 X2.0835  Y0.2465  
G01 X2.0849  Y0.2396  
G01 X2.0875  Y0.2332  
G01 X2.0914  Y0.2274  
G01 X2.0964  Y0.2224  
G01 X2.1022  Y0.2185  
G01 X2.1086  Y0.2159  
G01 X2.1155  Y0.2145  
G00 Z0.1000  
G00 X2.1155  Y0.3145  
G01 Z-0.0070 F10    
G01 X2.1845  Y0.3145  F20    
G01 X2.1914  Y0.3159  
G01 X2.1978  Y0.3185  
G01 X2.2036  Y0.3224  
G01 X2.2086  Y0.3274  
G01 X2.2125  Y0.3332  
G01 X2.2151  Y0.3396  
G01 X2.2165  Y0.3465  
G01 X2.2165  Y0.3535  
G01 X2.2151  Y0.3604  
G01 X2.2125  Y0.3668  
G01 X2.2086  Y0.3726  
G01 X2.2036  Y0.3776  
G01 X2.1978  Y0.3815  
G01 X2.1914  Y0.3841  
G01 X2.1845  Y0.3855  
G01 X2.1155  Y0.3855  
G01 X2.1086  Y0.3841  
G01 X2.1022  Y0.3815  
G01 X2.0964  Y0.3776  
G01 X2.0914  Y0.3726  
G01 X2.0875  Y0.3668  
G01 X2.0849  Y0.3604  
G01 X2.0835  Y0.3535  
G01 X2.0835  Y0.3465  
G01 X2.0849  Y0.3396  
G01 X2.0875  Y0.3332  
G01 X2.0914  Y0.3274  
G01 X2.0964  Y0.3224  
G01 X2.1022  Y0.3185  
G01 X2.1086  Y0.3159  
G01 X2.1155  Y0.3145  
G00 Z0.1000  
G00 X1.8155  Y0.3145  
G01 Z-0.0070 F10    
G01 X1.8845  Y0.3145  F20    
G01 X1.8914  Y0.3159  
G01 X1.8978  Y0.3185  
G01 X1.9036  Y0.3224  
G01 X1.9086  Y0.3274  
G01 X1.9125  Y0.3332  
G01 X1.9151  Y0.3396  
G01 X1.9165  Y0.3465  
G01 X1.9165  Y0.3535  
G01 X1.9151  Y0.3604  
G01 X1.9125  Y0.3668  
G01 X1.9086  Y0.3726  
G01 X1.9036  Y0.3776  
G01 X1.8978  Y0.3815  
G01 X1.8914  Y0.3841  
G01 X1.8845  Y0.3855  
G01 X1.8155  Y0.3855  
G01 X1.8086  Y0.3841  
G01 X1.8022  Y0.3815  
G01 X1.7964  Y0.3776  
G01 X1.7914  Y0.3726  
G01 X1.7875  Y0.3668  
G01 X1.7849  Y0.3604  
G01 X1.7835  Y0.3535  
G01 X1.7835  Y0.3465  
G01 X1.7849  Y0.3396  
G01 X1.7875  Y0.3332  
G01 X1.7914  Y0.3274  
G01 X1.7964  Y0.3224  
G01 X1.8022  Y0.3185  
G01 X1.8086  Y0.3159  
G01 X1.8155  Y0.3145  
G00 Z0.1000  
G00 X1.8155  Y0.2145  
G01 Z-0.0070 F10    
G01 X1.8845  Y0.2145  F20    
G01 X1.8914  Y0.2159  
G01 X1.8978  Y0.2185  
G01 X1.9036  Y0.2224  
G01 X1.9086  Y0.2274  
G01 X1.9125  Y0.2332  
G01 X1.9151  Y0.2396  
G01 X1.9165  Y0.2465  
G01 X1.9165  Y0.2535  
G01 X1.9151  Y0.2604  
G01 X1.9125  Y0.2668  
G01 X1.9086  Y0.2726  
G01 X1.9036  Y0.2776  
G01 X1.8978  Y0.2815  
G01 X1.8914  Y0.2841  
G01 X1.8845  Y0.2855  
G01 X1.8155  Y0.2855  
G01 X1.8086  Y0.2841  
G01 X1.8022  Y0.2815  
G01 X1.7964  Y0.2776  
G01 X1.7914  Y0.2726  
G01 X1.7875  Y0.2668  
G01 X1.7849  Y0.2604  
G01 X1.7835  Y0.2535  
G01 X1.7835  Y0.2465  
G01 X1.7849  Y0.2396  
G01 X1.7875  Y0.2332  
G01 X1.7914  Y0.2274  
G01 X1.7964  Y0.2224  
G01 X1.8022  Y0.2185  
G01 X1.8086  Y0.2159  
G01 X1.8155  Y0.2145  
G00 Z0.1000  
G00 X1.8155  Y0.1145  
G01 Z-0.0070 F10    
G01 X1.8845  Y0.1145  F20    
G01 X1.8914  Y0.1159  
G01 X1.8978  Y0.1185  
G01 X1.9036  Y0.1224  
G01 X1.9086  Y0.1274  
G01 X1.9125  Y0.1332  
G01 X1.9151  Y0.1396  
G01 X1.9165  Y0.1465  
G01 X1.9165  Y0.1535  
G01 X1.9151  Y0.1604  
G01 X1.9125  Y0.1668  
G01 X1.9086  Y0.1726  
G01 X1.9036  Y0.1776  
G01 X1.8978  Y0.1815  
G01 X1.8914  Y0.1841  
G01 X1.8845  Y0.1855  
G01 X1.8155  Y0.1855  
G01 X1.8086  Y0.1841  
G01 X1.8022  Y0.1815  
G01 X1.7964  Y0.1776  
G01 X1.7914  Y0.1726  
G01 X1.7875  Y0.1668  
G01 X1.7849  Y0.1604  
G01 X1.7835  Y0.1535  
G01 X1.7835  Y0.1465  
G01 X1.7849  Y0.1396  
G01 X1.7875  Y0.1332  
G01 X1.7914  Y0.1274  
G01 X1.7964  Y0.1224  
G01 X1.8022  Y0.1185  
G01 X1.8086  Y0.1159  
G01 X1.8155  Y0.1145  
G00 Z0.1000  
G00 X1.8355  Y0.6653  
G01 Z-0.0070 F10    
G01 X1.8355  Y0.6947  F20    
G01 X1.8147  Y0.7155  
G01 X1.7853  Y0.7155  
G01 X1.7645  Y0.6947  
G01 X1.7645  Y0.6653  
G01 X1.7853  Y0.6445  
G01 X1.8147  Y0.6445  
G01 X1.8355  Y0.6653  
G00 Z0.1000  
G00 X1.8355  Y0.4653  
G01 Z-0.0070 F10    
G01 X1.8355  Y0.4947  F20    
G01 X1.8147  Y0.5155  
G01 X1.7853  Y0.5155  
G01 X1.7645  Y0.4947  
G01 X1.7645  Y0.4653  
G01 X1.7853  Y0.4445  
G01 X1.8147  Y0.4445  
G01 X1.8355  Y0.4653  
G00 Z0.1000  
G00 X1.9555  Y0.6653  
G01 Z-0.0070 F10    
G01 X1.9555  Y0.6947  F20    
G01 X1.9347  Y0.7155  
G01 X1.9053  Y0.7155  
G01 X1.8845  Y0.6947  
G01 X1.8845  Y0.6653  
G01 X1.9053  Y0.6445  
G01 X1.9347  Y0.6445  
G01 X1.9555  Y0.6653  
G00 Z0.1000  
G00 X1.9555  Y0.4653  
G01 Z-0.0070 F10    
G01 X1.9555  Y0.4947  F20    
G01 X1.9347  Y0.5155  
G01 X1.9053  Y0.5155  
G01 X1.8845  Y0.4947  
G01 X1.8845  Y0.4653  
G01 X1.9053  Y0.4445  
G01 X1.9347  Y0.4445  
G01 X1.9555  Y0.4653  
G00 Z0.1000  
G00 X2.0755  Y0.6653  
G01 Z-0.0070 F10    
G01 X2.0755  Y0.6947  F20    
G01 X2.0547  Y0.7155  
G01 X2.0253  Y0.7155  
G01 X2.0045  Y0.6947  
G01 X2.0045  Y0.6653  
G01 X2.0253  Y0.6445  
G01 X2.0547  Y0.6445  
G01 X2.0755  Y0.6653  
G00 Z0.1000  
G00 X2.0755  Y0.4653  
G01 Z-0.0070 F10    
G01 X2.0755  Y0.4947  F20    
G01 X2.0547  Y0.5155  
G01 X2.0253  Y0.5155  
G01 X2.0045  Y0.4947  
G01 X2.0045  Y0.4653  
G01 X2.0253  Y0.4445  
G01 X2.0547  Y0.4445  
G01 X2.0755  Y0.4653  
G00 Z0.1000  
G00 X1.3055  Y0.2153  
G01 Z-0.0070 F10    
G01 X1.3055  Y0.2447  F20    
G01 X1.2847  Y0.2655  
G01 X1.2553  Y0.2655  
G01 X1.2345  Y0.2447  
G01 X1.2345  Y0.2153  
G01 X1.2553  Y0.1945  
G01 X1.2847  Y0.1945  
G01 X1.3055  Y0.2153  
G00 Z0.1000  
G00 X1.4055  Y0.2153  
G01 Z-0.0070 F10    
G01 X1.4055  Y0.2447  F20    
G01 X1.3847  Y0.2655  
G01 X1.3553  Y0.2655  
G01 X1.3345  Y0.2447  
G01 X1.3345  Y0.2153  
G01 X1.3553  Y0.1945  
G01 X1.3847  Y0.1945  
G01 X1.4055  Y0.2153  
G00 Z0.1000  
G00 X2.3545  Y1.0074  
G01 Z-0.0070 F10    
G01 X2.3545  Y1.0526  F20    
G01 X2.3226  Y1.0845  
G01 X2.2774  Y1.0845  
G01 X2.2455  Y1.0526  
G01 X2.2455  Y1.0074  
G01 X2.2774  Y0.9755  
G01 X2.3226  Y0.9755  
G01 X2.3545  Y1.0074  
G00 Z0.1000  
G00 X2.0545  Y1.0074  
G01 Z-0.0070 F10    
G01 X2.0545  Y1.0526  F20    
G01 X2.0226  Y1.0845  
G01 X1.9774  Y1.0845  
G01 X1.9455  Y1.0526  
G01 X1.9455  Y1.0074  
G01 X1.9774  Y0.9755  
G01 X2.0226  Y0.9755  
G01 X2.0545  Y1.0074  
G00 Z0.1000  
G00 X0.5455  Y0.9853  
G01 Z-0.0070 F10    
G01 X0.5455  Y1.0147  F20    
G01 X0.5247  Y1.0355  
G01 X0.4953  Y1.0355  
G01 X0.4745  Y1.0147  
G01 X0.4745  Y0.9853  
G01 X0.4953  Y0.9645  
G01 X0.5247  Y0.9645  
G01 X0.5455  Y0.9853  
G00 Z0.1000  
G00 X0.4455  Y0.9853  
G01 Z-0.0070 F10    
G01 X0.4455  Y1.0147  F20    
G01 X0.4247  Y1.0355  
G01 X0.3953  Y1.0355  
G01 X0.3745  Y1.0147  
G01 X0.3745  Y0.9853  
G01 X0.3953  Y0.9645  
G01 X0.4247  Y0.9645  
G01 X0.4455  Y0.9853  
G00 Z0.1000  
G00 X1.4255  Y1.1553  
G01 Z-0.0070 F10    
G01 X1.4255  Y1.1847  F20    
G01 X1.4047  Y1.2055  
G01 X1.3753  Y1.2055  
G01 X1.3545  Y1.1847  
G01 X1.3545  Y1.1553  
G01 X1.3753  Y1.1345  
G01 X1.4047  Y1.1345  
G01 X1.4255  Y1.1553  
G00 Z0.1000  
G00 X1.4755  Y1.2303  
G01 Z-0.0070 F10    
G01 X1.4755  Y1.2597  F20    
G01 X1.4547  Y1.2805  
G01 X1.4253  Y1.2805  
G01 X1.4045  Y1.2597  
G01 X1.4045  Y1.2303  
G01 X1.4253  Y1.2095  
G01 X1.4547  Y1.2095  
G01 X1.4755  Y1.2303  
G00 Z0.1000  
G00 X1.5255  Y1.1553  
G01 Z-0.0070 F10    
G01 X1.5255  Y1.1847  F20    
G01 X1.5047  Y1.2055  
G01 X1.4753  Y1.2055  
G01 X1.4545  Y1.1847  
G01 X1.4545  Y1.1553  
G01 X1.4753  Y1.1345  
G01 X1.5047  Y1.1345  
G01 X1.5255  Y1.1553  
G00 Z0.1000  
G00 X1.1775  Y1.1763  
G01 Z-0.0070 F10    
G01 X1.1775  Y1.1837  F20    
G01 X1.1763  Y1.1911  
G01 X1.1740  Y1.1982  
G01 X1.1706  Y1.2049  
G01 X1.1662  Y1.2109  
G01 X1.1609  Y1.2162  
G01 X1.1549  Y1.2206  
G01 X1.1482  Y1.2240  
G01 X1.1411  Y1.2263  
G01 X1.1337  Y1.2275  
G01 X1.1263  Y1.2275  
G01 X1.1189  Y1.2263  
G01 X1.1118  Y1.2240  
G01 X1.1051  Y1.2206  
G01 X1.0991  Y1.2162  
G01 X1.0938  Y1.2109  
G01 X1.0894  Y1.2049  
G01 X1.0860  Y1.1982  
G01 X1.0837  Y1.1911  
G01 X1.0825  Y1.1837  
G01 X1.0825  Y1.1763  
G01 X1.0837  Y1.1689  
G01 X1.0860  Y1.1618  
G01 X1.0894  Y1.1551  
G01 X1.0938  Y1.1491  
G01 X1.0991  Y1.1438  
G01 X1.1051  Y1.1394  
G01 X1.1118  Y1.1360  
G01 X1.1189  Y1.1337  
G01 X1.1263  Y1.1325  
G01 X1.1337  Y1.1325  
G01 X1.1411  Y1.1337  
G01 X1.1482  Y1.1360  
G01 X1.1549  Y1.1394  
G01 X1.1609  Y1.1438  
G01 X1.1662  Y1.1491  
G01 X1.1706  Y1.1551  
G01 X1.1740  Y1.1618  
G01 X1.1763  Y1.1689  
G01 X1.1775  Y1.1763  
G00 Z0.1000  
G00 X1.2775  Y1.1603  
G01 Z-0.0070 F10    
G01 X1.2775  Y1.1997  F20    
G01 X1.2497  Y1.2275  
G01 X1.2103  Y1.2275  
G01 X1.1825  Y1.1997  
G01 X1.1825  Y1.1603  
G01 X1.2103  Y1.1325  
G01 X1.2497  Y1.1325  
G01 X1.2775  Y1.1603  
G00 Z0.1000  
G00 X1.7975  Y1.2163  
G01 Z-0.0070 F10    
G01 X1.7975  Y1.2237  F20    
G01 X1.7963  Y1.2311  
G01 X1.7940  Y1.2382  
G01 X1.7906  Y1.2449  
G01 X1.7862  Y1.2509  
G01 X1.7809  Y1.2562  
G01 X1.7749  Y1.2606  
G01 X1.7682  Y1.2640  
G01 X1.7611  Y1.2663  
G01 X1.7537  Y1.2675  
G01 X1.7463  Y1.2675  
G01 X1.7389  Y1.2663  
G01 X1.7318  Y1.2640  
G01 X1.7251  Y1.2606  
G01 X1.7191  Y1.2562  
G01 X1.7138  Y1.2509  
G01 X1.7094  Y1.2449  
G01 X1.7060  Y1.2382  
G01 X1.7037  Y1.2311  
G01 X1.7025  Y1.2237  
G01 X1.7025  Y1.2163  
G01 X1.7037  Y1.2089  
G01 X1.7060  Y1.2018  
G01 X1.7094  Y1.1951  
G01 X1.7138  Y1.1891  
G01 X1.7191  Y1.1838  
G01 X1.7251  Y1.1794  
G01 X1.7318  Y1.1760  
G01 X1.7389  Y1.1737  
G01 X1.7463  Y1.1725  
G01 X1.7537  Y1.1725  
G01 X1.7611  Y1.1737  
G01 X1.7682  Y1.1760  
G01 X1.7749  Y1.1794  
G01 X1.7809  Y1.1838  
G01 X1.7862  Y1.1891  
G01 X1.7906  Y1.1951  
G01 X1.7940  Y1.2018  
G01 X1.7963  Y1.2089  
G01 X1.7975  Y1.2163  
G00 Z0.1000  
G00 X1.7975  Y1.1003  
G01 Z-0.0070 F10    
G01 X1.7975  Y1.1397  F20    
G01 X1.7697  Y1.1675  
G01 X1.7303  Y1.1675  
G01 X1.7025  Y1.1397  
G01 X1.7025  Y1.1003  
G01 X1.7303  Y1.0725  
G01 X1.7697  Y1.0725  
G01 X1.7975  Y1.1003  
G00 Z0.1000  
G00 X1.8025  Y1.2159  
G01 Z-0.0070 F10    
G01 X1.8025  Y1.2241  F20    
G01 X1.8012  Y1.2323  
G01 X1.7987  Y1.2402  
G01 X1.7949  Y1.2475  
G01 X1.7900  Y1.2542  
G01 X1.7842  Y1.2600  
G01 X1.7775  Y1.2649  
G01 X1.7702  Y1.2687  
G01 X1.7623  Y1.2712  
G01 X1.7541  Y1.2725  
G01 X1.7459  Y1.2725  
G01 X1.7377  Y1.2712  
G01 X1.7298  Y1.2687  
G01 X1.7225  Y1.2649  
G01 X1.7158  Y1.2600  
G01 X1.7100  Y1.2542  
G01 X1.7051  Y1.2475  
G01 X1.7013  Y1.2402  
G01 X1.6988  Y1.2323  
G01 X1.6975  Y1.2241  
G01 X1.6975  Y1.2159  
G01 X1.6988  Y1.2077  
G01 X1.7013  Y1.1998  
G01 X1.7051  Y1.1925  
G01 X1.7100  Y1.1858  
G01 X1.7158  Y1.1800  
G01 X1.7225  Y1.1751  
G01 X1.7280  Y1.1723  
G01 X1.6975  Y1.1417  
G01 X1.6975  Y1.0983  
G01 X1.7283  Y1.0675  
G01 X1.7717  Y1.0675  
G01 X1.8025  Y1.0983  
G01 X1.8025  Y1.1417  
G01 X1.7720  Y1.1723  
G01 X1.7775  Y1.1751  
G01 X1.7842  Y1.1800  
G01 X1.7900  Y1.1858  
G01 X1.7949  Y1.1925  
G01 X1.7987  Y1.1998  
G01 X1.8012  Y1.2077  
G01 X1.8025  Y1.2159  
G00 Z0.1000  
G00 X1.4805  Y1.2282  
G01 Z-0.0070 F10    
G01 X1.4805  Y1.2618  F20    
G01 X1.4568  Y1.2855  
G01 X1.4232  Y1.2855  
G01 X1.3995  Y1.2618  
G01 X1.3995  Y1.2282  
G01 X1.4232  Y1.2045  
G01 X1.4568  Y1.2045  
G01 X1.4805  Y1.2282  
G00 Z0.1000  
G00 X0.8411  Y0.6828  
G01 Z-0.0070 F10    
G01 X0.8380  Y0.6901  F20    
G01 X0.8336  Y0.6968  
G01 X0.8279  Y0.7024  
G01 X0.8213  Y0.7068  
G01 X0.8139  Y0.7099  
G01 X0.8061  Y0.7114  
G01 X0.7981  Y0.7114  
G01 X0.7903  Y0.7099  
G01 X0.7829  Y0.7068  
G01 X0.7763  Y0.7024  
G01 X0.7707  Y0.6968  
G01 X0.7662  Y0.6901  
G01 X0.7632  Y0.6828  
G01 X0.7628  Y0.6806  
G01 X0.7623  Y0.6828  
G01 X0.7593  Y0.6901  
G01 X0.7548  Y0.6968  
G01 X0.7492  Y0.7024  
G01 X0.7426  Y0.7068  
G01 X0.7352  Y0.7099  
G01 X0.7274  Y0.7114  
G01 X0.7194  Y0.7114  
G01 X0.7116  Y0.7099  
G01 X0.7042  Y0.7068  
G01 X0.6976  Y0.7024  
G01 X0.6919  Y0.6968  
G01 X0.6875  Y0.6901  
G01 X0.6844  Y0.6828  
G01 X0.6829  Y0.6749  
G01 X0.6829  Y0.6050  
G01 X0.6844  Y0.5971  
G01 X0.6875  Y0.5898  
G01 X0.6919  Y0.5831  
G01 X0.6976  Y0.5775  
G01 X0.7042  Y0.5731  
G01 X0.7116  Y0.5700  
G01 X0.7194  Y0.5684  
G01 X0.7274  Y0.5684  
G01 X0.7352  Y0.5700  
G01 X0.7426  Y0.5731  
G01 X0.7492  Y0.5775  
G01 X0.7548  Y0.5831  
G01 X0.7593  Y0.5898  
G01 X0.7623  Y0.5971  
G01 X0.7628  Y0.5993  
G01 X0.7632  Y0.5971  
G01 X0.7662  Y0.5898  
G01 X0.7707  Y0.5831  
G01 X0.7763  Y0.5775  
G01 X0.7829  Y0.5731  
G01 X0.7903  Y0.5700  
G01 X0.7981  Y0.5684  
G01 X0.8061  Y0.5684  
G01 X0.8139  Y0.5700  
G01 X0.8213  Y0.5731  
G01 X0.8279  Y0.5775  
G01 X0.8336  Y0.5831  
G01 X0.8380  Y0.5898  
G01 X0.8411  Y0.5971  
G01 X0.8415  Y0.5993  
G01 X0.8419  Y0.5971  
G01 X0.8450  Y0.5898  
G01 X0.8494  Y0.5831  
G01 X0.8550  Y0.5775  
G01 X0.8617  Y0.5731  
G01 X0.8691  Y0.5700  
G01 X0.8769  Y0.5684  
G01 X0.8849  Y0.5684  
G01 X0.8927  Y0.5700  
G01 X0.9001  Y0.5731  
G01 X0.9067  Y0.5775  
G01 X0.9123  Y0.5831  
G01 X0.9168  Y0.5898  
G01 X0.9198  Y0.5971  
G01 X0.9214  Y0.6050  
G01 X0.9214  Y0.6749  
G01 X0.9198  Y0.6828  
G01 X0.9168  Y0.6901  
G01 X0.9123  Y0.6968  
G01 X0.9067  Y0.7024  
G01 X0.9001  Y0.7068  
G01 X0.8927  Y0.7099  
G01 X0.8849  Y0.7114  
G01 X0.8769  Y0.7114  
G01 X0.8691  Y0.7099  
G01 X0.8617  Y0.7068  
G01 X0.8550  Y0.7024  
G01 X0.8494  Y0.6968  
G01 X0.8450  Y0.6901  
G01 X0.8419  Y0.6828  
G01 X0.8415  Y0.6806  
G01 X0.8411  Y0.6828  
G00 Z0.1000  
G00 X0.8026  Y0.7772  
G01 Z-0.0070 F10    
G01 X0.8056  Y0.7699  F20    
G01 X0.8100  Y0.7632  
G01 X0.8157  Y0.7576  
G01 X0.8223  Y0.7532  
G01 X0.8297  Y0.7501  
G01 X0.8375  Y0.7486  
G01 X0.8455  Y0.7486  
G01 X0.8533  Y0.7501  
G01 X0.8607  Y0.7532  
G01 X0.8673  Y0.7576  
G01 X0.8730  Y0.7632  
G01 X0.8774  Y0.7699  
G01 X0.8804  Y0.7772  
G01 X0.8809  Y0.7794  
G01 X0.8813  Y0.7772  
G01 X0.8843  Y0.7699  
G01 X0.8888  Y0.7632  
G01 X0.8944  Y0.7576  
G01 X0.9011  Y0.7532  
G01 X0.9084  Y0.7501  
G01 X0.9162  Y0.7486  
G01 X0.9242  Y0.7486  
G01 X0.9320  Y0.7501  
G01 X0.9394  Y0.7532  
G01 X0.9461  Y0.7576  
G01 X0.9517  Y0.7632  
G01 X0.9561  Y0.7699  
G01 X0.9592  Y0.7772  
G01 X0.9607  Y0.7851  
G01 X0.9607  Y0.8550  
G01 X0.9592  Y0.8629  
G01 X0.9561  Y0.8702  
G01 X0.9517  Y0.8769  
G01 X0.9461  Y0.8825  
G01 X0.9394  Y0.8869  
G01 X0.9320  Y0.8900  
G01 X0.9242  Y0.8916  
G01 X0.9162  Y0.8916  
G01 X0.9084  Y0.8900  
G01 X0.9011  Y0.8869  
G01 X0.8944  Y0.8825  
G01 X0.8888  Y0.8769  
G01 X0.8843  Y0.8702  
G01 X0.8813  Y0.8629  
G01 X0.8809  Y0.8607  
G01 X0.8804  Y0.8629  
G01 X0.8774  Y0.8702  
G01 X0.8730  Y0.8769  
G01 X0.8673  Y0.8825  
G01 X0.8607  Y0.8869  
G01 X0.8533  Y0.8900  
G01 X0.8455  Y0.8916  
G01 X0.8375  Y0.8916  
G01 X0.8297  Y0.8900  
G01 X0.8223  Y0.8869  
G01 X0.8157  Y0.8825  
G01 X0.8100  Y0.8769  
G01 X0.8056  Y0.8702  
G01 X0.8026  Y0.8629  
G01 X0.8021  Y0.8607  
G01 X0.8017  Y0.8629  
G01 X0.7986  Y0.8702  
G01 X0.7942  Y0.8769  
G01 X0.7886  Y0.8825  
G01 X0.7819  Y0.8869  
G01 X0.7746  Y0.8900  
G01 X0.7667  Y0.8916  
G01 X0.7588  Y0.8916  
G01 X0.7509  Y0.8900  
G01 X0.7436  Y0.8869  
G01 X0.7369  Y0.8825  
G01 X0.7313  Y0.8769  
G01 X0.7269  Y0.8702  
G01 X0.7238  Y0.8629  
G01 X0.7223  Y0.8550  
G01 X0.7223  Y0.7851  
G01 X0.7238  Y0.7772  
G01 X0.7269  Y0.7699  
G01 X0.7313  Y0.7632  
G01 X0.7369  Y0.7576  
G01 X0.7436  Y0.7532  
G01 X0.7509  Y0.7501  
G01 X0.7588  Y0.7486  
G01 X0.7667  Y0.7486  
G01 X0.7746  Y0.7501  
G01 X0.7819  Y0.7532  
G01 X0.7886  Y0.7576  
G01 X0.7942  Y0.7632  
G01 X0.7986  Y0.7699  
G01 X0.8017  Y0.7772  
G01 X0.8021  Y0.7794  
G01 X0.8026  Y0.7772  
G00 Z0.1000  
G00 X1.5350  Y0.2995  
G01 Z-0.0070 F10    
G01 X1.6050  Y0.2995  F20    
G01 X1.6128  Y0.3011  
G01 X1.6202  Y0.3041  
G01 X1.6268  Y0.3085  
G01 X1.6325  Y0.3142  
G01 X1.6369  Y0.3208  
G01 X1.6399  Y0.3282  
G01 X1.6415  Y0.3360  
G01 X1.6415  Y0.3440  
G01 X1.6399  Y0.3518  
G01 X1.6369  Y0.3592  
G01 X1.6325  Y0.3658  
G01 X1.6268  Y0.3715  
G01 X1.6202  Y0.3759  
G01 X1.6128  Y0.3789  
G01 X1.6050  Y0.3805  
G01 X1.5350  Y0.3805  
G01 X1.5272  Y0.3789  
G01 X1.5198  Y0.3759  
G01 X1.5132  Y0.3715  
G01 X1.5075  Y0.3658  
G01 X1.5031  Y0.3592  
G01 X1.5001  Y0.3518  
G01 X1.4985  Y0.3440  
G01 X1.4985  Y0.3360  
G01 X1.5001  Y0.3282  
G01 X1.5031  Y0.3208  
G01 X1.5075  Y0.3142  
G01 X1.5132  Y0.3085  
G01 X1.5198  Y0.3041  
G01 X1.5272  Y0.3011  
G01 X1.5350  Y0.2995  
G00 Z0.1000  
G00 X1.5350  Y0.3995  
G01 Z-0.0070 F10    
G01 X1.6050  Y0.3995  F20    
G01 X1.6128  Y0.4011  
G01 X1.6202  Y0.4041  
G01 X1.6268  Y0.4085  
G01 X1.6325  Y0.4142  
G01 X1.6369  Y0.4208  
G01 X1.6399  Y0.4282  
G01 X1.6415  Y0.4360  
G01 X1.6415  Y0.4440  
G01 X1.6399  Y0.4518  
G01 X1.6369  Y0.4592  
G01 X1.6325  Y0.4658  
G01 X1.6268  Y0.4715  
G01 X1.6202  Y0.4759  
G01 X1.6128  Y0.4789  
G01 X1.6050  Y0.4805  
G01 X1.5350  Y0.4805  
G01 X1.5272  Y0.4789  
G01 X1.5198  Y0.4759  
G01 X1.5132  Y0.4715  
G01 X1.5075  Y0.4658  
G01 X1.5031  Y0.4592  
G01 X1.5001  Y0.4518  
G01 X1.4985  Y0.4440  
G01 X1.4985  Y0.4360  
G01 X1.5001  Y0.4282  
G01 X1.5031  Y0.4208  
G01 X1.5075  Y0.4142  
G01 X1.5132  Y0.4085  
G01 X1.5198  Y0.4041  
G01 X1.5272  Y0.4011  
G01 X1.5350  Y0.3995  
G00 Z0.1000  
G00 X1.5350  Y0.4995  
G01 Z-0.0070 F10    
G01 X1.6050  Y0.4995  F20    
G01 X1.6128  Y0.5011  
G01 X1.6202  Y0.5041  
G01 X1.6268  Y0.5085  
G01 X1.6325  Y0.5142  
G01 X1.6369  Y0.5208  
G01 X1.6399  Y0.5282  
G01 X1.6415  Y0.5360  
G01 X1.6415  Y0.5440  
G01 X1.6399  Y0.5518  
G01 X1.6369  Y0.5592  
G01 X1.6325  Y0.5658  
G01 X1.6268  Y0.5715  
G01 X1.6202  Y0.5759  
G01 X1.6128  Y0.5789  
G01 X1.6050  Y0.5805  
G01 X1.5350  Y0.5805  
G01 X1.5272  Y0.5789  
G01 X1.5198  Y0.5759  
G01 X1.5132  Y0.5715  
G01 X1.5075  Y0.5658  
G01 X1.5031  Y0.5592  
G01 X1.5001  Y0.5518  
G01 X1.4985  Y0.5440  
G01 X1.4985  Y0.5360  
G01 X1.5001  Y0.5282  
G01 X1.5031  Y0.5208  
G01 X1.5075  Y0.5142  
G01 X1.5132  Y0.5085  
G01 X1.5198  Y0.5041  
G01 X1.5272  Y0.5011  
G01 X1.5350  Y0.4995  
G00 Z0.1000  
G00 X1.5350  Y0.5995  
G01 Z-0.0070 F10    
G01 X1.6050  Y0.5995  F20    
G01 X1.6128  Y0.6011  
G01 X1.6202  Y0.6041  
G01 X1.6268  Y0.6085  
G01 X1.6325  Y0.6142  
G01 X1.6369  Y0.6208  
G01 X1.6399  Y0.6282  
G01 X1.6415  Y0.6360  
G01 X1.6415  Y0.6440  
G01 X1.6399  Y0.6518  
G01 X1.6369  Y0.6592  
G01 X1.6325  Y0.6658  
G01 X1.6268  Y0.6715  
G01 X1.6202  Y0.6759  
G01 X1.6128  Y0.6789  
G01 X1.6050  Y0.6805  
G01 X1.5350  Y0.6805  
G01 X1.5272  Y0.6789  
G01 X1.5198  Y0.6759  
G01 X1.5132  Y0.6715  
G01 X1.5075  Y0.6658  
G01 X1.5031  Y0.6592  
G01 X1.5001  Y0.6518  
G01 X1.4985  Y0.6440  
G01 X1.4985  Y0.6360  
G01 X1.5001  Y0.6282  
G01 X1.5031  Y0.6208  
G01 X1.5075  Y0.6142  
G01 X1.5132  Y0.6085  
G01 X1.5198  Y0.6041  
G01 X1.5272  Y0.6011  
G01 X1.5350  Y0.5995  
G00 Z0.1000  
G00 X1.5350  Y0.6995  
G01 Z-0.0070 F10    
G01 X1.6050  Y0.6995  F20    
G01 X1.6128  Y0.7011  
G01 X1.6202  Y0.7041  
G01 X1.6268  Y0.7085  
G01 X1.6325  Y0.7142  
G01 X1.6369  Y0.7208  
G01 X1.6399  Y0.7282  
G01 X1.6415  Y0.7360  
G01 X1.6415  Y0.7440  
G01 X1.6399  Y0.7518  
G01 X1.6369  Y0.7592  
G01 X1.6325  Y0.7658  
G01 X1.6268  Y0.7715  
G01 X1.6202  Y0.7759  
G01 X1.6128  Y0.7789  
G01 X1.6050  Y0.7805  
G01 X1.5350  Y0.7805  
G01 X1.5272  Y0.7789  
G01 X1.5198  Y0.7759  
G01 X1.5132  Y0.7715  
G01 X1.5075  Y0.7658  
G01 X1.5031  Y0.7592  
G01 X1.5001  Y0.7518  
G01 X1.4985  Y0.7440  
G01 X1.4985  Y0.7360  
G01 X1.5001  Y0.7282  
G01 X1.5031  Y0.7208  
G01 X1.5075  Y0.7142  
G01 X1.5132  Y0.7085  
G01 X1.5198  Y0.7041  
G01 X1.5272  Y0.7011  
G01 X1.5350  Y0.6995  
G00 Z0.1000  
G00 X1.5350  Y0.7995  
G01 Z-0.0070 F10    
G01 X1.6050  Y0.7995  F20    
G01 X1.6128  Y0.8011  
G01 X1.6202  Y0.8041  
G01 X1.6268  Y0.8085  
G01 X1.6325  Y0.8142  
G01 X1.6369  Y0.8208  
G01 X1.6399  Y0.8282  
G01 X1.6415  Y0.8360  
G01 X1.6415  Y0.8440  
G01 X1.6399  Y0.8518  
G01 X1.6369  Y0.8592  
G01 X1.6325  Y0.8658  
G01 X1.6268  Y0.8715  
G01 X1.6202  Y0.8759  
G01 X1.6128  Y0.8789  
G01 X1.6050  Y0.8805  
G01 X1.5350  Y0.8805  
G01 X1.5272  Y0.8789  
G01 X1.5198  Y0.8759  
G01 X1.5132  Y0.8715  
G01 X1.5075  Y0.8658  
G01 X1.5031  Y0.8592  
G01 X1.5001  Y0.8518  
G01 X1.4985  Y0.8440  
G01 X1.4985  Y0.8360  
G01 X1.5001  Y0.8282  
G01 X1.5031  Y0.8208  
G01 X1.5075  Y0.8142  
G01 X1.5132  Y0.8085  
G01 X1.5198  Y0.8041  
G01 X1.5272  Y0.8011  
G01 X1.5350  Y0.7995  
G00 Z0.1000  
G00 X1.5350  Y0.8995  
G01 Z-0.0070 F10    
G01 X1.6050  Y0.8995  F20    
G01 X1.6128  Y0.9011  
G01 X1.6202  Y0.9041  
G01 X1.6268  Y0.9085  
G01 X1.6325  Y0.9142  
G01 X1.6369  Y0.9208  
G01 X1.6399  Y0.9282  
G01 X1.6415  Y0.9360  
G01 X1.6415  Y0.9440  
G01 X1.6399  Y0.9518  
G01 X1.6369  Y0.9592  
G01 X1.6325  Y0.9658  
G01 X1.6268  Y0.9715  
G01 X1.6202  Y0.9759  
G01 X1.6128  Y0.9789  
G01 X1.6050  Y0.9805  
G01 X1.5350  Y0.9805  
G01 X1.5272  Y0.9789  
G01 X1.5198  Y0.9759  
G01 X1.5132  Y0.9715  
G01 X1.5075  Y0.9658  
G01 X1.5031  Y0.9592  
G01 X1.5001  Y0.9518  
G01 X1.4985  Y0.9440  
G01 X1.4985  Y0.9360  
G01 X1.5001  Y0.9282  
G01 X1.5031  Y0.9208  
G01 X1.5075  Y0.9142  
G01 X1.5132  Y0.9085  
G01 X1.5198  Y0.9041  
G01 X1.5272  Y0.9011  
G01 X1.5350  Y0.8995  
G00 Z0.1000  
G00 X1.5350  Y0.9995  
G01 Z-0.0070 F10    
G01 X1.6050  Y0.9995  F20    
G01 X1.6128  Y1.0011  
G01 X1.6202  Y1.0041  
G01 X1.6268  Y1.0085  
G01 X1.6325  Y1.0142  
G01 X1.6369  Y1.0208  
G01 X1.6399  Y1.0282  
G01 X1.6415  Y1.0360  
G01 X1.6415  Y1.0440  
G01 X1.6399  Y1.0518  
G01 X1.6369  Y1.0592  
G01 X1.6325  Y1.0658  
G01 X1.6268  Y1.0715  
G01 X1.6202  Y1.0759  
G01 X1.6128  Y1.0789  
G01 X1.6050  Y1.0805  
G01 X1.5350  Y1.0805  
G01 X1.5272  Y1.0789  
G01 X1.5198  Y1.0759  
G01 X1.5132  Y1.0715  
G01 X1.5075  Y1.0658  
G01 X1.5031  Y1.0592  
G01 X1.5001  Y1.0518  
G01 X1.4985  Y1.0440  
G01 X1.4985  Y1.0360  
G01 X1.5001  Y1.0282  
G01 X1.5031  Y1.0208  
G01 X1.5075  Y1.0142  
G01 X1.5132  Y1.0085  
G01 X1.5198  Y1.0041  
G01 X1.5272  Y1.0011  
G01 X1.5350  Y0.9995  
G00 Z0.1000  
G00 X1.2350  Y0.9995  
G01 Z-0.0070 F10    
G01 X1.3050  Y0.9995  F20    
G01 X1.3128  Y1.0011  
G01 X1.3202  Y1.0041  
G01 X1.3268  Y1.0085  
G01 X1.3325  Y1.0142  
G01 X1.3369  Y1.0208  
G01 X1.3399  Y1.0282  
G01 X1.3415  Y1.0360  
G01 X1.3415  Y1.0440  
G01 X1.3399  Y1.0518  
G01 X1.3369  Y1.0592  
G01 X1.3325  Y1.0658  
G01 X1.3268  Y1.0715  
G01 X1.3202  Y1.0759  
G01 X1.3128  Y1.0789  
G01 X1.3050  Y1.0805  
G01 X1.2350  Y1.0805  
G01 X1.2272  Y1.0789  
G01 X1.2198  Y1.0759  
G01 X1.2132  Y1.0715  
G01 X1.2075  Y1.0658  
G01 X1.2031  Y1.0592  
G01 X1.2001  Y1.0518  
G01 X1.1985  Y1.0440  
G01 X1.1985  Y1.0360  
G01 X1.2001  Y1.0282  
G01 X1.2031  Y1.0208  
G01 X1.2075  Y1.0142  
G01 X1.2132  Y1.0085  
G01 X1.2198  Y1.0041  
G01 X1.2272  Y1.0011  
G01 X1.2350  Y0.9995  
G00 Z0.1000  
G00 X1.2350  Y0.8995  
G01 Z-0.0070 F10    
G01 X1.3050  Y0.8995  F20    
G01 X1.3128  Y0.9011  
G01 X1.3202  Y0.9041  
G01 X1.3268  Y0.9085  
G01 X1.3325  Y0.9142  
G01 X1.3369  Y0.9208  
G01 X1.3399  Y0.9282  
G01 X1.3415  Y0.9360  
G01 X1.3415  Y0.9440  
G01 X1.3399  Y0.9518  
G01 X1.3369  Y0.9592  
G01 X1.3325  Y0.9658  
G01 X1.3268  Y0.9715  
G01 X1.3202  Y0.9759  
G01 X1.3128  Y0.9789  
G01 X1.3050  Y0.9805  
G01 X1.2350  Y0.9805  
G01 X1.2272  Y0.9789  
G01 X1.2198  Y0.9759  
G01 X1.2132  Y0.9715  
G01 X1.2075  Y0.9658  
G01 X1.2031  Y0.9592  
G01 X1.2001  Y0.9518  
G01 X1.1985  Y0.9440  
G01 X1.1985  Y0.9360  
G01 X1.2001  Y0.9282  
G01 X1.2031  Y0.9208  
G01 X1.2075  Y0.9142  
G01 X1.2132  Y0.9085  
G01 X1.2198  Y0.9041  
G01 X1.2272  Y0.9011  
G01 X1.2350  Y0.8995  
G00 Z0.1000  
G00 X1.2350  Y0.7995  
G01 Z-0.0070 F10    
G01 X1.3050  Y0.7995  F20    
G01 X1.3128  Y0.8011  
G01 X1.3202  Y0.8041  
G01 X1.3268  Y0.8085  
G01 X1.3325  Y0.8142  
G01 X1.3369  Y0.8208  
G01 X1.3399  Y0.8282  
G01 X1.3415  Y0.8360  
G01 X1.3415  Y0.8440  
G01 X1.3399  Y0.8518  
G01 X1.3369  Y0.8592  
G01 X1.3325  Y0.8658  
G01 X1.3268  Y0.8715  
G01 X1.3202  Y0.8759  
G01 X1.3128  Y0.8789  
G01 X1.3050  Y0.8805  
G01 X1.2350  Y0.8805  
G01 X1.2272  Y0.8789  
G01 X1.2198  Y0.8759  
G01 X1.2132  Y0.8715  
G01 X1.2075  Y0.8658  
G01 X1.2031  Y0.8592  
G01 X1.2001  Y0.8518  
G01 X1.1985  Y0.8440  
G01 X1.1985  Y0.8360  
G01 X1.2001  Y0.8282  
G01 X1.2031  Y0.8208  
G01 X1.2075  Y0.8142  
G01 X1.2132  Y0.8085  
G01 X1.2198  Y0.8041  
G01 X1.2272  Y0.8011  
G01 X1.2350  Y0.7995  
G00 Z0.1000  
G00 X1.2350  Y0.6995  
G01 Z-0.0070 F10    
G01 X1.3050  Y0.6995  F20    
G01 X1.3128  Y0.7011  
G01 X1.3202  Y0.7041  
G01 X1.3268  Y0.7085  
G01 X1.3325  Y0.7142  
G01 X1.3369  Y0.7208  
G01 X1.3399  Y0.7282  
G01 X1.3415  Y0.7360  
G01 X1.3415  Y0.7440  
G01 X1.3399  Y0.7518  
G01 X1.3369  Y0.7592  
G01 X1.3325  Y0.7658  
G01 X1.3268  Y0.7715  
G01 X1.3202  Y0.7759  
G01 X1.3128  Y0.7789  
G01 X1.3050  Y0.7805  
G01 X1.2350  Y0.7805  
G01 X1.2272  Y0.7789  
G01 X1.2198  Y0.7759  
G01 X1.2132  Y0.7715  
G01 X1.2075  Y0.7658  
G01 X1.2031  Y0.7592  
G01 X1.2001  Y0.7518  
G01 X1.1985  Y0.7440  
G01 X1.1985  Y0.7360  
G01 X1.2001  Y0.7282  
G01 X1.2031  Y0.7208  
G01 X1.2075  Y0.7142  
G01 X1.2132  Y0.7085  
G01 X1.2198  Y0.7041  
G01 X1.2272  Y0.7011  
G01 X1.2350  Y0.6995  
G00 Z0.1000  
G00 X1.2350  Y0.5995  
G01 Z-0.0070 F10    
G01 X1.3050  Y0.5995  F20    
G01 X1.3128  Y0.6011  
G01 X1.3202  Y0.6041  
G01 X1.3268  Y0.6085  
G01 X1.3325  Y0.6142  
G01 X1.3369  Y0.6208  
G01 X1.3399  Y0.6282  
G01 X1.3415  Y0.6360  
G01 X1.3415  Y0.6440  
G01 X1.3399  Y0.6518  
G01 X1.3369  Y0.6592  
G01 X1.3325  Y0.6658  
G01 X1.3268  Y0.6715  
G01 X1.3202  Y0.6759  
G01 X1.3128  Y0.6789  
G01 X1.3050  Y0.6805  
G01 X1.2350  Y0.6805  
G01 X1.2272  Y0.6789  
G01 X1.2198  Y0.6759  
G01 X1.2132  Y0.6715  
G01 X1.2075  Y0.6658  
G01 X1.2031  Y0.6592  
G01 X1.2001  Y0.6518  
G01 X1.1985  Y0.6440  
G01 X1.1985  Y0.6360  
G01 X1.2001  Y0.6282  
G01 X1.2031  Y0.6208  
G01 X1.2075  Y0.6142  
G01 X1.2132  Y0.6085  
G01 X1.2198  Y0.6041  
G01 X1.2272  Y0.6011  
G01 X1.2350  Y0.5995  
G00 Z0.1000  
G00 X1.2350  Y0.4995  
G01 Z-0.0070 F10    
G01 X1.3050  Y0.4995  F20    
G01 X1.3128  Y0.5011  
G01 X1.3202  Y0.5041  
G01 X1.3268  Y0.5085  
G01 X1.3325  Y0.5142  
G01 X1.3369  Y0.5208  
G01 X1.3399  Y0.5282  
G01 X1.3415  Y0.5360  
G01 X1.3415  Y0.5440  
G01 X1.3399  Y0.5518  
G01 X1.3369  Y0.5592  
G01 X1.3325  Y0.5658  
G01 X1.3268  Y0.5715  
G01 X1.3202  Y0.5759  
G01 X1.3128  Y0.5789  
G01 X1.3050  Y0.5805  
G01 X1.2350  Y0.5805  
G01 X1.2272  Y0.5789  
G01 X1.2198  Y0.5759  
G01 X1.2132  Y0.5715  
G01 X1.2075  Y0.5658  
G01 X1.2031  Y0.5592  
G01 X1.2001  Y0.5518  
G01 X1.1985  Y0.5440  
G01 X1.1985  Y0.5360  
G01 X1.2001  Y0.5282  
G01 X1.2031  Y0.5208  
G01 X1.2075  Y0.5142  
G01 X1.2132  Y0.5085  
G01 X1.2198  Y0.5041  
G01 X1.2272  Y0.5011  
G01 X1.2350  Y0.4995  
G00 Z0.1000  
G00 X1.2350  Y0.3995  
G01 Z-0.0070 F10    
G01 X1.3050  Y0.3995  F20    
G01 X1.3128  Y0.4011  
G01 X1.3202  Y0.4041  
G01 X1.3268  Y0.4085  
G01 X1.3325  Y0.4142  
G01 X1.3369  Y0.4208  
G01 X1.3399  Y0.4282  
G01 X1.3415  Y0.4360  
G01 X1.3415  Y0.4440  
G01 X1.3399  Y0.4518  
G01 X1.3369  Y0.4592  
G01 X1.3325  Y0.4658  
G01 X1.3268  Y0.4715  
G01 X1.3202  Y0.4759  
G01 X1.3128  Y0.4789  
G01 X1.3050  Y0.4805  
G01 X1.2350  Y0.4805  
G01 X1.2272  Y0.4789  
G01 X1.2198  Y0.4759  
G01 X1.2132  Y0.4715  
G01 X1.2075  Y0.4658  
G01 X1.2031  Y0.4592  
G01 X1.2001  Y0.4518  
G01 X1.1985  Y0.4440  
G01 X1.1985  Y0.4360  
G01 X1.2001  Y0.4282  
G01 X1.2031  Y0.4208  
G01 X1.2075  Y0.4142  
G01 X1.2132  Y0.4085  
G01 X1.2198  Y0.4041  
G01 X1.2272  Y0.4011  
G01 X1.2350  Y0.3995  
G00 Z0.1000  
G00 X1.2350  Y0.2995  
G01 Z-0.0070 F10    
G01 X1.3050  Y0.2995  F20    
G01 X1.3128  Y0.3011  
G01 X1.3202  Y0.3041  
G01 X1.3268  Y0.3085  
G01 X1.3325  Y0.3142  
G01 X1.3369  Y0.3208  
G01 X1.3399  Y0.3282  
G01 X1.3415  Y0.3360  
G01 X1.3415  Y0.3440  
G01 X1.3399  Y0.3518  
G01 X1.3369  Y0.3592  
G01 X1.3325  Y0.3658  
G01 X1.3268  Y0.3715  
G01 X1.3202  Y0.3759  
G01 X1.3128  Y0.3789  
G01 X1.3050  Y0.3805  
G01 X1.2350  Y0.3805  
G01 X1.2272  Y0.3789  
G01 X1.2198  Y0.3759  
G01 X1.2132  Y0.3715  
G01 X1.2075  Y0.3658  
G01 X1.2031  Y0.3592  
G01 X1.2001  Y0.3518  
G01 X1.1985  Y0.3440  
G01 X1.1985  Y0.3360  
G01 X1.2001  Y0.3282  
G01 X1.2031  Y0.3208  
G01 X1.2075  Y0.3142  
G01 X1.2132  Y0.3085  
G01 X1.2198  Y0.3041  
G01 X1.2272  Y0.3011  
G01 X1.2350  Y0.2995  
G00 Z0.1000  
G00 X0.3345  Y0.9816  
G01 Z-0.0070 F10    
G01 X0.3345  Y1.0184  F20    
G01 X0.3084  Y1.0445  
G01 X0.2716  Y1.0445  
G01 X0.2455  Y1.0184  
G01 X0.2455  Y0.9816  
G01 X0.2716  Y0.9555  
G01 X0.3084  Y0.9555  
G01 X0.3345  Y0.9816  
G00 Z0.1000  
G00 X0.3345  Y0.8816  
G01 Z-0.0070 F10    
G01 X0.3345  Y0.9184  F20    
G01 X0.3084  Y0.9445  
G01 X0.2716  Y0.9445  
G01 X0.2455  Y0.9184  
G01 X0.2455  Y0.8816  
G01 X0.2716  Y0.8555  
G01 X0.3084  Y0.8555  
G01 X0.3345  Y0.8816  
G00 Z0.1000  
G00 X0.3345  Y0.7816  
G01 Z-0.0070 F10    
G01 X0.3345  Y0.8184  F20    
G01 X0.3084  Y0.8445  
G01 X0.2716  Y0.8445  
G01 X0.2455  Y0.8184  
G01 X0.2455  Y0.7816  
G01 X0.2716  Y0.7555  
G01 X0.3084  Y0.7555  
G01 X0.3345  Y0.7816  
G00 Z0.1000  
G00 X0.3345  Y0.6816  
G01 Z-0.0070 F10    
G01 X0.3345  Y0.7184  F20    
G01 X0.3084  Y0.7445  
G01 X0.2716  Y0.7445  
G01 X0.2455  Y0.7184  
G01 X0.2455  Y0.6816  
G01 X0.2716  Y0.6555  
G01 X0.3084  Y0.6555  
G01 X0.3345  Y0.6816  
G00 Z0.1000  
G00 X0.3345  Y0.5816  
G01 Z-0.0070 F10    
G01 X0.3345  Y0.6184  F20    
G01 X0.3084  Y0.6445  
G01 X0.2716  Y0.6445  
G01 X0.2455  Y0.6184  
G01 X0.2455  Y0.5816  
G01 X0.2716  Y0.5555  
G01 X0.3084  Y0.5555  
G01 X0.3345  Y0.5816  
G00 Z0.1000  
G00 X0.3345  Y0.4816  
G01 Z-0.0070 F10    
G01 X0.3345  Y0.5184  F20    
G01 X0.3084  Y0.5445  
G01 X0.2716  Y0.5445  
G01 X0.2455  Y0.5184  
G01 X0.2455  Y0.4816  
G01 X0.2716  Y0.4555  
G01 X0.3084  Y0.4555  
G01 X0.3345  Y0.4816  
G00 Z0.1000  
G00 X0.2345  Y0.9816  
G01 Z-0.0070 F10    
G01 X0.2345  Y1.0184  F20    
G01 X0.2084  Y1.0445  
G01 X0.1716  Y1.0445  
G01 X0.1455  Y1.0184  
G01 X0.1455  Y0.9816  
G01 X0.1716  Y0.9555  
G01 X0.2084  Y0.9555  
G01 X0.2345  Y0.9816  
G00 Z0.1000  
G00 X0.2345  Y0.8816  
G01 Z-0.0070 F10    
G01 X0.2345  Y0.9184  F20    
G01 X0.2084  Y0.9445  
G01 X0.1716  Y0.9445  
G01 X0.1455  Y0.9184  
G01 X0.1455  Y0.8816  
G01 X0.1716  Y0.8555  
G01 X0.2084  Y0.8555  
G01 X0.2345  Y0.8816  
G00 Z0.1000  
G00 X0.2345  Y0.7816  
G01 Z-0.0070 F10    
G01 X0.2345  Y0.8184  F20    
G01 X0.2084  Y0.8445  
G01 X0.1716  Y0.8445  
G01 X0.1455  Y0.8184  
G01 X0.1455  Y0.7816  
G01 X0.1716  Y0.7555  
G01 X0.2084  Y0.7555  
G01 X0.2345  Y0.7816  
G00 Z0.1000  
G00 X0.2345  Y0.6816  
G01 Z-0.0070 F10    
G01 X0.2345  Y0.7184  F20    
G01 X0.2084  Y0.7445  
G01 X0.1716  Y0.7445  
G01 X0.1455  Y0.7184  
G01 X0.1455  Y0.6816  
G01 X0.1716  Y0.6555  
G01 X0.2084  Y0.6555  
G01 X0.2345  Y0.6816  
G00 Z0.1000  
G00 X0.2345  Y0.5816  
G01 Z-0.0070 F10    
G01 X0.2345  Y0.6184  F20    
G01 X0.2084  Y0.6445  
G01 X0.1716  Y0.6445  
G01 X0.1455  Y0.6184  
G01 X0.1455  Y0.5816  
G01 X0.1716  Y0.5555  
G01 X0.2084  Y0.5555  
G01 X0.2345  Y0.5816  
G00 Z0.1000  
G00 X0.2345  Y0.4816  
G01 Z-0.0070 F10    
G01 X0.2345  Y0.5184  F20    
G01 X0.2084  Y0.5445  
G01 X0.1716  Y0.5445  
G01 X0.1455  Y0.5184  
G01 X0.1455  Y0.4816  
G01 X0.1716  Y0.4555  
G01 X0.2084  Y0.4555  
G01 X0.2345  Y0.4816  
G00 Z0.1000  
G00 X0.3345  Y0.3816  
G01 Z-0.0070 F10    
G01 X0.3345  Y0.4184  F20    
G01 X0.3084  Y0.4445  
G01 X0.2716  Y0.4445  
G01 X0.2455  Y0.4184  
G01 X0.2455  Y0.3816  
G01 X0.2716  Y0.3555  
G01 X0.3084  Y0.3555  
G01 X0.3345  Y0.3816  
G00 Z0.1000  
G00 X0.2345  Y0.3816  
G01 Z-0.0070 F10    
G01 X0.2345  Y0.4184  F20    
G01 X0.2084  Y0.4445  
G01 X0.1716  Y0.4445  
G01 X0.1455  Y0.4184  
G01 X0.1455  Y0.3816  
G01 X0.1716  Y0.3555  
G01 X0.2084  Y0.3555  
G01 X0.2345  Y0.3816  
G00 Z0.1000  
G00 X0.8350  Y0.4105  
G01 Z-0.0070 F10    
G01 X0.7650  Y0.4105  F20    
G01 X0.7572  Y0.4089  
G01 X0.7498  Y0.4059  
G01 X0.7432  Y0.4015  
G01 X0.7375  Y0.3958  
G01 X0.7331  Y0.3892  
G01 X0.7301  Y0.3818  
G01 X0.7285  Y0.3740  
G01 X0.7285  Y0.3660  
G01 X0.7301  Y0.3582  
G01 X0.7331  Y0.3508  
G01 X0.7375  Y0.3442  
G01 X0.7432  Y0.3385  
G01 X0.7498  Y0.3341  
G01 X0.7572  Y0.3311  
G01 X0.7650  Y0.3295  
G01 X0.8350  Y0.3295  
G01 X0.8428  Y0.3311  
G01 X0.8502  Y0.3341  
G01 X0.8568  Y0.3385  
G01 X0.8625  Y0.3442  
G01 X0.8669  Y0.3508  
G01 X0.8699  Y0.3582  
G01 X0.8715  Y0.3660  
G01 X0.8715  Y0.3740  
G01 X0.8699  Y0.3818  
G01 X0.8669  Y0.3892  
G01 X0.8625  Y0.3958  
G01 X0.8568  Y0.4015  
G01 X0.8502  Y0.4059  
G01 X0.8428  Y0.4089  
G01 X0.8350  Y0.4105  
G00 Z0.1000  
G00 X1.1350  Y0.3105  
G01 Z-0.0070 F10    
G01 X1.0650  Y0.3105  F20    
G01 X1.0572  Y0.3089  
G01 X1.0498  Y0.3059  
G01 X1.0432  Y0.3015  
G01 X1.0375  Y0.2958  
G01 X1.0331  Y0.2892  
G01 X1.0301  Y0.2818  
G01 X1.0285  Y0.2740  
G01 X1.0285  Y0.2660  
G01 X1.0301  Y0.2582  
G01 X1.0331  Y0.2508  
G01 X1.0375  Y0.2442  
G01 X1.0432  Y0.2385  
G01 X1.0498  Y0.2341  
G01 X1.0572  Y0.2311  
G01 X1.0650  Y0.2295  
G01 X1.1350  Y0.2295  
G01 X1.1428  Y0.2311  
G01 X1.1502  Y0.2341  
G01 X1.1568  Y0.2385  
G01 X1.1625  Y0.2442  
G01 X1.1669  Y0.2508  
G01 X1.1699  Y0.2582  
G01 X1.1715  Y0.2660  
G01 X1.1715  Y0.2740  
G01 X1.1699  Y0.2818  
G01 X1.1669  Y0.2892  
G01 X1.1625  Y0.2958  
G01 X1.1568  Y0.3015  
G01 X1.1502  Y0.3059  
G01 X1.1428  Y0.3089  
G01 X1.1350  Y0.3105  
G00 Z0.1000  
G00 X0.6350  Y0.3105  
G01 Z-0.0070 F10    
G01 X0.5650  Y0.3105  F20    
G01 X0.5572  Y0.3089  
G01 X0.5498  Y0.3059  
G01 X0.5432  Y0.3015  
G01 X0.5375  Y0.2958  
G01 X0.5331  Y0.2892  
G01 X0.5301  Y0.2818  
G01 X0.5285  Y0.2740  
G01 X0.5285  Y0.2660  
G01 X0.5301  Y0.2582  
G01 X0.5331  Y0.2508  
G01 X0.5375  Y0.2442  
G01 X0.5432  Y0.2385  
G01 X0.5498  Y0.2341  
G01 X0.5572  Y0.2311  
G01 X0.5650  Y0.2295  
G01 X0.6350  Y0.2295  
G01 X0.6428  Y0.2311  
G01 X0.6502  Y0.2341  
G01 X0.6568  Y0.2385  
G01 X0.6625  Y0.2442  
G01 X0.6669  Y0.2508  
G01 X0.6699  Y0.2582  
G01 X0.6715  Y0.2660  
G01 X0.6715  Y0.2740  
G01 X0.6699  Y0.2818  
G01 X0.6669  Y0.2892  
G01 X0.6625  Y0.2958  
G01 X0.6568  Y0.3015  
G01 X0.6502  Y0.3059  
G01 X0.6428  Y0.3089  
G01 X0.6350  Y0.3105  
G00 Z0.1000  
G00 X2.1150  Y0.1095  
G01 Z-0.0070 F10    
G01 X2.1850  Y0.1095  F20    
G01 X2.1928  Y0.1111  
G01 X2.2002  Y0.1141  
G01 X2.2068  Y0.1185  
G01 X2.2125  Y0.1242  
G01 X2.2169  Y0.1308  
G01 X2.2199  Y0.1382  
G01 X2.2215  Y0.1460  
G01 X2.2215  Y0.1540  
G01 X2.2199  Y0.1618  
G01 X2.2169  Y0.1692  
G01 X2.2125  Y0.1758  
G01 X2.2068  Y0.1815  
G01 X2.2002  Y0.1859  
G01 X2.1928  Y0.1889  
G01 X2.1850  Y0.1905  
G01 X2.1150  Y0.1905  
G01 X2.1072  Y0.1889  
G01 X2.0998  Y0.1859  
G01 X2.0932  Y0.1815  
G01 X2.0875  Y0.1758  
G01 X2.0831  Y0.1692  
G01 X2.0801  Y0.1618  
G01 X2.0785  Y0.1540  
G01 X2.0785  Y0.1460  
G01 X2.0801  Y0.1382  
G01 X2.0831  Y0.1308  
G01 X2.0875  Y0.1242  
G01 X2.0932  Y0.1185  
G01 X2.0998  Y0.1141  
G01 X2.1072  Y0.1111  
G01 X2.1150  Y0.1095  
G00 Z0.1000  
G00 X2.1150  Y0.2095  
G01 Z-0.0070 F10    
G01 X2.1850  Y0.2095  F20    
G01 X2.1928  Y0.2111  
G01 X2.2002  Y0.2141  
G01 X2.2068  Y0.2185  
G01 X2.2125  Y0.2242  
G01 X2.2169  Y0.2308  
G01 X2.2199  Y0.2382  
G01 X2.2215  Y0.2460  
G01 X2.2215  Y0.2540  
G01 X2.2199  Y0.2618  
G01 X2.2169  Y0.2692  
G01 X2.2125  Y0.2758  
G01 X2.2068  Y0.2815  
G01 X2.2002  Y0.2859  
G01 X2.1928  Y0.2889  
G01 X2.1850  Y0.2905  
G01 X2.1150  Y0.2905  
G01 X2.1072  Y0.2889  
G01 X2.0998  Y0.2859  
G01 X2.0932  Y0.2815  
G01 X2.0875  Y0.2758  
G01 X2.0831  Y0.2692  
G01 X2.0801  Y0.2618  
G01 X2.0785  Y0.2540  
G01 X2.0785  Y0.2460  
G01 X2.0801  Y0.2382  
G01 X2.0831  Y0.2308  
G01 X2.0875  Y0.2242  
G01 X2.0932  Y0.2185  
G01 X2.0998  Y0.2141  
G01 X2.1072  Y0.2111  
G01 X2.1150  Y0.2095  
G00 Z0.1000  
G00 X2.1150  Y0.3095  
G01 Z-0.0070 F10    
G01 X2.1850  Y0.3095  F20    
G01 X2.1928  Y0.3111  
G01 X2.2002  Y0.3141  
G01 X2.2068  Y0.3185  
G01 X2.2125  Y0.3242  
G01 X2.2169  Y0.3308  
G01 X2.2199  Y0.3382  
G01 X2.2215  Y0.3460  
G01 X2.2215  Y0.3540  
G01 X2.2199  Y0.3618  
G01 X2.2169  Y0.3692  
G01 X2.2125  Y0.3758  
G01 X2.2068  Y0.3815  
G01 X2.2002  Y0.3859  
G01 X2.1928  Y0.3889  
G01 X2.1850  Y0.3905  
G01 X2.1150  Y0.3905  
G01 X2.1072  Y0.3889  
G01 X2.0998  Y0.3859  
G01 X2.0932  Y0.3815  
G01 X2.0875  Y0.3758  
G01 X2.0831  Y0.3692  
G01 X2.0801  Y0.3618  
G01 X2.0785  Y0.3540  
G01 X2.0785  Y0.3460  
G01 X2.0801  Y0.3382  
G01 X2.0831  Y0.3308  
G01 X2.0875  Y0.3242  
G01 X2.0932  Y0.3185  
G01 X2.0998  Y0.3141  
G01 X2.1072  Y0.3111  
G01 X2.1150  Y0.3095  
G00 Z0.1000  
G00 X1.8150  Y0.3095  
G01 Z-0.0070 F10    
G01 X1.8850  Y0.3095  F20    
G01 X1.8928  Y0.3111  
G01 X1.9002  Y0.3141  
G01 X1.9068  Y0.3185  
G01 X1.9125  Y0.3242  
G01 X1.9169  Y0.3308  
G01 X1.9199  Y0.3382  
G01 X1.9215  Y0.3460  
G01 X1.9215  Y0.3540  
G01 X1.9199  Y0.3618  
G01 X1.9169  Y0.3692  
G01 X1.9125  Y0.3758  
G01 X1.9068  Y0.3815  
G01 X1.9002  Y0.3859  
G01 X1.8928  Y0.3889  
G01 X1.8850  Y0.3905  
G01 X1.8150  Y0.3905  
G01 X1.8072  Y0.3889  
G01 X1.7998  Y0.3859  
G01 X1.7932  Y0.3815  
G01 X1.7875  Y0.3758  
G01 X1.7831  Y0.3692  
G01 X1.7801  Y0.3618  
G01 X1.7785  Y0.3540  
G01 X1.7785  Y0.3460  
G01 X1.7801  Y0.3382  
G01 X1.7831  Y0.3308  
G01 X1.7875  Y0.3242  
G01 X1.7932  Y0.3185  
G01 X1.7998  Y0.3141  
G01 X1.8072  Y0.3111  
G01 X1.8150  Y0.3095  
G00 Z0.1000  
G00 X1.8150  Y0.2095  
G01 Z-0.0070 F10    
G01 X1.8850  Y0.2095  F20    
G01 X1.8928  Y0.2111  
G01 X1.9002  Y0.2141  
G01 X1.9068  Y0.2185  
G01 X1.9125  Y0.2242  
G01 X1.9169  Y0.2308  
G01 X1.9199  Y0.2382  
G01 X1.9215  Y0.2460  
G01 X1.9215  Y0.2540  
G01 X1.9199  Y0.2618  
G01 X1.9169  Y0.2692  
G01 X1.9125  Y0.2758  
G01 X1.9068  Y0.2815  
G01 X1.9002  Y0.2859  
G01 X1.8928  Y0.2889  
G01 X1.8850  Y0.2905  
G01 X1.8150  Y0.2905  
G01 X1.8072  Y0.2889  
G01 X1.7998  Y0.2859  
G01 X1.7932  Y0.2815  
G01 X1.7875  Y0.2758  
G01 X1.7831  Y0.2692  
G01 X1.7801  Y0.2618  
G01 X1.7785  Y0.2540  
G01 X1.7785  Y0.2460  
G01 X1.7801  Y0.2382  
G01 X1.7831  Y0.2308  
G01 X1.7875  Y0.2242  
G01 X1.7932  Y0.2185  
G01 X1.7998  Y0.2141  
G01 X1.8072  Y0.2111  
G01 X1.8150  Y0.2095  
G00 Z0.1000  
G00 X1.8150  Y0.1095  
G01 Z-0.0070 F10    
G01 X1.8850  Y0.1095  F20    
G01 X1.8928  Y0.1111  
G01 X1.9002  Y0.1141  
G01 X1.9068  Y0.1185  
G01 X1.9125  Y0.1242  
G01 X1.9169  Y0.1308  
G01 X1.9199  Y0.1382  
G01 X1.9215  Y0.1460  
G01 X1.9215  Y0.1540  
G01 X1.9199  Y0.1618  
G01 X1.9169  Y0.1692  
G01 X1.9125  Y0.1758  
G01 X1.9068  Y0.1815  
G01 X1.9002  Y0.1859  
G01 X1.8928  Y0.1889  
G01 X1.8850  Y0.1905  
G01 X1.8150  Y0.1905  
G01 X1.8072  Y0.1889  
G01 X1.7998  Y0.1859  
G01 X1.7932  Y0.1815  
G01 X1.7875  Y0.1758  
G01 X1.7831  Y0.1692  
G01 X1.7801  Y0.1618  
G01 X1.7785  Y0.1540  
G01 X1.7785  Y0.1460  
G01 X1.7801  Y0.1382  
G01 X1.7831  Y0.1308  
G01 X1.7875  Y0.1242  
G01 X1.7932  Y0.1185  
G01 X1.7998  Y0.1141  
G01 X1.8072  Y0.1111  
G01 X1.8150  Y0.1095  
G00 Z0.1000  
G00 X1.8405  Y0.6632  
G01 Z-0.0070 F10    
G01 X1.8405  Y0.6968  F20    
G01 X1.8168  Y0.7205  
G01 X1.7832  Y0.7205  
G01 X1.7595  Y0.6968  
G01 X1.7595  Y0.6632  
G01 X1.7832  Y0.6395  
G01 X1.8168  Y0.6395  
G01 X1.8405  Y0.6632  
G00 Z0.1000  
G00 X1.8405  Y0.4632  
G01 Z-0.0070 F10    
G01 X1.8405  Y0.4968  F20    
G01 X1.8168  Y0.5205  
G01 X1.7832  Y0.5205  
G01 X1.7595  Y0.4968  
G01 X1.7595  Y0.4632  
G01 X1.7832  Y0.4395  
G01 X1.8168  Y0.4395  
G01 X1.8405  Y0.4632  
G00 Z0.1000  
G00 X1.9605  Y0.6632  
G01 Z-0.0070 F10    
G01 X1.9605  Y0.6968  F20    
G01 X1.9368  Y0.7205  
G01 X1.9032  Y0.7205  
G01 X1.8795  Y0.6968  
G01 X1.8795  Y0.6632  
G01 X1.9032  Y0.6395  
G01 X1.9368  Y0.6395  
G01 X1.9605  Y0.6632  
G00 Z0.1000  
G00 X1.9605  Y0.4632  
G01 Z-0.0070 F10    
G01 X1.9605  Y0.4968  F20    
G01 X1.9368  Y0.5205  
G01 X1.9032  Y0.5205  
G01 X1.8795  Y0.4968  
G01 X1.8795  Y0.4632  
G01 X1.9032  Y0.4395  
G01 X1.9368  Y0.4395  
G01 X1.9605  Y0.4632  
G00 Z0.1000  
G00 X2.0805  Y0.6632  
G01 Z-0.0070 F10    
G01 X2.0805  Y0.6968  F20    
G01 X2.0568  Y0.7205  
G01 X2.0232  Y0.7205  
G01 X1.9995  Y0.6968  
G01 X1.9995  Y0.6632  
G01 X2.0232  Y0.6395  
G01 X2.0568  Y0.6395  
G01 X2.0805  Y0.6632  
G00 Z0.1000  
G00 X2.0805  Y0.4632  
G01 Z-0.0070 F10    
G01 X2.0805  Y0.4968  F20    
G01 X2.0568  Y0.5205  
G01 X2.0232  Y0.5205  
G01 X1.9995  Y0.4968  
G01 X1.9995  Y0.4632  
G01 X2.0232  Y0.4395  
G01 X2.0568  Y0.4395  
G01 X2.0805  Y0.4632  
G00 Z0.1000  
G00 X1.3105  Y0.2132  
G01 Z-0.0070 F10    
G01 X1.3105  Y0.2468  F20    
G01 X1.2868  Y0.2705  
G01 X1.2532  Y0.2705  
G01 X1.2295  Y0.2468  
G01 X1.2295  Y0.2132  
G01 X1.2532  Y0.1895  
G01 X1.2868  Y0.1895  
G01 X1.3105  Y0.2132  
G00 Z0.1000  
G00 X1.4105  Y0.2132  
G01 Z-0.0070 F10    
G01 X1.4105  Y0.2468  F20    
G01 X1.3868  Y0.2705  
G01 X1.3532  Y0.2705  
G01 X1.3295  Y0.2468  
G01 X1.3295  Y0.2132  
G01 X1.3532  Y0.1895  
G01 X1.3868  Y0.1895  
G01 X1.4105  Y0.2132  
G00 Z0.1000  
G00 X2.3595  Y1.0054  
G01 Z-0.0070 F10    
G01 X2.3595  Y1.0546  F20    
G01 X2.3246  Y1.0895  
G01 X2.2754  Y1.0895  
G01 X2.2405  Y1.0546  
G01 X2.2405  Y1.0054  
G01 X2.2754  Y0.9705  
G01 X2.3246  Y0.9705  
G01 X2.3595  Y1.0054  
G00 Z0.1000  
G00 X2.0595  Y1.0054  
G01 Z-0.0070 F10    
G01 X2.0595  Y1.0546  F20    
G01 X2.0246  Y1.0895  
G01 X1.9754  Y1.0895  
G01 X1.9405  Y1.0546  
G01 X1.9405  Y1.0054  
G01 X1.9754  Y0.9705  
G01 X2.0246  Y0.9705  
G01 X2.0595  Y1.0054  
G00 Z0.1000  
G00 X0.5505  Y0.9832  
G01 Z-0.0070 F10    
G01 X0.5505  Y1.0168  F20    
G01 X0.5268  Y1.0405  
G01 X0.4932  Y1.0405  
G01 X0.4695  Y1.0168  
G01 X0.4695  Y0.9832  
G01 X0.4932  Y0.9595  
G01 X0.5268  Y0.9595  
G01 X0.5505  Y0.9832  
G00 Z0.1000  
G00 X0.4505  Y0.9832  
G01 Z-0.0070 F10    
G01 X0.4505  Y1.0168  F20    
G01 X0.4268  Y1.0405  
G01 X0.3932  Y1.0405  
G01 X0.3695  Y1.0168  
G01 X0.3695  Y0.9832  
G01 X0.3932  Y0.9595  
G01 X0.4268  Y0.9595  
G01 X0.4505  Y0.9832  
G00 Z0.1000  
G00 X1.4305  Y1.1532  
G01 Z-0.0070 F10    
G01 X1.4305  Y1.1868  F20    
G01 X1.4068  Y1.2105  
G01 X1.3732  Y1.2105  
G01 X1.3495  Y1.1868  
G01 X1.3495  Y1.1532  
G01 X1.3732  Y1.1295  
G01 X1.4068  Y1.1295  
G01 X1.4305  Y1.1532  
G00 Z0.1000  
G00 X1.5305  Y1.1532  
G01 Z-0.0070 F10    
G01 X1.5305  Y1.1868  F20    
G01 X1.5068  Y1.2105  
G01 X1.4732  Y1.2105  
G01 X1.4495  Y1.1868  
G01 X1.4495  Y1.1532  
G01 X1.4732  Y1.1295  
G01 X1.5068  Y1.1295  
G01 X1.5305  Y1.1532  
G00 Z0.1000  
G00 X1.1749  Y1.2075  
G01 Z-0.0070 F10    
G01 X1.1700  Y1.2142  F20    
G01 X1.1642  Y1.2200  
G01 X1.1575  Y1.2249  
G01 X1.1502  Y1.2287  
G01 X1.1423  Y1.2312  
G01 X1.1341  Y1.2325  
G01 X1.1259  Y1.2325  
G01 X1.1177  Y1.2312  
G01 X1.1098  Y1.2287  
G01 X1.1025  Y1.2249  
G01 X1.0958  Y1.2200  
G01 X1.0900  Y1.2142  
G01 X1.0851  Y1.2075  
G01 X1.0813  Y1.2002  
G01 X1.0788  Y1.1923  
G01 X1.0775  Y1.1841  
G01 X1.0775  Y1.1759  
G01 X1.0788  Y1.1677  
G01 X1.0813  Y1.1598  
G01 X1.0851  Y1.1525  
G01 X1.0900  Y1.1458  
G01 X1.0958  Y1.1400  
G01 X1.1025  Y1.1351  
G01 X1.1098  Y1.1313  
G01 X1.1177  Y1.1288  
G01 X1.1259  Y1.1275  
G01 X1.1341  Y1.1275  
G01 X1.1423  Y1.1288  
G01 X1.1502  Y1.1313  
G01 X1.1575  Y1.1351  
G01 X1.1642  Y1.1400  
G01 X1.1700  Y1.1458  
G01 X1.1749  Y1.1525  
G01 X1.1777  Y1.1580  
G01 X1.2083  Y1.1275  
G01 X1.2517  Y1.1275  
G01 X1.2825  Y1.1583  
G01 X1.2825  Y1.2017  
G01 X1.2517  Y1.2325  
G01 X1.2083  Y1.2325  
G01 X1.1777  Y1.2020  
G01 X1.1749  Y1.2075  
G00 Z0.1000  
G00 X1.8075  Y1.2155  
G01 Z-0.0070 F10    
G01 X1.8075  Y1.2245  F20    
G01 X1.8061  Y1.2335  
G01 X1.8033  Y1.2421  
G01 X1.7992  Y1.2501  
G01 X1.7939  Y1.2575  
G01 X1.7875  Y1.2639  
G01 X1.7801  Y1.2692  
G01 X1.7721  Y1.2733  
G01 X1.7635  Y1.2761  
G01 X1.7545  Y1.2775  
G01 X1.7455  Y1.2775  
G01 X1.7365  Y1.2761  
G01 X1.7279  Y1.2733  
G01 X1.7199  Y1.2692  
G01 X1.7125  Y1.2639  
G01 X1.7061  Y1.2575  
G01 X1.7008  Y1.2501  
G01 X1.6967  Y1.2421  
G01 X1.6939  Y1.2335  
G01 X1.6925  Y1.2245  
G01 X1.6925  Y1.2155  
G01 X1.6939  Y1.2065  
G01 X1.6967  Y1.1979  
G01 X1.7008  Y1.1899  
G01 X1.7061  Y1.1825  
G01 X1.7125  Y1.1761  
G01 X1.7197  Y1.1710  
G01 X1.6925  Y1.1438  
G01 X1.6925  Y1.0962  
G01 X1.7262  Y1.0625  
G01 X1.7738  Y1.0625  
G01 X1.8075  Y1.0962  
G01 X1.8075  Y1.1438  
G01 X1.7803  Y1.1710  
G01 X1.7875  Y1.1761  
G01 X1.7939  Y1.1825  
G01 X1.7992  Y1.1899  
G01 X1.8033  Y1.1979  
G01 X1.8061  Y1.2065  
G01 X1.8075  Y1.2155  
G00 Z0.1000  
G00 X0.8410  Y0.6948  
G01 Z-0.0070 F10    
G01 X0.8368  Y0.7006  F20    
G01 X0.8318  Y0.7057  
G01 X0.8260  Y0.7099  
G01 X0.8196  Y0.7131  
G01 X0.8128  Y0.7153  
G01 X0.8057  Y0.7164  
G01 X0.7985  Y0.7164  
G01 X0.7915  Y0.7153  
G01 X0.7847  Y0.7131  
G01 X0.7783  Y0.7099  
G01 X0.7725  Y0.7057  
G01 X0.7674  Y0.7006  
G01 X0.7632  Y0.6948  
G01 X0.7628  Y0.6939  
G01 X0.7623  Y0.6948  
G01 X0.7581  Y0.7006  
G01 X0.7530  Y0.7057  
G01 X0.7472  Y0.7099  
G01 X0.7409  Y0.7131  
G01 X0.7340  Y0.7153  
G01 X0.7270  Y0.7164  
G01 X0.7198  Y0.7164  
G01 X0.7127  Y0.7153  
G01 X0.7059  Y0.7131  
G01 X0.6995  Y0.7099  
G01 X0.6937  Y0.7057  
G01 X0.6887  Y0.7006  
G01 X0.6845  Y0.6948  
G01 X0.6812  Y0.6884  
G01 X0.6790  Y0.6816  
G01 X0.6779  Y0.6745  
G01 X0.6779  Y0.6054  
G01 X0.6790  Y0.5983  
G01 X0.6812  Y0.5915  
G01 X0.6845  Y0.5851  
G01 X0.6887  Y0.5793  
G01 X0.6937  Y0.5742  
G01 X0.6995  Y0.5700  
G01 X0.7059  Y0.5668  
G01 X0.7127  Y0.5646  
G01 X0.7198  Y0.5634  
G01 X0.7270  Y0.5634  
G01 X0.7340  Y0.5646  
G01 X0.7409  Y0.5668  
G01 X0.7472  Y0.5700  
G01 X0.7530  Y0.5742  
G01 X0.7581  Y0.5793  
G01 X0.7623  Y0.5851  
G01 X0.7628  Y0.5860  
G01 X0.7632  Y0.5851  
G01 X0.7674  Y0.5793  
G01 X0.7725  Y0.5742  
G01 X0.7783  Y0.5700  
G01 X0.7847  Y0.5668  
G01 X0.7915  Y0.5646  
G01 X0.7985  Y0.5634  
G01 X0.8057  Y0.5634  
G01 X0.8128  Y0.5646  
G01 X0.8196  Y0.5668  
G01 X0.8260  Y0.5700  
G01 X0.8318  Y0.5742  
G01 X0.8368  Y0.5793  
G01 X0.8410  Y0.5851  
G01 X0.8415  Y0.5860  
G01 X0.8420  Y0.5851  
G01 X0.8462  Y0.5793  
G01 X0.8512  Y0.5742  
G01 X0.8570  Y0.5700  
G01 X0.8634  Y0.5668  
G01 X0.8702  Y0.5646  
G01 X0.8773  Y0.5634  
G01 X0.8844  Y0.5634  
G01 X0.8915  Y0.5646  
G01 X0.8983  Y0.5668  
G01 X0.9047  Y0.5700  
G01 X0.9105  Y0.5742  
G01 X0.9156  Y0.5793  
G01 X0.9198  Y0.5851  
G01 X0.9230  Y0.5915  
G01 X0.9252  Y0.5983  
G01 X0.9264  Y0.6054  
G01 X0.9264  Y0.6745  
G01 X0.9252  Y0.6816  
G01 X0.9230  Y0.6884  
G01 X0.9198  Y0.6948  
G01 X0.9156  Y0.7006  
G01 X0.9105  Y0.7057  
G01 X0.9047  Y0.7099  
G01 X0.8983  Y0.7131  
G01 X0.8915  Y0.7153  
G01 X0.8844  Y0.7164  
G01 X0.8773  Y0.7164  
G01 X0.8702  Y0.7153  
G01 X0.8634  Y0.7131  
G01 X0.8570  Y0.7099  
G01 X0.8512  Y0.7057  
G01 X0.8462  Y0.7006  
G01 X0.8420  Y0.6948  
G01 X0.8415  Y0.6939  
G01 X0.8410  Y0.6948  
G00 Z0.1000  
G00 X0.8026  Y0.7652  
G01 Z-0.0070 F10    
G01 X0.8068  Y0.7594  F20    
G01 X0.8119  Y0.7543  
G01 X0.8176  Y0.7501  
G01 X0.8240  Y0.7469  
G01 X0.8308  Y0.7447  
G01 X0.8379  Y0.7436  
G01 X0.8451  Y0.7436  
G01 X0.8522  Y0.7447  
G01 X0.8590  Y0.7469  
G01 X0.8653  Y0.7501  
G01 X0.8711  Y0.7543  
G01 X0.8762  Y0.7594  
G01 X0.8804  Y0.7652  
G01 X0.8809  Y0.7661  
G01 X0.8813  Y0.7652  
G01 X0.8855  Y0.7594  
G01 X0.8906  Y0.7543  
G01 X0.8964  Y0.7501  
G01 X0.9028  Y0.7469  
G01 X0.9096  Y0.7447  
G01 X0.9167  Y0.7436  
G01 X0.9238  Y0.7436  
G01 X0.9309  Y0.7447  
G01 X0.9377  Y0.7469  
G01 X0.9441  Y0.7501  
G01 X0.9499  Y0.7543  
G01 X0.9549  Y0.7594  
G01 X0.9592  Y0.7652  
G01 X0.9624  Y0.7716  
G01 X0.9646  Y0.7784  
G01 X0.9657  Y0.7855  
G01 X0.9657  Y0.8546  
G01 X0.9646  Y0.8617  
G01 X0.9624  Y0.8685  
G01 X0.9592  Y0.8749  
G01 X0.9549  Y0.8807  
G01 X0.9499  Y0.8858  
G01 X0.9441  Y0.8900  
G01 X0.9377  Y0.8932  
G01 X0.9309  Y0.8954  
G01 X0.9238  Y0.8966  
G01 X0.9167  Y0.8966  
G01 X0.9096  Y0.8954  
G01 X0.9028  Y0.8932  
G01 X0.8964  Y0.8900  
G01 X0.8906  Y0.8858  
G01 X0.8855  Y0.8807  
G01 X0.8813  Y0.8749  
G01 X0.8809  Y0.8740  
G01 X0.8804  Y0.8749  
G01 X0.8762  Y0.8807  
G01 X0.8711  Y0.8858  
G01 X0.8653  Y0.8900  
G01 X0.8590  Y0.8932  
G01 X0.8522  Y0.8954  
G01 X0.8451  Y0.8966  
G01 X0.8379  Y0.8966  
G01 X0.8308  Y0.8954  
G01 X0.8240  Y0.8932  
G01 X0.8176  Y0.8900  
G01 X0.8119  Y0.8858  
G01 X0.8068  Y0.8807  
G01 X0.8026  Y0.8749  
G01 X0.8021  Y0.8740  
G01 X0.8017  Y0.8749  
G01 X0.7975  Y0.8807  
G01 X0.7924  Y0.8858  
G01 X0.7866  Y0.8900  
G01 X0.7802  Y0.8932  
G01 X0.7734  Y0.8954  
G01 X0.7663  Y0.8966  
G01 X0.7592  Y0.8966  
G01 X0.7521  Y0.8954  
G01 X0.7453  Y0.8932  
G01 X0.7389  Y0.8900  
G01 X0.7331  Y0.8858  
G01 X0.7281  Y0.8807  
G01 X0.7238  Y0.8749  
G01 X0.7206  Y0.8685  
G01 X0.7184  Y0.8617  
G01 X0.7173  Y0.8546  
G01 X0.7173  Y0.7855  
G01 X0.7184  Y0.7784  
G01 X0.7206  Y0.7716  
G01 X0.7238  Y0.7652  
G01 X0.7281  Y0.7594  
G01 X0.7331  Y0.7543  
G01 X0.7389  Y0.7501  
G01 X0.7453  Y0.7469  
G01 X0.7521  Y0.7447  
G01 X0.7592  Y0.7436  
G01 X0.7663  Y0.7436  
G01 X0.7734  Y0.7447  
G01 X0.7802  Y0.7469  
G01 X0.7866  Y0.7501  
G01 X0.7924  Y0.7543  
G01 X0.7975  Y0.7594  
G01 X0.8017  Y0.7652  
G01 X0.8021  Y0.7661  
G01 X0.8026  Y0.7652  
G00 Z0.1000  
G00 X1.5354  Y0.2945  
G01 Z-0.0070 F10    
G01 X1.6046  Y0.2945  F20    
G01 X1.6117  Y0.2956  
G01 X1.6185  Y0.2978  
G01 X1.6248  Y0.3011  
G01 X1.6306  Y0.3053  
G01 X1.6357  Y0.3104  
G01 X1.6399  Y0.3162  
G01 X1.6432  Y0.3225  
G01 X1.6454  Y0.3293  
G01 X1.6465  Y0.3364  
G01 X1.6465  Y0.3436  
G01 X1.6454  Y0.3507  
G01 X1.6432  Y0.3575  
G01 X1.6399  Y0.3638  
G01 X1.6357  Y0.3696  
G01 X1.6306  Y0.3747  
G01 X1.6248  Y0.3789  
G01 X1.6185  Y0.3822  
G01 X1.6117  Y0.3844  
G01 X1.6046  Y0.3855  
G01 X1.5354  Y0.3855  
G01 X1.5283  Y0.3844  
G01 X1.5215  Y0.3822  
G01 X1.5152  Y0.3789  
G01 X1.5094  Y0.3747  
G01 X1.5043  Y0.3696  
G01 X1.5001  Y0.3638  
G01 X1.4968  Y0.3575  
G01 X1.4946  Y0.3507  
G01 X1.4935  Y0.3436  
G01 X1.4935  Y0.3364  
G01 X1.4946  Y0.3293  
G01 X1.4968  Y0.3225  
G01 X1.5001  Y0.3162  
G01 X1.5043  Y0.3104  
G01 X1.5094  Y0.3053  
G01 X1.5152  Y0.3011  
G01 X1.5215  Y0.2978  
G01 X1.5283  Y0.2956  
G01 X1.5354  Y0.2945  
G00 Z0.1000  
G00 X1.5354  Y0.3945  
G01 Z-0.0070 F10    
G01 X1.6046  Y0.3945  F20    
G01 X1.6117  Y0.3956  
G01 X1.6185  Y0.3978  
G01 X1.6248  Y0.4011  
G01 X1.6306  Y0.4053  
G01 X1.6357  Y0.4104  
G01 X1.6399  Y0.4162  
G01 X1.6432  Y0.4225  
G01 X1.6454  Y0.4293  
G01 X1.6465  Y0.4364  
G01 X1.6465  Y0.4436  
G01 X1.6454  Y0.4507  
G01 X1.6432  Y0.4575  
G01 X1.6399  Y0.4638  
G01 X1.6357  Y0.4696  
G01 X1.6306  Y0.4747  
G01 X1.6248  Y0.4789  
G01 X1.6185  Y0.4822  
G01 X1.6117  Y0.4844  
G01 X1.6046  Y0.4855  
G01 X1.5354  Y0.4855  
G01 X1.5283  Y0.4844  
G01 X1.5215  Y0.4822  
G01 X1.5152  Y0.4789  
G01 X1.5094  Y0.4747  
G01 X1.5043  Y0.4696  
G01 X1.5001  Y0.4638  
G01 X1.4968  Y0.4575  
G01 X1.4946  Y0.4507  
G01 X1.4935  Y0.4436  
G01 X1.4935  Y0.4364  
G01 X1.4946  Y0.4293  
G01 X1.4968  Y0.4225  
G01 X1.5001  Y0.4162  
G01 X1.5043  Y0.4104  
G01 X1.5094  Y0.4053  
G01 X1.5152  Y0.4011  
G01 X1.5215  Y0.3978  
G01 X1.5283  Y0.3956  
G01 X1.5354  Y0.3945  
G00 Z0.1000  
G00 X1.5354  Y0.4945  
G01 Z-0.0070 F10    
G01 X1.6046  Y0.4945  F20    
G01 X1.6117  Y0.4956  
G01 X1.6185  Y0.4978  
G01 X1.6248  Y0.5011  
G01 X1.6306  Y0.5053  
G01 X1.6357  Y0.5104  
G01 X1.6399  Y0.5162  
G01 X1.6432  Y0.5225  
G01 X1.6454  Y0.5293  
G01 X1.6465  Y0.5364  
G01 X1.6465  Y0.5436  
G01 X1.6454  Y0.5507  
G01 X1.6432  Y0.5575  
G01 X1.6399  Y0.5638  
G01 X1.6357  Y0.5696  
G01 X1.6306  Y0.5747  
G01 X1.6248  Y0.5789  
G01 X1.6185  Y0.5822  
G01 X1.6117  Y0.5844  
G01 X1.6046  Y0.5855  
G01 X1.5354  Y0.5855  
G01 X1.5283  Y0.5844  
G01 X1.5215  Y0.5822  
G01 X1.5152  Y0.5789  
G01 X1.5094  Y0.5747  
G01 X1.5043  Y0.5696  
G01 X1.5001  Y0.5638  
G01 X1.4968  Y0.5575  
G01 X1.4946  Y0.5507  
G01 X1.4935  Y0.5436  
G01 X1.4935  Y0.5364  
G01 X1.4946  Y0.5293  
G01 X1.4968  Y0.5225  
G01 X1.5001  Y0.5162  
G01 X1.5043  Y0.5104  
G01 X1.5094  Y0.5053  
G01 X1.5152  Y0.5011  
G01 X1.5215  Y0.4978  
G01 X1.5283  Y0.4956  
G01 X1.5354  Y0.4945  
G00 Z0.1000  
G00 X1.5354  Y0.5945  
G01 Z-0.0070 F10    
G01 X1.6046  Y0.5945  F20    
G01 X1.6117  Y0.5956  
G01 X1.6185  Y0.5978  
G01 X1.6248  Y0.6011  
G01 X1.6306  Y0.6053  
G01 X1.6357  Y0.6104  
G01 X1.6399  Y0.6162  
G01 X1.6432  Y0.6225  
G01 X1.6454  Y0.6293  
G01 X1.6465  Y0.6364  
G01 X1.6465  Y0.6436  
G01 X1.6454  Y0.6507  
G01 X1.6432  Y0.6575  
G01 X1.6399  Y0.6638  
G01 X1.6357  Y0.6696  
G01 X1.6306  Y0.6747  
G01 X1.6248  Y0.6789  
G01 X1.6185  Y0.6822  
G01 X1.6117  Y0.6844  
G01 X1.6046  Y0.6855  
G01 X1.5354  Y0.6855  
G01 X1.5283  Y0.6844  
G01 X1.5215  Y0.6822  
G01 X1.5152  Y0.6789  
G01 X1.5094  Y0.6747  
G01 X1.5043  Y0.6696  
G01 X1.5001  Y0.6638  
G01 X1.4968  Y0.6575  
G01 X1.4946  Y0.6507  
G01 X1.4935  Y0.6436  
G01 X1.4935  Y0.6364  
G01 X1.4946  Y0.6293  
G01 X1.4968  Y0.6225  
G01 X1.5001  Y0.6162  
G01 X1.5043  Y0.6104  
G01 X1.5094  Y0.6053  
G01 X1.5152  Y0.6011  
G01 X1.5215  Y0.5978  
G01 X1.5283  Y0.5956  
G01 X1.5354  Y0.5945  
G00 Z0.1000  
G00 X1.5354  Y0.6945  
G01 Z-0.0070 F10    
G01 X1.6046  Y0.6945  F20    
G01 X1.6117  Y0.6956  
G01 X1.6185  Y0.6978  
G01 X1.6248  Y0.7011  
G01 X1.6306  Y0.7053  
G01 X1.6357  Y0.7104  
G01 X1.6399  Y0.7162  
G01 X1.6432  Y0.7225  
G01 X1.6454  Y0.7293  
G01 X1.6465  Y0.7364  
G01 X1.6465  Y0.7436  
G01 X1.6454  Y0.7507  
G01 X1.6432  Y0.7575  
G01 X1.6399  Y0.7638  
G01 X1.6357  Y0.7696  
G01 X1.6306  Y0.7747  
G01 X1.6248  Y0.7789  
G01 X1.6185  Y0.7822  
G01 X1.6117  Y0.7844  
G01 X1.6046  Y0.7855  
G01 X1.5354  Y0.7855  
G01 X1.5283  Y0.7844  
G01 X1.5215  Y0.7822  
G01 X1.5152  Y0.7789  
G01 X1.5094  Y0.7747  
G01 X1.5043  Y0.7696  
G01 X1.5001  Y0.7638  
G01 X1.4968  Y0.7575  
G01 X1.4946  Y0.7507  
G01 X1.4935  Y0.7436  
G01 X1.4935  Y0.7364  
G01 X1.4946  Y0.7293  
G01 X1.4968  Y0.7225  
G01 X1.5001  Y0.7162  
G01 X1.5043  Y0.7104  
G01 X1.5094  Y0.7053  
G01 X1.5152  Y0.7011  
G01 X1.5215  Y0.6978  
G01 X1.5283  Y0.6956  
G01 X1.5354  Y0.6945  
G00 Z0.1000  
G00 X1.5354  Y0.7945  
G01 Z-0.0070 F10    
G01 X1.6046  Y0.7945  F20    
G01 X1.6117  Y0.7956  
G01 X1.6185  Y0.7978  
G01 X1.6248  Y0.8011  
G01 X1.6306  Y0.8053  
G01 X1.6357  Y0.8104  
G01 X1.6399  Y0.8162  
G01 X1.6432  Y0.8225  
G01 X1.6454  Y0.8293  
G01 X1.6465  Y0.8364  
G01 X1.6465  Y0.8436  
G01 X1.6454  Y0.8507  
G01 X1.6432  Y0.8575  
G01 X1.6399  Y0.8638  
G01 X1.6357  Y0.8696  
G01 X1.6306  Y0.8747  
G01 X1.6248  Y0.8789  
G01 X1.6185  Y0.8822  
G01 X1.6117  Y0.8844  
G01 X1.6046  Y0.8855  
G01 X1.5354  Y0.8855  
G01 X1.5283  Y0.8844  
G01 X1.5215  Y0.8822  
G01 X1.5152  Y0.8789  
G01 X1.5094  Y0.8747  
G01 X1.5043  Y0.8696  
G01 X1.5001  Y0.8638  
G01 X1.4968  Y0.8575  
G01 X1.4946  Y0.8507  
G01 X1.4935  Y0.8436  
G01 X1.4935  Y0.8364  
G01 X1.4946  Y0.8293  
G01 X1.4968  Y0.8225  
G01 X1.5001  Y0.8162  
G01 X1.5043  Y0.8104  
G01 X1.5094  Y0.8053  
G01 X1.5152  Y0.8011  
G01 X1.5215  Y0.7978  
G01 X1.5283  Y0.7956  
G01 X1.5354  Y0.7945  
G00 Z0.1000  
G00 X1.5354  Y0.8945  
G01 Z-0.0070 F10    
G01 X1.6046  Y0.8945  F20    
G01 X1.6117  Y0.8956  
G01 X1.6185  Y0.8978  
G01 X1.6248  Y0.9011  
G01 X1.6306  Y0.9053  
G01 X1.6357  Y0.9104  
G01 X1.6399  Y0.9162  
G01 X1.6432  Y0.9225  
G01 X1.6454  Y0.9293  
G01 X1.6465  Y0.9364  
G01 X1.6465  Y0.9436  
G01 X1.6454  Y0.9507  
G01 X1.6432  Y0.9575  
G01 X1.6399  Y0.9638  
G01 X1.6357  Y0.9696  
G01 X1.6306  Y0.9747  
G01 X1.6248  Y0.9789  
G01 X1.6185  Y0.9822  
G01 X1.6117  Y0.9844  
G01 X1.6046  Y0.9855  
G01 X1.5354  Y0.9855  
G01 X1.5283  Y0.9844  
G01 X1.5215  Y0.9822  
G01 X1.5152  Y0.9789  
G01 X1.5094  Y0.9747  
G01 X1.5043  Y0.9696  
G01 X1.5001  Y0.9638  
G01 X1.4968  Y0.9575  
G01 X1.4946  Y0.9507  
G01 X1.4935  Y0.9436  
G01 X1.4935  Y0.9364  
G01 X1.4946  Y0.9293  
G01 X1.4968  Y0.9225  
G01 X1.5001  Y0.9162  
G01 X1.5043  Y0.9104  
G01 X1.5094  Y0.9053  
G01 X1.5152  Y0.9011  
G01 X1.5215  Y0.8978  
G01 X1.5283  Y0.8956  
G01 X1.5354  Y0.8945  
G00 Z0.1000  
G00 X1.5354  Y0.9945  
G01 Z-0.0070 F10    
G01 X1.6046  Y0.9945  F20    
G01 X1.6117  Y0.9956  
G01 X1.6185  Y0.9978  
G01 X1.6248  Y1.0011  
G01 X1.6306  Y1.0053  
G01 X1.6357  Y1.0104  
G01 X1.6399  Y1.0162  
G01 X1.6432  Y1.0225  
G01 X1.6454  Y1.0293  
G01 X1.6465  Y1.0364  
G01 X1.6465  Y1.0436  
G01 X1.6454  Y1.0507  
G01 X1.6432  Y1.0575  
G01 X1.6399  Y1.0638  
G01 X1.6357  Y1.0696  
G01 X1.6306  Y1.0747  
G01 X1.6248  Y1.0789  
G01 X1.6185  Y1.0822  
G01 X1.6117  Y1.0844  
G01 X1.6046  Y1.0855  
G01 X1.5354  Y1.0855  
G01 X1.5283  Y1.0844  
G01 X1.5215  Y1.0822  
G01 X1.5152  Y1.0789  
G01 X1.5094  Y1.0747  
G01 X1.5043  Y1.0696  
G01 X1.5001  Y1.0638  
G01 X1.4968  Y1.0575  
G01 X1.4946  Y1.0507  
G01 X1.4935  Y1.0436  
G01 X1.4935  Y1.0364  
G01 X1.4946  Y1.0293  
G01 X1.4968  Y1.0225  
G01 X1.5001  Y1.0162  
G01 X1.5043  Y1.0104  
G01 X1.5094  Y1.0053  
G01 X1.5152  Y1.0011  
G01 X1.5215  Y0.9978  
G01 X1.5283  Y0.9956  
G01 X1.5354  Y0.9945  
G00 Z0.1000  
G00 X1.2354  Y0.9945  
G01 Z-0.0070 F10    
G01 X1.3046  Y0.9945  F20    
G01 X1.3117  Y0.9956  
G01 X1.3185  Y0.9978  
G01 X1.3248  Y1.0011  
G01 X1.3306  Y1.0053  
G01 X1.3357  Y1.0104  
G01 X1.3399  Y1.0162  
G01 X1.3432  Y1.0225  
G01 X1.3454  Y1.0293  
G01 X1.3465  Y1.0364  
G01 X1.3465  Y1.0436  
G01 X1.3454  Y1.0507  
G01 X1.3432  Y1.0575  
G01 X1.3399  Y1.0638  
G01 X1.3357  Y1.0696  
G01 X1.3306  Y1.0747  
G01 X1.3248  Y1.0789  
G01 X1.3185  Y1.0822  
G01 X1.3117  Y1.0844  
G01 X1.3046  Y1.0855  
G01 X1.2354  Y1.0855  
G01 X1.2283  Y1.0844  
G01 X1.2215  Y1.0822  
G01 X1.2152  Y1.0789  
G01 X1.2094  Y1.0747  
G01 X1.2043  Y1.0696  
G01 X1.2001  Y1.0638  
G01 X1.1968  Y1.0575  
G01 X1.1946  Y1.0507  
G01 X1.1935  Y1.0436  
G01 X1.1935  Y1.0364  
G01 X1.1946  Y1.0293  
G01 X1.1968  Y1.0225  
G01 X1.2001  Y1.0162  
G01 X1.2043  Y1.0104  
G01 X1.2094  Y1.0053  
G01 X1.2152  Y1.0011  
G01 X1.2215  Y0.9978  
G01 X1.2283  Y0.9956  
G01 X1.2354  Y0.9945  
G00 Z0.1000  
G00 X1.2354  Y0.8945  
G01 Z-0.0070 F10    
G01 X1.3046  Y0.8945  F20    
G01 X1.3117  Y0.8956  
G01 X1.3185  Y0.8978  
G01 X1.3248  Y0.9011  
G01 X1.3306  Y0.9053  
G01 X1.3357  Y0.9104  
G01 X1.3399  Y0.9162  
G01 X1.3432  Y0.9225  
G01 X1.3454  Y0.9293  
G01 X1.3465  Y0.9364  
G01 X1.3465  Y0.9436  
G01 X1.3454  Y0.9507  
G01 X1.3432  Y0.9575  
G01 X1.3399  Y0.9638  
G01 X1.3357  Y0.9696  
G01 X1.3306  Y0.9747  
G01 X1.3248  Y0.9789  
G01 X1.3185  Y0.9822  
G01 X1.3117  Y0.9844  
G01 X1.3046  Y0.9855  
G01 X1.2354  Y0.9855  
G01 X1.2283  Y0.9844  
G01 X1.2215  Y0.9822  
G01 X1.2152  Y0.9789  
G01 X1.2094  Y0.9747  
G01 X1.2043  Y0.9696  
G01 X1.2001  Y0.9638  
G01 X1.1968  Y0.9575  
G01 X1.1946  Y0.9507  
G01 X1.1935  Y0.9436  
G01 X1.1935  Y0.9364  
G01 X1.1946  Y0.9293  
G01 X1.1968  Y0.9225  
G01 X1.2001  Y0.9162  
G01 X1.2043  Y0.9104  
G01 X1.2094  Y0.9053  
G01 X1.2152  Y0.9011  
G01 X1.2215  Y0.8978  
G01 X1.2283  Y0.8956  
G01 X1.2354  Y0.8945  
G00 Z0.1000  
G00 X1.2354  Y0.7945  
G01 Z-0.0070 F10    
G01 X1.3046  Y0.7945  F20    
G01 X1.3117  Y0.7956  
G01 X1.3185  Y0.7978  
G01 X1.3248  Y0.8011  
G01 X1.3306  Y0.8053  
G01 X1.3357  Y0.8104  
G01 X1.3399  Y0.8162  
G01 X1.3432  Y0.8225  
G01 X1.3454  Y0.8293  
G01 X1.3465  Y0.8364  
G01 X1.3465  Y0.8436  
G01 X1.3454  Y0.8507  
G01 X1.3432  Y0.8575  
G01 X1.3399  Y0.8638  
G01 X1.3357  Y0.8696  
G01 X1.3306  Y0.8747  
G01 X1.3248  Y0.8789  
G01 X1.3185  Y0.8822  
G01 X1.3117  Y0.8844  
G01 X1.3046  Y0.8855  
G01 X1.2354  Y0.8855  
G01 X1.2283  Y0.8844  
G01 X1.2215  Y0.8822  
G01 X1.2152  Y0.8789  
G01 X1.2094  Y0.8747  
G01 X1.2043  Y0.8696  
G01 X1.2001  Y0.8638  
G01 X1.1968  Y0.8575  
G01 X1.1946  Y0.8507  
G01 X1.1935  Y0.8436  
G01 X1.1935  Y0.8364  
G01 X1.1946  Y0.8293  
G01 X1.1968  Y0.8225  
G01 X1.2001  Y0.8162  
G01 X1.2043  Y0.8104  
G01 X1.2094  Y0.8053  
G01 X1.2152  Y0.8011  
G01 X1.2215  Y0.7978  
G01 X1.2283  Y0.7956  
G01 X1.2354  Y0.7945  
G00 Z0.1000  
G00 X1.2354  Y0.6945  
G01 Z-0.0070 F10    
G01 X1.3046  Y0.6945  F20    
G01 X1.3117  Y0.6956  
G01 X1.3185  Y0.6978  
G01 X1.3248  Y0.7011  
G01 X1.3306  Y0.7053  
G01 X1.3357  Y0.7104  
G01 X1.3399  Y0.7162  
G01 X1.3432  Y0.7225  
G01 X1.3454  Y0.7293  
G01 X1.3465  Y0.7364  
G01 X1.3465  Y0.7436  
G01 X1.3454  Y0.7507  
G01 X1.3432  Y0.7575  
G01 X1.3399  Y0.7638  
G01 X1.3357  Y0.7696  
G01 X1.3306  Y0.7747  
G01 X1.3248  Y0.7789  
G01 X1.3185  Y0.7822  
G01 X1.3117  Y0.7844  
G01 X1.3046  Y0.7855  
G01 X1.2354  Y0.7855  
G01 X1.2283  Y0.7844  
G01 X1.2215  Y0.7822  
G01 X1.2152  Y0.7789  
G01 X1.2094  Y0.7747  
G01 X1.2043  Y0.7696  
G01 X1.2001  Y0.7638  
G01 X1.1968  Y0.7575  
G01 X1.1946  Y0.7507  
G01 X1.1935  Y0.7436  
G01 X1.1935  Y0.7364  
G01 X1.1946  Y0.7293  
G01 X1.1968  Y0.7225  
G01 X1.2001  Y0.7162  
G01 X1.2043  Y0.7104  
G01 X1.2094  Y0.7053  
G01 X1.2152  Y0.7011  
G01 X1.2215  Y0.6978  
G01 X1.2283  Y0.6956  
G01 X1.2354  Y0.6945  
G00 Z0.1000  
G00 X1.2354  Y0.5945  
G01 Z-0.0070 F10    
G01 X1.3046  Y0.5945  F20    
G01 X1.3117  Y0.5956  
G01 X1.3185  Y0.5978  
G01 X1.3248  Y0.6011  
G01 X1.3306  Y0.6053  
G01 X1.3357  Y0.6104  
G01 X1.3399  Y0.6162  
G01 X1.3432  Y0.6225  
G01 X1.3454  Y0.6293  
G01 X1.3465  Y0.6364  
G01 X1.3465  Y0.6436  
G01 X1.3454  Y0.6507  
G01 X1.3432  Y0.6575  
G01 X1.3399  Y0.6638  
G01 X1.3357  Y0.6696  
G01 X1.3306  Y0.6747  
G01 X1.3248  Y0.6789  
G01 X1.3185  Y0.6822  
G01 X1.3117  Y0.6844  
G01 X1.3046  Y0.6855  
G01 X1.2354  Y0.6855  
G01 X1.2283  Y0.6844  
G01 X1.2215  Y0.6822  
G01 X1.2152  Y0.6789  
G01 X1.2094  Y0.6747  
G01 X1.2043  Y0.6696  
G01 X1.2001  Y0.6638  
G01 X1.1968  Y0.6575  
G01 X1.1946  Y0.6507  
G01 X1.1935  Y0.6436  
G01 X1.1935  Y0.6364  
G01 X1.1946  Y0.6293  
G01 X1.1968  Y0.6225  
G01 X1.2001  Y0.6162  
G01 X1.2043  Y0.6104  
G01 X1.2094  Y0.6053  
G01 X1.2152  Y0.6011  
G01 X1.2215  Y0.5978  
G01 X1.2283  Y0.5956  
G01 X1.2354  Y0.5945  
G00 Z0.1000  
G00 X1.2354  Y0.4945  
G01 Z-0.0070 F10    
G01 X1.3046  Y0.4945  F20    
G01 X1.3117  Y0.4956  
G01 X1.3185  Y0.4978  
G01 X1.3248  Y0.5011  
G01 X1.3306  Y0.5053  
G01 X1.3357  Y0.5104  
G01 X1.3399  Y0.5162  
G01 X1.3432  Y0.5225  
G01 X1.3454  Y0.5293  
G01 X1.3465  Y0.5364  
G01 X1.3465  Y0.5436  
G01 X1.3454  Y0.5507  
G01 X1.3432  Y0.5575  
G01 X1.3399  Y0.5638  
G01 X1.3357  Y0.5696  
G01 X1.3306  Y0.5747  
G01 X1.3248  Y0.5789  
G01 X1.3185  Y0.5822  
G01 X1.3117  Y0.5844  
G01 X1.3046  Y0.5855  
G01 X1.2354  Y0.5855  
G01 X1.2283  Y0.5844  
G01 X1.2215  Y0.5822  
G01 X1.2152  Y0.5789  
G01 X1.2094  Y0.5747  
G01 X1.2043  Y0.5696  
G01 X1.2001  Y0.5638  
G01 X1.1968  Y0.5575  
G01 X1.1946  Y0.5507  
G01 X1.1935  Y0.5436  
G01 X1.1935  Y0.5364  
G01 X1.1946  Y0.5293  
G01 X1.1968  Y0.5225  
G01 X1.2001  Y0.5162  
G01 X1.2043  Y0.5104  
G01 X1.2094  Y0.5053  
G01 X1.2152  Y0.5011  
G01 X1.2215  Y0.4978  
G01 X1.2283  Y0.4956  
G01 X1.2354  Y0.4945  
G00 Z0.1000  
G00 X1.2354  Y0.3945  
G01 Z-0.0070 F10    
G01 X1.3046  Y0.3945  F20    
G01 X1.3117  Y0.3956  
G01 X1.3185  Y0.3978  
G01 X1.3248  Y0.4011  
G01 X1.3306  Y0.4053  
G01 X1.3357  Y0.4104  
G01 X1.3399  Y0.4162  
G01 X1.3432  Y0.4225  
G01 X1.3454  Y0.4293  
G01 X1.3465  Y0.4364  
G01 X1.3465  Y0.4436  
G01 X1.3454  Y0.4507  
G01 X1.3432  Y0.4575  
G01 X1.3399  Y0.4638  
G01 X1.3357  Y0.4696  
G01 X1.3306  Y0.4747  
G01 X1.3248  Y0.4789  
G01 X1.3185  Y0.4822  
G01 X1.3117  Y0.4844  
G01 X1.3046  Y0.4855  
G01 X1.2354  Y0.4855  
G01 X1.2283  Y0.4844  
G01 X1.2215  Y0.4822  
G01 X1.2152  Y0.4789  
G01 X1.2094  Y0.4747  
G01 X1.2043  Y0.4696  
G01 X1.2001  Y0.4638  
G01 X1.1968  Y0.4575  
G01 X1.1946  Y0.4507  
G01 X1.1935  Y0.4436  
G01 X1.1935  Y0.4364  
G01 X1.1946  Y0.4293  
G01 X1.1968  Y0.4225  
G01 X1.2001  Y0.4162  
G01 X1.2043  Y0.4104  
G01 X1.2094  Y0.4053  
G01 X1.2152  Y0.4011  
G01 X1.2215  Y0.3978  
G01 X1.2283  Y0.3956  
G01 X1.2354  Y0.3945  
G00 Z0.1000  
G00 X1.2354  Y0.2945  
G01 Z-0.0070 F10    
G01 X1.3046  Y0.2945  F20    
G01 X1.3117  Y0.2956  
G01 X1.3185  Y0.2978  
G01 X1.3248  Y0.3011  
G01 X1.3306  Y0.3053  
G01 X1.3357  Y0.3104  
G01 X1.3399  Y0.3162  
G01 X1.3432  Y0.3225  
G01 X1.3454  Y0.3293  
G01 X1.3465  Y0.3364  
G01 X1.3465  Y0.3436  
G01 X1.3454  Y0.3507  
G01 X1.3432  Y0.3575  
G01 X1.3399  Y0.3638  
G01 X1.3357  Y0.3696  
G01 X1.3306  Y0.3747  
G01 X1.3248  Y0.3789  
G01 X1.3185  Y0.3822  
G01 X1.3117  Y0.3844  
G01 X1.3046  Y0.3855  
G01 X1.2354  Y0.3855  
G01 X1.2283  Y0.3844  
G01 X1.2215  Y0.3822  
G01 X1.2152  Y0.3789  
G01 X1.2094  Y0.3747  
G01 X1.2043  Y0.3696  
G01 X1.2001  Y0.3638  
G01 X1.1968  Y0.3575  
G01 X1.1946  Y0.3507  
G01 X1.1935  Y0.3436  
G01 X1.1935  Y0.3364  
G01 X1.1946  Y0.3293  
G01 X1.1968  Y0.3225  
G01 X1.2001  Y0.3162  
G01 X1.2043  Y0.3104  
G01 X1.2094  Y0.3053  
G01 X1.2152  Y0.3011  
G01 X1.2215  Y0.2978  
G01 X1.2283  Y0.2956  
G01 X1.2354  Y0.2945  
G00 Z0.1000  
G00 X0.3395  Y0.9795  
G01 Z-0.0070 F10    
G01 X0.3395  Y1.0205  F20    
G01 X0.3105  Y1.0495  
G01 X0.2695  Y1.0495  
G01 X0.2405  Y1.0205  
G01 X0.2405  Y0.9795  
G01 X0.2695  Y0.9505  
G01 X0.3105  Y0.9505  
G01 X0.3395  Y0.9795  
G00 Z0.1000  
G00 X0.3395  Y0.8795  
G01 Z-0.0070 F10    
G01 X0.3395  Y0.9205  F20    
G01 X0.3105  Y0.9495  
G01 X0.2695  Y0.9495  
G01 X0.2405  Y0.9205  
G01 X0.2405  Y0.8795  
G01 X0.2695  Y0.8505  
G01 X0.3105  Y0.8505  
G01 X0.3395  Y0.8795  
G00 Z0.1000  
G00 X0.3395  Y0.7795  
G01 Z-0.0070 F10    
G01 X0.3395  Y0.8205  F20    
G01 X0.3105  Y0.8495  
G01 X0.2695  Y0.8495  
G01 X0.2405  Y0.8205  
G01 X0.2405  Y0.7795  
G01 X0.2695  Y0.7505  
G01 X0.3105  Y0.7505  
G01 X0.3395  Y0.7795  
G00 Z0.1000  
G00 X0.3395  Y0.6795  
G01 Z-0.0070 F10    
G01 X0.3395  Y0.7205  F20    
G01 X0.3105  Y0.7495  
G01 X0.2695  Y0.7495  
G01 X0.2405  Y0.7205  
G01 X0.2405  Y0.6795  
G01 X0.2695  Y0.6505  
G01 X0.3105  Y0.6505  
G01 X0.3395  Y0.6795  
G00 Z0.1000  
G00 X0.3395  Y0.5795  
G01 Z-0.0070 F10    
G01 X0.3395  Y0.6205  F20    
G01 X0.3105  Y0.6495  
G01 X0.2695  Y0.6495  
G01 X0.2405  Y0.6205  
G01 X0.2405  Y0.5795  
G01 X0.2695  Y0.5505  
G01 X0.3105  Y0.5505  
G01 X0.3395  Y0.5795  
G00 Z0.1000  
G00 X0.3395  Y0.4795  
G01 Z-0.0070 F10    
G01 X0.3395  Y0.5205  F20    
G01 X0.3105  Y0.5495  
G01 X0.2695  Y0.5495  
G01 X0.2405  Y0.5205  
G01 X0.2405  Y0.4795  
G01 X0.2695  Y0.4505  
G01 X0.3105  Y0.4505  
G01 X0.3395  Y0.4795  
G00 Z0.1000  
G00 X0.2395  Y0.9795  
G01 Z-0.0070 F10    
G01 X0.2395  Y1.0205  F20    
G01 X0.2105  Y1.0495  
G01 X0.1695  Y1.0495  
G01 X0.1405  Y1.0205  
G01 X0.1405  Y0.9795  
G01 X0.1695  Y0.9505  
G01 X0.2105  Y0.9505  
G01 X0.2395  Y0.9795  
G00 Z0.1000  
G00 X0.2395  Y0.8795  
G01 Z-0.0070 F10    
G01 X0.2395  Y0.9205  F20    
G01 X0.2105  Y0.9495  
G01 X0.1695  Y0.9495  
G01 X0.1405  Y0.9205  
G01 X0.1405  Y0.8795  
G01 X0.1695  Y0.8505  
G01 X0.2105  Y0.8505  
G01 X0.2395  Y0.8795  
G00 Z0.1000  
G00 X0.2395  Y0.7795  
G01 Z-0.0070 F10    
G01 X0.2395  Y0.8205  F20    
G01 X0.2105  Y0.8495  
G01 X0.1695  Y0.8495  
G01 X0.1405  Y0.8205  
G01 X0.1405  Y0.7795  
G01 X0.1695  Y0.7505  
G01 X0.2105  Y0.7505  
G01 X0.2395  Y0.7795  
G00 Z0.1000  
G00 X0.2395  Y0.6795  
G01 Z-0.0070 F10    
G01 X0.2395  Y0.7205  F20    
G01 X0.2105  Y0.7495  
G01 X0.1695  Y0.7495  
G01 X0.1405  Y0.7205  
G01 X0.1405  Y0.6795  
G01 X0.1695  Y0.6505  
G01 X0.2105  Y0.6505  
G01 X0.2395  Y0.6795  
G00 Z0.1000  
G00 X0.2395  Y0.5795  
G01 Z-0.0070 F10    
G01 X0.2395  Y0.6205  F20    
G01 X0.2105  Y0.6495  
G01 X0.1695  Y0.6495  
G01 X0.1405  Y0.6205  
G01 X0.1405  Y0.5795  
G01 X0.1695  Y0.5505  
G01 X0.2105  Y0.5505  
G01 X0.2395  Y0.5795  
G00 Z0.1000  
G00 X0.2395  Y0.4795  
G01 Z-0.0070 F10    
G01 X0.2395  Y0.5205  F20    
G01 X0.2105  Y0.5495  
G01 X0.1695  Y0.5495  
G01 X0.1405  Y0.5205  
G01 X0.1405  Y0.4795  
G01 X0.1695  Y0.4505  
G01 X0.2105  Y0.4505  
G01 X0.2395  Y0.4795  
G00 Z0.1000  
G00 X0.3395  Y0.3795  
G01 Z-0.0070 F10    
G01 X0.3395  Y0.4205  F20    
G01 X0.3105  Y0.4495  
G01 X0.2695  Y0.4495  
G01 X0.2405  Y0.4205  
G01 X0.2405  Y0.3795  
G01 X0.2695  Y0.3505  
G01 X0.3105  Y0.3505  
G01 X0.3395  Y0.3795  
G00 Z0.1000  
G00 X0.2395  Y0.3795  
G01 Z-0.0070 F10    
G01 X0.2395  Y0.4205  F20    
G01 X0.2105  Y0.4495  
G01 X0.1695  Y0.4495  
G01 X0.1405  Y0.4205  
G01 X0.1405  Y0.3795  
G01 X0.1695  Y0.3505  
G01 X0.2105  Y0.3505  
G01 X0.2395  Y0.3795  
G00 Z0.1000  
G00 X0.8346  Y0.4155  
G01 Z-0.0070 F10    
G01 X0.7654  Y0.4155  F20    
G01 X0.7583  Y0.4144  
G01 X0.7515  Y0.4122  
G01 X0.7452  Y0.4089  
G01 X0.7394  Y0.4047  
G01 X0.7343  Y0.3996  
G01 X0.7301  Y0.3938  
G01 X0.7268  Y0.3875  
G01 X0.7246  Y0.3807  
G01 X0.7235  Y0.3736  
G01 X0.7235  Y0.3664  
G01 X0.7246  Y0.3593  
G01 X0.7268  Y0.3525  
G01 X0.7301  Y0.3462  
G01 X0.7343  Y0.3404  
G01 X0.7394  Y0.3353  
G01 X0.7452  Y0.3311  
G01 X0.7515  Y0.3278  
G01 X0.7583  Y0.3256  
G01 X0.7654  Y0.3245  
G01 X0.8346  Y0.3245  
G01 X0.8417  Y0.3256  
G01 X0.8485  Y0.3278  
G01 X0.8548  Y0.3311  
G01 X0.8606  Y0.3353  
G01 X0.8657  Y0.3404  
G01 X0.8699  Y0.3462  
G01 X0.8732  Y0.3525  
G01 X0.8754  Y0.3593  
G01 X0.8765  Y0.3664  
G01 X0.8765  Y0.3736  
G01 X0.8754  Y0.3807  
G01 X0.8732  Y0.3875  
G01 X0.8699  Y0.3938  
G01 X0.8657  Y0.3996  
G01 X0.8606  Y0.4047  
G01 X0.8548  Y0.4089  
G01 X0.8485  Y0.4122  
G01 X0.8417  Y0.4144  
G01 X0.8346  Y0.4155  
G00 Z0.1000  
G00 X1.1346  Y0.3155  
G01 Z-0.0070 F10    
G01 X1.0654  Y0.3155  F20    
G01 X1.0583  Y0.3144  
G01 X1.0515  Y0.3122  
G01 X1.0452  Y0.3089  
G01 X1.0394  Y0.3047  
G01 X1.0343  Y0.2996  
G01 X1.0301  Y0.2938  
G01 X1.0268  Y0.2875  
G01 X1.0246  Y0.2807  
G01 X1.0235  Y0.2736  
G01 X1.0235  Y0.2664  
G01 X1.0246  Y0.2593  
G01 X1.0268  Y0.2525  
G01 X1.0301  Y0.2462  
G01 X1.0343  Y0.2404  
G01 X1.0394  Y0.2353  
G01 X1.0452  Y0.2311  
G01 X1.0515  Y0.2278  
G01 X1.0583  Y0.2256  
G01 X1.0654  Y0.2245  
G01 X1.1346  Y0.2245  
G01 X1.1417  Y0.2256  
G01 X1.1485  Y0.2278  
G01 X1.1548  Y0.2311  
G01 X1.1606  Y0.2353  
G01 X1.1657  Y0.2404  
G01 X1.1699  Y0.2462  
G01 X1.1732  Y0.2525  
G01 X1.1754  Y0.2593  
G01 X1.1765  Y0.2664  
G01 X1.1765  Y0.2736  
G01 X1.1754  Y0.2807  
G01 X1.1732  Y0.2875  
G01 X1.1699  Y0.2938  
G01 X1.1657  Y0.2996  
G01 X1.1606  Y0.3047  
G01 X1.1548  Y0.3089  
G01 X1.1485  Y0.3122  
G01 X1.1417  Y0.3144  
G01 X1.1346  Y0.3155  
G00 Z0.1000  
G00 X0.6346  Y0.3155  
G01 Z-0.0070 F10    
G01 X0.5654  Y0.3155  F20    
G01 X0.5583  Y0.3144  
G01 X0.5515  Y0.3122  
G01 X0.5452  Y0.3089  
G01 X0.5394  Y0.3047  
G01 X0.5343  Y0.2996  
G01 X0.5301  Y0.2938  
G01 X0.5268  Y0.2875  
G01 X0.5246  Y0.2807  
G01 X0.5235  Y0.2736  
G01 X0.5235  Y0.2664  
G01 X0.5246  Y0.2593  
G01 X0.5268  Y0.2525  
G01 X0.5301  Y0.2462  
G01 X0.5343  Y0.2404  
G01 X0.5394  Y0.2353  
G01 X0.5452  Y0.2311  
G01 X0.5515  Y0.2278  
G01 X0.5583  Y0.2256  
G01 X0.5654  Y0.2245  
G01 X0.6346  Y0.2245  
G01 X0.6417  Y0.2256  
G01 X0.6485  Y0.2278  
G01 X0.6548  Y0.2311  
G01 X0.6606  Y0.2353  
G01 X0.6657  Y0.2404  
G01 X0.6699  Y0.2462  
G01 X0.6732  Y0.2525  
G01 X0.6754  Y0.2593  
G01 X0.6765  Y0.2664  
G01 X0.6765  Y0.2736  
G01 X0.6754  Y0.2807  
G01 X0.6732  Y0.2875  
G01 X0.6699  Y0.2938  
G01 X0.6657  Y0.2996  
G01 X0.6606  Y0.3047  
G01 X0.6548  Y0.3089  
G01 X0.6485  Y0.3122  
G01 X0.6417  Y0.3144  
G01 X0.6346  Y0.3155  
G00 Z0.1000  
G00 X2.1154  Y0.1045  
G01 Z-0.0070 F10    
G01 X2.1846  Y0.1045  F20    
G01 X2.1917  Y0.1056  
G01 X2.1985  Y0.1078  
G01 X2.2048  Y0.1111  
G01 X2.2106  Y0.1153  
G01 X2.2157  Y0.1204  
G01 X2.2199  Y0.1262  
G01 X2.2232  Y0.1325  
G01 X2.2254  Y0.1393  
G01 X2.2265  Y0.1464  
G01 X2.2265  Y0.1536  
G01 X2.2254  Y0.1607  
G01 X2.2232  Y0.1675  
G01 X2.2199  Y0.1738  
G01 X2.2157  Y0.1796  
G01 X2.2106  Y0.1847  
G01 X2.2048  Y0.1889  
G01 X2.1985  Y0.1922  
G01 X2.1917  Y0.1944  
G01 X2.1846  Y0.1955  
G01 X2.1154  Y0.1955  
G01 X2.1083  Y0.1944  
G01 X2.1015  Y0.1922  
G01 X2.0952  Y0.1889  
G01 X2.0894  Y0.1847  
G01 X2.0843  Y0.1796  
G01 X2.0801  Y0.1738  
G01 X2.0768  Y0.1675  
G01 X2.0746  Y0.1607  
G01 X2.0735  Y0.1536  
G01 X2.0735  Y0.1464  
G01 X2.0746  Y0.1393  
G01 X2.0768  Y0.1325  
G01 X2.0801  Y0.1262  
G01 X2.0843  Y0.1204  
G01 X2.0894  Y0.1153  
G01 X2.0952  Y0.1111  
G01 X2.1015  Y0.1078  
G01 X2.1083  Y0.1056  
G01 X2.1154  Y0.1045  
G00 Z0.1000  
G00 X2.1154  Y0.2045  
G01 Z-0.0070 F10    
G01 X2.1846  Y0.2045  F20    
G01 X2.1917  Y0.2056  
G01 X2.1985  Y0.2078  
G01 X2.2048  Y0.2111  
G01 X2.2106  Y0.2153  
G01 X2.2157  Y0.2204  
G01 X2.2199  Y0.2262  
G01 X2.2232  Y0.2325  
G01 X2.2254  Y0.2393  
G01 X2.2265  Y0.2464  
G01 X2.2265  Y0.2536  
G01 X2.2254  Y0.2607  
G01 X2.2232  Y0.2675  
G01 X2.2199  Y0.2738  
G01 X2.2157  Y0.2796  
G01 X2.2106  Y0.2847  
G01 X2.2048  Y0.2889  
G01 X2.1985  Y0.2922  
G01 X2.1917  Y0.2944  
G01 X2.1846  Y0.2955  
G01 X2.1154  Y0.2955  
G01 X2.1083  Y0.2944  
G01 X2.1015  Y0.2922  
G01 X2.0952  Y0.2889  
G01 X2.0894  Y0.2847  
G01 X2.0843  Y0.2796  
G01 X2.0801  Y0.2738  
G01 X2.0768  Y0.2675  
G01 X2.0746  Y0.2607  
G01 X2.0735  Y0.2536  
G01 X2.0735  Y0.2464  
G01 X2.0746  Y0.2393  
G01 X2.0768  Y0.2325  
G01 X2.0801  Y0.2262  
G01 X2.0843  Y0.2204  
G01 X2.0894  Y0.2153  
G01 X2.0952  Y0.2111  
G01 X2.1015  Y0.2078  
G01 X2.1083  Y0.2056  
G01 X2.1154  Y0.2045  
G00 Z0.1000  
G00 X2.1154  Y0.3045  
G01 Z-0.0070 F10    
G01 X2.1846  Y0.3045  F20    
G01 X2.1917  Y0.3056  
G01 X2.1985  Y0.3078  
G01 X2.2048  Y0.3111  
G01 X2.2106  Y0.3153  
G01 X2.2157  Y0.3204  
G01 X2.2199  Y0.3262  
G01 X2.2232  Y0.3325  
G01 X2.2254  Y0.3393  
G01 X2.2265  Y0.3464  
G01 X2.2265  Y0.3536  
G01 X2.2254  Y0.3607  
G01 X2.2232  Y0.3675  
G01 X2.2199  Y0.3738  
G01 X2.2157  Y0.3796  
G01 X2.2106  Y0.3847  
G01 X2.2048  Y0.3889  
G01 X2.1985  Y0.3922  
G01 X2.1917  Y0.3944  
G01 X2.1846  Y0.3955  
G01 X2.1154  Y0.3955  
G01 X2.1083  Y0.3944  
G01 X2.1015  Y0.3922  
G01 X2.0952  Y0.3889  
G01 X2.0894  Y0.3847  
G01 X2.0843  Y0.3796  
G01 X2.0801  Y0.3738  
G01 X2.0768  Y0.3675  
G01 X2.0746  Y0.3607  
G01 X2.0735  Y0.3536  
G01 X2.0735  Y0.3464  
G01 X2.0746  Y0.3393  
G01 X2.0768  Y0.3325  
G01 X2.0801  Y0.3262  
G01 X2.0843  Y0.3204  
G01 X2.0894  Y0.3153  
G01 X2.0952  Y0.3111  
G01 X2.1015  Y0.3078  
G01 X2.1083  Y0.3056  
G01 X2.1154  Y0.3045  
G00 Z0.1000  
