(.../src/pcbgcode.repo/pcb-gcode.ulp)
(Copyright 2005 - 2012 by John Johnson)
(See readme.txt for licensing terms.)
(This file generated from the board:)
(.../docs/examples/04151_lcdi2c.brd)
(Current profile is .../pcbgcode-work/profiles/mach.pp  )
(This file generated 1/16/14 12:20 PM)
(Settings from pcb-machine.h)
(spindle on time = 3.0000)
(  Tool Size)
(0.0070  )
(spindle speed = 30000.0000)
(tool change at 0.0000  0.0000  1.0000  )
(feed rate xy = F20    )
(feed rate z  = F10    )
(Z Axis Settings)
(  High     Up        Down     Drill)
(0.5000  	0.1000  	-0.0070 	-0.0320 )
(Settings from pcb-defaults.h)
(isolate min = 0.0010)
(isolate max = 0.0200)
(isolate step = 0.0050)
(Generated top outlines, top drill, bottom outlines, bottom drill, )
(Unit of measure: inch)
(Inch Mode)
G20
(Absolute Coordinates)
G90
S30000
G00 Z0.5000  
G00 X0.0000  Y0.0000  
M03
G04 P3.000000
G00 Z0.1000  
G00 X-0.1669 Y0.5378  
G01 Z-0.0070 F10    
G01 X-0.1676 Y0.5377  F20    
G01 X-0.1684 Y0.5375  
G01 X-0.1693 Y0.5375  
G01 X-0.1702 Y0.5374  
G01 X-0.1709 Y0.5375  
G01 X-0.1716 Y0.5375  
G01 X-0.1525 Y0.5184  
G01 X-0.1525 Y0.5435  
G01 X-0.1645 Y0.5387  
G01 X-0.1652 Y0.5384  
G01 X-0.1660 Y0.5381  
G01 X-0.1669 Y0.5378  
G00 Z0.1000  
G00 X-0.3295 Y0.3836  
G01 Z-0.0070 F10    
G01 X-0.3295 Y0.4164  F20    
G01 X-0.3064 Y0.4395  
G01 X-0.2736 Y0.4395  
G01 X-0.2525 Y0.4184  
G01 X-0.2525 Y0.4516  
G01 X-0.2516 Y0.4548  
G01 X-0.2500 Y0.4577  
G01 X-0.2268 Y0.4809  
G01 X-0.2295 Y0.4836  
G01 X-0.2295 Y0.5164  
G01 X-0.2084 Y0.5375  
G01 X-0.2716 Y0.5375  
G01 X-0.2505 Y0.5164  
G01 X-0.2505 Y0.4836  
G01 X-0.2736 Y0.4605  
G01 X-0.3064 Y0.4605  
G01 X-0.3091 Y0.4632  
G01 X-0.3675 Y0.4048  
G01 X-0.3675 Y0.3684  
G01 X-0.3684 Y0.3652  
G01 X-0.3700 Y0.3623  
G01 X-0.3723 Y0.3600  
G01 X-0.6000 Y0.1323  
G01 X-0.6023 Y0.1300  
G01 X-0.6052 Y0.1284  
G01 X-0.6084 Y0.1275  
G01 X-1.4216 Y0.1275  
G01 X-1.4248 Y0.1284  
G01 X-1.4277 Y0.1300  
G01 X-1.4300 Y0.1323  
G01 X-1.4600 Y0.1623  
G01 X-1.4616 Y0.1652  
G01 X-1.4625 Y0.1684  
G01 X-1.4625 Y0.5991  
G01 X-1.4626 Y0.5999  
G01 X-1.4625 Y0.6008  
G01 X-1.4625 Y0.6016  
G01 X-1.4623 Y0.6024  
G01 X-1.4622 Y0.6031  
G01 X-1.4619 Y0.6040  
G01 X-1.4616 Y0.6048  
G01 X-1.4613 Y0.6055  
G01 X-1.4610 Y0.6062  
G01 X-1.4604 Y0.6069  
G01 X-1.4600 Y0.6077  
G01 X-1.4595 Y0.6082  
G01 X-1.4475 Y0.6242  
G01 X-1.4475 Y0.8251  
G01 X-1.4955 Y0.8775  
G01 X-1.6148 Y0.8775  
G01 X-1.6375 Y0.8548  
G01 X-1.6375 Y0.8152  
G01 X-1.6248 Y0.8025  
G01 X-1.5013 Y0.8025  
G01 X-1.5009 Y0.8026  
G01 X-1.4996 Y0.8025  
G01 X-1.4984 Y0.8025  
G01 X-1.4980 Y0.8024  
G01 X-1.4976 Y0.8024  
G01 X-1.4964 Y0.8020  
G01 X-1.4952 Y0.8016  
G01 X-1.4948 Y0.8015  
G01 X-1.4945 Y0.8013  
G01 X-1.4934 Y0.8006  
G01 X-1.4923 Y0.8000  
G01 X-1.4921 Y0.7997  
G01 X-1.4917 Y0.7995  
G01 X-1.4909 Y0.7986  
G01 X-1.4900 Y0.7977  
G01 X-1.4898 Y0.7973  
G01 X-1.4896 Y0.7971  
G01 X-1.4890 Y0.7959  
G01 X-1.4884 Y0.7948  
G01 X-1.4883 Y0.7945  
G01 X-1.4840 Y0.7859  
G01 X-1.4834 Y0.7848  
G01 X-1.4833 Y0.7845  
G01 X-1.4831 Y0.7841  
G01 X-1.4828 Y0.7829  
G01 X-1.4825 Y0.7816  
G01 X-1.4825 Y0.7813  
G01 X-1.4824 Y0.7809  
G01 X-1.4825 Y0.7796  
G01 X-1.4825 Y0.6706  
G01 X-1.4824 Y0.6695  
G01 X-1.4825 Y0.6689  
G01 X-1.4825 Y0.6684  
G01 X-1.4828 Y0.6673  
G01 X-1.4830 Y0.6662  
G01 X-1.4832 Y0.6657  
G01 X-1.4834 Y0.6652  
G01 X-1.4839 Y0.6642  
G01 X-1.4843 Y0.6633  
G01 X-1.4847 Y0.6628  
G01 X-1.4850 Y0.6623  
G01 X-1.4858 Y0.6616  
G01 X-1.5035 Y0.6403  
G01 X-1.5035 Y0.6365  
G01 X-1.5049 Y0.6296  
G01 X-1.5075 Y0.6232  
G01 X-1.5114 Y0.6174  
G01 X-1.5164 Y0.6124  
G01 X-1.5222 Y0.6085  
G01 X-1.5286 Y0.6059  
G01 X-1.5355 Y0.6045  
G01 X-1.6045 Y0.6045  
G01 X-1.6114 Y0.6059  
G01 X-1.6178 Y0.6085  
G01 X-1.6236 Y0.6124  
G01 X-1.6286 Y0.6174  
G01 X-1.6325 Y0.6232  
G01 X-1.6351 Y0.6296  
G01 X-1.6365 Y0.6365  
G01 X-1.6365 Y0.6435  
G01 X-1.6351 Y0.6504  
G01 X-1.6325 Y0.6568  
G01 X-1.6286 Y0.6626  
G01 X-1.6236 Y0.6676  
G01 X-1.6178 Y0.6715  
G01 X-1.6114 Y0.6741  
G01 X-1.6045 Y0.6755  
G01 X-1.5355 Y0.6755  
G01 X-1.5286 Y0.6741  
G01 X-1.5222 Y0.6715  
G01 X-1.5164 Y0.6676  
G01 X-1.5147 Y0.6659  
G01 X-1.5075 Y0.6745  
G01 X-1.5075 Y0.7233  
G01 X-1.5114 Y0.7174  
G01 X-1.5164 Y0.7124  
G01 X-1.5222 Y0.7085  
G01 X-1.5286 Y0.7059  
G01 X-1.5355 Y0.7045  
G01 X-1.6045 Y0.7045  
G01 X-1.6114 Y0.7059  
G01 X-1.6178 Y0.7085  
G01 X-1.6236 Y0.7124  
G01 X-1.6286 Y0.7174  
G01 X-1.6320 Y0.7225  
G01 X-1.6398 Y0.7225  
G01 X-1.6475 Y0.7148  
G01 X-1.6475 Y0.5784  
G01 X-1.6484 Y0.5752  
G01 X-1.6500 Y0.5723  
G01 X-1.6523 Y0.5700  
G01 X-1.6823 Y0.5400  
G01 X-1.6852 Y0.5384  
G01 X-1.6884 Y0.5375  
G01 X-2.0648 Y0.5375  
G01 X-2.0975 Y0.5048  
G01 X-2.0975 Y0.4702  
G01 X-2.0548 Y0.4275  
G01 X-2.0284 Y0.4275  
G01 X-2.0252 Y0.4266  
G01 X-2.0223 Y0.4250  
G01 X-2.0200 Y0.4227  
G01 X-2.0000 Y0.4027  
G01 X-1.9984 Y0.3998  
G01 X-1.9975 Y0.3966  
G01 X-1.9975 Y0.1852  
G01 X-1.9048 Y0.0925  
G01 X-0.5402 Y0.0925  
G01 X-0.2525 Y0.3802  
G01 X-0.2525 Y0.3816  
G01 X-0.2736 Y0.3605  
G01 X-0.3064 Y0.3605  
G01 X-0.3091 Y0.3632  
G01 X-0.5700 Y0.1023  
G01 X-0.5723 Y0.1000  
G01 X-0.5752 Y0.0984  
G01 X-0.5784 Y0.0975  
G01 X-1.4616 Y0.0975  
G01 X-1.4648 Y0.0984  
G01 X-1.4677 Y0.1000  
G01 X-1.5000 Y0.1323  
G01 X-1.5016 Y0.1352  
G01 X-1.5025 Y0.1384  
G01 X-1.5025 Y0.6194  
G01 X-1.5026 Y0.6205  
G01 X-1.5025 Y0.6211  
G01 X-1.5025 Y0.6216  
G01 X-1.5022 Y0.6227  
G01 X-1.5020 Y0.6238  
G01 X-1.5018 Y0.6243  
G01 X-1.5016 Y0.6248  
G01 X-1.5011 Y0.6258  
G01 X-1.5007 Y0.6267  
G01 X-1.5003 Y0.6272  
G01 X-1.5000 Y0.6277  
G01 X-1.4992 Y0.6284  
G01 X-1.4775 Y0.6545  
G01 X-1.4775 Y0.7953  
G01 X-1.5057 Y0.8275  
G01 X-1.5075 Y0.8232  
G01 X-1.5114 Y0.8174  
G01 X-1.5164 Y0.8124  
G01 X-1.5222 Y0.8085  
G01 X-1.5286 Y0.8059  
G01 X-1.5355 Y0.8045  
G01 X-1.6045 Y0.8045  
G01 X-1.6114 Y0.8059  
G01 X-1.6178 Y0.8085  
G01 X-1.6236 Y0.8124  
G01 X-1.6286 Y0.8174  
G01 X-1.6325 Y0.8232  
G01 X-1.6351 Y0.8296  
G01 X-1.6365 Y0.8365  
G01 X-1.6365 Y0.8435  
G01 X-1.6351 Y0.8504  
G01 X-1.6325 Y0.8568  
G01 X-1.6286 Y0.8626  
G01 X-1.6236 Y0.8676  
G01 X-1.6178 Y0.8715  
G01 X-1.6114 Y0.8741  
G01 X-1.6045 Y0.8755  
G01 X-1.5355 Y0.8755  
G01 X-1.5286 Y0.8741  
G01 X-1.5222 Y0.8715  
G01 X-1.5164 Y0.8676  
G01 X-1.5114 Y0.8626  
G01 X-1.5075 Y0.8568  
G01 X-1.5058 Y0.8525  
G01 X-1.5012 Y0.8525  
G01 X-1.5008 Y0.8526  
G01 X-1.4996 Y0.8525  
G01 X-1.4984 Y0.8525  
G01 X-1.4979 Y0.8524  
G01 X-1.4975 Y0.8524  
G01 X-1.4964 Y0.8520  
G01 X-1.4952 Y0.8516  
G01 X-1.4948 Y0.8514  
G01 X-1.4944 Y0.8513  
G01 X-1.4934 Y0.8506  
G01 X-1.4923 Y0.8500  
G01 X-1.4920 Y0.8497  
G01 X-1.4917 Y0.8495  
G01 X-1.4909 Y0.8485  
G01 X-1.4900 Y0.8477  
G01 X-1.4898 Y0.8473  
G01 X-1.4559 Y0.8085  
G01 X-1.4550 Y0.8077  
G01 X-1.4548 Y0.8073  
G01 X-1.4545 Y0.8070  
G01 X-1.4540 Y0.8059  
G01 X-1.4534 Y0.8048  
G01 X-1.4532 Y0.8044  
G01 X-1.4531 Y0.8040  
G01 X-1.4528 Y0.8028  
G01 X-1.4525 Y0.8016  
G01 X-1.4525 Y0.8012  
G01 X-1.4524 Y0.8008  
G01 X-1.4525 Y0.7996  
G01 X-1.4525 Y0.6506  
G01 X-1.4524 Y0.6495  
G01 X-1.4525 Y0.6489  
G01 X-1.4525 Y0.6484  
G01 X-1.4528 Y0.6473  
G01 X-1.4530 Y0.6462  
G01 X-1.4532 Y0.6457  
G01 X-1.4534 Y0.6452  
G01 X-1.4539 Y0.6442  
G01 X-1.4543 Y0.6433  
G01 X-1.4547 Y0.6428  
G01 X-1.4550 Y0.6423  
G01 X-1.4558 Y0.6416  
G01 X-1.4775 Y0.6155  
G01 X-1.4775 Y0.1452  
G01 X-1.4548 Y0.1225  
G01 X-0.5852 Y0.1225  
G01 X-0.3268 Y0.3809  
G01 X-0.3295 Y0.3836  
G00 Z0.1000  
G00 X-1.5355 Y0.3045  
G01 Z-0.0070 F10    
G01 X-1.5878 Y0.3045  F20    
G01 X-1.7407 Y0.1516  
G01 X-1.7414 Y0.1508  
G01 X-1.7419 Y0.1504  
G01 X-1.7423 Y0.1500  
G01 X-1.7432 Y0.1495  
G01 X-1.7440 Y0.1489  
G01 X-1.7446 Y0.1487  
G01 X-1.7452 Y0.1484  
G01 X-1.7462 Y0.1481  
G01 X-1.7471 Y0.1477  
G01 X-1.7477 Y0.1477  
G01 X-1.7484 Y0.1475  
G01 X-1.7494 Y0.1475  
G01 X-1.7840 Y0.1440  
G01 X-1.7849 Y0.1396  
G01 X-1.7875 Y0.1332  
G01 X-1.7914 Y0.1274  
G01 X-1.7964 Y0.1224  
G01 X-1.8022 Y0.1185  
G01 X-1.8086 Y0.1159  
G01 X-1.8155 Y0.1145  
G01 X-1.8845 Y0.1145  
G01 X-1.8914 Y0.1159  
G01 X-1.8978 Y0.1185  
G01 X-1.9036 Y0.1224  
G01 X-1.9086 Y0.1274  
G01 X-1.9125 Y0.1332  
G01 X-1.9151 Y0.1396  
G01 X-1.9165 Y0.1465  
G01 X-1.9165 Y0.1535  
G01 X-1.9158 Y0.1571  
G01 X-1.9773 Y0.2098  
G01 X-1.9777 Y0.2100  
G01 X-1.9785 Y0.2108  
G01 X-1.9794 Y0.2116  
G01 X-1.9797 Y0.2120  
G01 X-1.9800 Y0.2123  
G01 X-1.9806 Y0.2133  
G01 X-1.9812 Y0.2143  
G01 X-1.9814 Y0.2148  
G01 X-1.9816 Y0.2152  
G01 X-1.9819 Y0.2163  
G01 X-1.9823 Y0.2174  
G01 X-1.9824 Y0.2179  
G01 X-1.9825 Y0.2184  
G01 X-1.9825 Y0.2195  
G01 X-1.9826 Y0.2207  
G01 X-1.9825 Y0.2212  
G01 X-1.9825 Y0.3953  
G01 X-2.0255 Y0.4445  
G01 X-2.0547 Y0.4445  
G01 X-2.0755 Y0.4653  
G01 X-2.0755 Y0.4947  
G01 X-2.0547 Y0.5155  
G01 X-2.0253 Y0.5155  
G01 X-2.0045 Y0.4947  
G01 X-2.0045 Y0.4653  
G01 X-2.0077 Y0.4621  
G01 X-1.9609 Y0.4085  
G01 X-1.9600 Y0.4077  
G01 X-1.9598 Y0.4073  
G01 X-1.9595 Y0.4070  
G01 X-1.9590 Y0.4059  
G01 X-1.9584 Y0.4048  
G01 X-1.9582 Y0.4044  
G01 X-1.9581 Y0.4040  
G01 X-1.9578 Y0.4028  
G01 X-1.9575 Y0.4016  
G01 X-1.9575 Y0.4012  
G01 X-1.9574 Y0.4008  
G01 X-1.9575 Y0.3996  
G01 X-1.9575 Y0.2257  
G01 X-1.9023 Y0.1785  
G01 X-1.8978 Y0.1815  
G01 X-1.8914 Y0.1841  
G01 X-1.8845 Y0.1855  
G01 X-1.8155 Y0.1855  
G01 X-1.8086 Y0.1841  
G01 X-1.8022 Y0.1815  
G01 X-1.7964 Y0.1776  
G01 X-1.7914 Y0.1726  
G01 X-1.7888 Y0.1687  
G01 X-1.7557 Y0.1720  
G01 X-1.6186 Y0.3091  
G01 X-1.6236 Y0.3124  
G01 X-1.6286 Y0.3174  
G01 X-1.6325 Y0.3232  
G01 X-1.6351 Y0.3296  
G01 X-1.6365 Y0.3365  
G01 X-1.6365 Y0.3435  
G01 X-1.6351 Y0.3504  
G01 X-1.6325 Y0.3568  
G01 X-1.6286 Y0.3626  
G01 X-1.6236 Y0.3676  
G01 X-1.6178 Y0.3715  
G01 X-1.6114 Y0.3741  
G01 X-1.6045 Y0.3755  
G01 X-1.5355 Y0.3755  
G01 X-1.5286 Y0.3741  
G01 X-1.5222 Y0.3715  
G01 X-1.5164 Y0.3676  
G01 X-1.5114 Y0.3626  
G01 X-1.5075 Y0.3568  
G01 X-1.5049 Y0.3504  
G01 X-1.5035 Y0.3435  
G01 X-1.5035 Y0.3365  
G01 X-1.5049 Y0.3296  
G01 X-1.5075 Y0.3232  
G01 X-1.5114 Y0.3174  
G01 X-1.5164 Y0.3124  
G01 X-1.5222 Y0.3085  
G01 X-1.5286 Y0.3059  
G01 X-1.5355 Y0.3045  
G00 Z0.1000  
G00 X-1.5355 Y0.4045  
G01 Z-0.0070 F10    
G01 X-1.6045 Y0.4045  F20    
G01 X-1.6114 Y0.4059  
G01 X-1.6178 Y0.4085  
G01 X-1.6236 Y0.4124  
G01 X-1.6286 Y0.4174  
G01 X-1.6325 Y0.4232  
G01 X-1.6342 Y0.4275  
G01 X-1.6348 Y0.4275  
G01 X-1.7907 Y0.2716  
G01 X-1.7875 Y0.2668  
G01 X-1.7849 Y0.2604  
G01 X-1.7835 Y0.2535  
G01 X-1.7835 Y0.2465  
G01 X-1.7849 Y0.2396  
G01 X-1.7875 Y0.2332  
G01 X-1.7914 Y0.2274  
G01 X-1.7964 Y0.2224  
G01 X-1.8022 Y0.2185  
G01 X-1.8086 Y0.2159  
G01 X-1.8155 Y0.2145  
G01 X-1.8845 Y0.2145  
G01 X-1.8914 Y0.2159  
G01 X-1.8978 Y0.2185  
G01 X-1.9036 Y0.2224  
G01 X-1.9086 Y0.2274  
G01 X-1.9125 Y0.2332  
G01 X-1.9151 Y0.2396  
G01 X-1.9165 Y0.2465  
G01 X-1.9165 Y0.2535  
G01 X-1.9160 Y0.2561  
G01 X-1.9373 Y0.2748  
G01 X-1.9377 Y0.2750  
G01 X-1.9385 Y0.2759  
G01 X-1.9395 Y0.2767  
G01 X-1.9397 Y0.2770  
G01 X-1.9400 Y0.2773  
G01 X-1.9406 Y0.2784  
G01 X-1.9413 Y0.2794  
G01 X-1.9414 Y0.2798  
G01 X-1.9416 Y0.2802  
G01 X-1.9420 Y0.2814  
G01 X-1.9424 Y0.2825  
G01 X-1.9424 Y0.2829  
G01 X-1.9425 Y0.2834  
G01 X-1.9425 Y0.2846  
G01 X-1.9426 Y0.2858  
G01 X-1.9425 Y0.2862  
G01 X-1.9425 Y0.4523  
G01 X-1.9555 Y0.4653  
G01 X-1.9555 Y0.4947  
G01 X-1.9347 Y0.5155  
G01 X-1.9053 Y0.5155  
G01 X-1.8845 Y0.4947  
G01 X-1.8845 Y0.4653  
G01 X-1.9053 Y0.4445  
G01 X-1.9175 Y0.4445  
G01 X-1.9175 Y0.2907  
G01 X-1.9030 Y0.2780  
G01 X-1.8978 Y0.2815  
G01 X-1.8914 Y0.2841  
G01 X-1.8845 Y0.2855  
G01 X-1.8155 Y0.2855  
G01 X-1.8127 Y0.2849  
G01 X-1.6477 Y0.4500  
G01 X-1.6448 Y0.4516  
G01 X-1.6416 Y0.4525  
G01 X-1.6342 Y0.4525  
G01 X-1.6325 Y0.4568  
G01 X-1.6286 Y0.4626  
G01 X-1.6236 Y0.4676  
G01 X-1.6178 Y0.4715  
G01 X-1.6114 Y0.4741  
G01 X-1.6045 Y0.4755  
G01 X-1.5355 Y0.4755  
G01 X-1.5286 Y0.4741  
G01 X-1.5222 Y0.4715  
G01 X-1.5164 Y0.4676  
G01 X-1.5114 Y0.4626  
G01 X-1.5075 Y0.4568  
G01 X-1.5049 Y0.4504  
G01 X-1.5035 Y0.4435  
G01 X-1.5035 Y0.4365  
G01 X-1.5049 Y0.4296  
G01 X-1.5075 Y0.4232  
G01 X-1.5114 Y0.4174  
G01 X-1.5164 Y0.4124  
G01 X-1.5222 Y0.4085  
G01 X-1.5286 Y0.4059  
G01 X-1.5355 Y0.4045  
G00 Z0.1000  
G00 X-1.5355 Y0.5045  
G01 Z-0.0070 F10    
G01 X-1.6045 Y0.5045  F20    
G01 X-1.6114 Y0.5059  
G01 X-1.6178 Y0.5085  
G01 X-1.6236 Y0.5124  
G01 X-1.6268 Y0.5156  
G01 X-1.6700 Y0.4723  
G01 X-1.6723 Y0.4700  
G01 X-1.6752 Y0.4684  
G01 X-1.6784 Y0.4675  
G01 X-1.7645 Y0.4675  
G01 X-1.7645 Y0.4653  
G01 X-1.7853 Y0.4445  
G01 X-1.8078 Y0.4445  
G01 X-1.8375 Y0.4148  
G01 X-1.8375 Y0.3855  
G01 X-1.8155 Y0.3855  
G01 X-1.8086 Y0.3841  
G01 X-1.8022 Y0.3815  
G01 X-1.7964 Y0.3776  
G01 X-1.7914 Y0.3726  
G01 X-1.7875 Y0.3668  
G01 X-1.7849 Y0.3604  
G01 X-1.7835 Y0.3535  
G01 X-1.7835 Y0.3465  
G01 X-1.7849 Y0.3396  
G01 X-1.7875 Y0.3332  
G01 X-1.7914 Y0.3274  
G01 X-1.7964 Y0.3224  
G01 X-1.8022 Y0.3185  
G01 X-1.8086 Y0.3159  
G01 X-1.8155 Y0.3145  
G01 X-1.8845 Y0.3145  
G01 X-1.8914 Y0.3159  
G01 X-1.8978 Y0.3185  
G01 X-1.9036 Y0.3224  
G01 X-1.9086 Y0.3274  
G01 X-1.9125 Y0.3332  
G01 X-1.9151 Y0.3396  
G01 X-1.9165 Y0.3465  
G01 X-1.9165 Y0.3535  
G01 X-1.9151 Y0.3604  
G01 X-1.9125 Y0.3668  
G01 X-1.9086 Y0.3726  
G01 X-1.9036 Y0.3776  
G01 X-1.8978 Y0.3815  
G01 X-1.8914 Y0.3841  
G01 X-1.8845 Y0.3855  
G01 X-1.8625 Y0.3855  
G01 X-1.8625 Y0.4216  
G01 X-1.8616 Y0.4248  
G01 X-1.8600 Y0.4277  
G01 X-1.8577 Y0.4300  
G01 X-1.8289 Y0.4587  
G01 X-1.8355 Y0.4653  
G01 X-1.8355 Y0.4947  
G01 X-1.8147 Y0.5155  
G01 X-1.7853 Y0.5155  
G01 X-1.7645 Y0.4947  
G01 X-1.7645 Y0.4925  
G01 X-1.6852 Y0.4925  
G01 X-1.6365 Y0.5412  
G01 X-1.6365 Y0.5435  
G01 X-1.6351 Y0.5504  
G01 X-1.6325 Y0.5568  
G01 X-1.6286 Y0.5626  
G01 X-1.6236 Y0.5676  
G01 X-1.6178 Y0.5715  
G01 X-1.6114 Y0.5741  
G01 X-1.6045 Y0.5755  
G01 X-1.5355 Y0.5755  
G01 X-1.5286 Y0.5741  
G01 X-1.5222 Y0.5715  
G01 X-1.5164 Y0.5676  
G01 X-1.5114 Y0.5626  
G01 X-1.5075 Y0.5568  
G01 X-1.5049 Y0.5504  
G01 X-1.5035 Y0.5435  
G01 X-1.5035 Y0.5365  
G01 X-1.5049 Y0.5296  
G01 X-1.5075 Y0.5232  
G01 X-1.5114 Y0.5174  
G01 X-1.5164 Y0.5124  
G01 X-1.5222 Y0.5085  
G01 X-1.5286 Y0.5059  
G01 X-1.5355 Y0.5045  
G00 Z0.1000  
G00 X-0.2064 Y0.4395  
G01 Z-0.0070 F10    
G01 X-0.1736 Y0.4395  F20    
G01 X-0.1525 Y0.4184  
G01 X-0.1525 Y0.4816  
G01 X-0.1736 Y0.4605  
G01 X-0.2064 Y0.4605  
G01 X-0.2091 Y0.4632  
G01 X-0.2275 Y0.4448  
G01 X-0.2275 Y0.4184  
G01 X-0.2064 Y0.4395  
G00 Z0.1000  
G00 X-0.2295 Y0.6836  
G01 Z-0.0070 F10    
G01 X-0.2295 Y0.7164  F20    
G01 X-0.2064 Y0.7395  
G01 X-0.1736 Y0.7395  
G01 X-0.1505 Y0.7164  
G01 X-0.1505 Y0.6836  
G01 X-0.1641 Y0.6701  
G01 X-0.1425 Y0.6863  
G01 X-0.1425 Y0.8137  
G01 X-0.1641 Y0.8299  
G01 X-0.1505 Y0.8164  
G01 X-0.1505 Y0.7836  
G01 X-0.1736 Y0.7605  
G01 X-0.2064 Y0.7605  
G01 X-0.2091 Y0.7632  
G01 X-0.2300 Y0.7423  
G01 X-0.2323 Y0.7400  
G01 X-0.2352 Y0.7384  
G01 X-0.2384 Y0.7375  
G01 X-0.2716 Y0.7375  
G01 X-0.2505 Y0.7164  
G01 X-0.2505 Y0.6836  
G01 X-0.2716 Y0.6625  
G01 X-0.2084 Y0.6625  
G01 X-0.2295 Y0.6836  
G00 Z0.1000  
G00 X-0.2505 Y0.6164  
G01 Z-0.0070 F10    
G01 X-0.2505 Y0.5836  F20    
G01 X-0.2716 Y0.5625  
G01 X-0.2084 Y0.5625  
G01 X-0.2295 Y0.5836  
G01 X-0.2295 Y0.6164  
G01 X-0.2084 Y0.6375  
G01 X-0.2716 Y0.6375  
G01 X-0.2505 Y0.6164  
G00 Z0.1000  
G00 X-1.3325 Y0.8568  
G01 Z-0.0070 F10    
G01 X-1.3286 Y0.8626  F20    
G01 X-1.3236 Y0.8676  
G01 X-1.3178 Y0.8715  
G01 X-1.3114 Y0.8741  
G01 X-1.3045 Y0.8755  
G01 X-1.2355 Y0.8755  
G01 X-1.2286 Y0.8741  
G01 X-1.2222 Y0.8715  
G01 X-1.2164 Y0.8676  
G01 X-1.2114 Y0.8626  
G01 X-1.2089 Y0.8588  
G01 X-1.1577 Y0.9100  
G01 X-1.1548 Y0.9116  
G01 X-1.1516 Y0.9125  
G01 X-0.4984 Y0.9125  
G01 X-0.4952 Y0.9116  
G01 X-0.4923 Y0.9100  
G01 X-0.4900 Y0.9077  
G01 X-0.3448 Y0.7625  
G01 X-0.3084 Y0.7625  
G01 X-0.3295 Y0.7836  
G01 X-0.3295 Y0.7875  
G01 X-0.3336 Y0.7875  
G01 X-0.3338 Y0.7874  
G01 X-0.3352 Y0.7875  
G01 X-0.3366 Y0.7875  
G01 X-0.3369 Y0.7876  
G01 X-0.3371 Y0.7876  
G01 X-0.3385 Y0.7880  
G01 X-0.3398 Y0.7884  
G01 X-0.3400 Y0.7885  
G01 X-0.3403 Y0.7885  
G01 X-0.3415 Y0.7893  
G01 X-0.3427 Y0.7900  
G01 X-0.3428 Y0.7902  
G01 X-0.3430 Y0.7903  
G01 X-0.3440 Y0.7913  
G01 X-0.3450 Y0.7923  
G01 X-0.3451 Y0.7925  
G01 X-0.4705 Y0.9275  
G01 X-1.2058 Y0.9275  
G01 X-1.2075 Y0.9232  
G01 X-1.2114 Y0.9174  
G01 X-1.2164 Y0.9124  
G01 X-1.2222 Y0.9085  
G01 X-1.2286 Y0.9059  
G01 X-1.2355 Y0.9045  
G01 X-1.3045 Y0.9045  
G01 X-1.3114 Y0.9059  
G01 X-1.3178 Y0.9085  
G01 X-1.3236 Y0.9124  
G01 X-1.3286 Y0.9174  
G01 X-1.3325 Y0.9232  
G01 X-1.3325 Y0.8567  
G00 Z0.1000  
G00 X-0.2084 Y0.8625  
G01 Z-0.0070 F10    
G01 X-0.2295 Y0.8836  F20    
G01 X-0.2295 Y0.9164  
G01 X-0.2268 Y0.9191  
G01 X-0.2452 Y0.9375  
G01 X-0.2716 Y0.9375  
G01 X-0.2505 Y0.9164  
G01 X-0.2505 Y0.8836  
G01 X-0.2532 Y0.8809  
G01 X-0.2348 Y0.8625  
G01 X-0.2084 Y0.8625  
G00 Z0.1000  
G00 X-0.8376 Y0.6054  
G01 Z-0.0070 F10    
G01 X-0.8376 Y0.6744  F20    
G01 X-0.8363 Y0.6813  
G01 X-0.8336 Y0.6878  
G01 X-0.8297 Y0.6936  
G01 X-0.8248 Y0.6985  
G01 X-0.8189 Y0.7024  
G01 X-0.8125 Y0.7051  
G01 X-0.8056 Y0.7064  
G01 X-0.7986 Y0.7064  
G01 X-0.7918 Y0.7051  
G01 X-0.7853 Y0.7024  
G01 X-0.7795 Y0.6985  
G01 X-0.7746 Y0.6936  
G01 X-0.7707 Y0.6878  
G01 X-0.7680 Y0.6813  
G01 X-0.7666 Y0.6744  
G01 X-0.7666 Y0.6054  
G01 X-0.7680 Y0.5986  
G01 X-0.7707 Y0.5921  
G01 X-0.7746 Y0.5863  
G01 X-0.7795 Y0.5814  
G01 X-0.7853 Y0.5775  
G01 X-0.7875 Y0.5766  
G01 X-0.7875 Y0.5734  
G01 X-0.7884 Y0.5702  
G01 X-0.7900 Y0.5673  
G01 X-0.8773 Y0.4800  
G01 X-0.8802 Y0.4784  
G01 X-0.8834 Y0.4775  
G01 X-1.3925 Y0.4775  
G01 X-1.3925 Y0.3552  
G01 X-1.3623 Y0.3250  
G01 X-1.3600 Y0.3227  
G01 X-1.3584 Y0.3198  
G01 X-1.3575 Y0.3166  
G01 X-1.3575 Y0.2655  
G01 X-1.3553 Y0.2655  
G01 X-1.3345 Y0.2447  
G01 X-1.3345 Y0.2222  
G01 X-1.3048 Y0.1925  
G01 X-1.0352 Y0.1925  
G01 X-0.9577 Y0.2700  
G01 X-0.9548 Y0.2716  
G01 X-0.9516 Y0.2725  
G01 X-0.6665 Y0.2725  
G01 X-0.6665 Y0.2735  
G01 X-0.6651 Y0.2804  
G01 X-0.6625 Y0.2868  
G01 X-0.6586 Y0.2926  
G01 X-0.6536 Y0.2976  
G01 X-0.6478 Y0.3015  
G01 X-0.6414 Y0.3041  
G01 X-0.6345 Y0.3055  
G01 X-0.5655 Y0.3055  
G01 X-0.5586 Y0.3041  
G01 X-0.5522 Y0.3015  
G01 X-0.5464 Y0.2976  
G01 X-0.5414 Y0.2926  
G01 X-0.5375 Y0.2868  
G01 X-0.5349 Y0.2804  
G01 X-0.5335 Y0.2735  
G01 X-0.5335 Y0.2665  
G01 X-0.5349 Y0.2596  
G01 X-0.5375 Y0.2532  
G01 X-0.5414 Y0.2474  
G01 X-0.5464 Y0.2424  
G01 X-0.5522 Y0.2385  
G01 X-0.5586 Y0.2359  
G01 X-0.5655 Y0.2345  
G01 X-0.6345 Y0.2345  
G01 X-0.6414 Y0.2359  
G01 X-0.6478 Y0.2385  
G01 X-0.6536 Y0.2424  
G01 X-0.6586 Y0.2474  
G01 X-0.6587 Y0.2475  
G01 X-0.9448 Y0.2475  
G01 X-1.0200 Y0.1723  
G01 X-1.0223 Y0.1700  
G01 X-1.0252 Y0.1684  
G01 X-1.0284 Y0.1675  
G01 X-1.3116 Y0.1675  
G01 X-1.3148 Y0.1684  
G01 X-1.3177 Y0.1700  
G01 X-1.3487 Y0.2011  
G01 X-1.3553 Y0.1945  
G01 X-1.3847 Y0.1945  
G01 X-1.4055 Y0.2153  
G01 X-1.4055 Y0.2447  
G01 X-1.3847 Y0.2655  
G01 X-1.3825 Y0.2655  
G01 X-1.3825 Y0.3098  
G01 X-1.4150 Y0.3423  
G01 X-1.4166 Y0.3452  
G01 X-1.4175 Y0.3484  
G01 X-1.4175 Y0.5366  
G01 X-1.4173 Y0.5375  
G01 X-1.4175 Y0.5384  
G01 X-1.4175 Y0.9050  
G01 X-1.5153 Y1.0075  
G01 X-1.5247 Y1.0075  
G01 X-1.5286 Y1.0059  
G01 X-1.5355 Y1.0045  
G01 X-1.6045 Y1.0045  
G01 X-1.6114 Y1.0059  
G01 X-1.6153 Y1.0075  
G01 X-1.6598 Y1.0075  
G01 X-1.7200 Y0.9473  
G01 X-1.7223 Y0.9450  
G01 X-1.7252 Y0.9434  
G01 X-1.7284 Y0.9425  
G01 X-1.7875 Y0.9425  
G01 X-1.7875 Y0.7155  
G01 X-1.7853 Y0.7155  
G01 X-1.7645 Y0.6947  
G01 X-1.7645 Y0.6653  
G01 X-1.7853 Y0.6445  
G01 X-1.8147 Y0.6445  
G01 X-1.8277 Y0.6575  
G01 X-1.8923 Y0.6575  
G01 X-1.9053 Y0.6445  
G01 X-1.9347 Y0.6445  
G01 X-1.9477 Y0.6575  
G01 X-2.0123 Y0.6575  
G01 X-2.0253 Y0.6445  
G01 X-2.0547 Y0.6445  
G01 X-2.0755 Y0.6653  
G01 X-2.0755 Y0.6947  
G01 X-2.0547 Y0.7155  
G01 X-2.0253 Y0.7155  
G01 X-2.0045 Y0.6947  
G01 X-2.0045 Y0.6825  
G01 X-1.9555 Y0.6825  
G01 X-1.9555 Y0.6947  
G01 X-1.9347 Y0.7155  
G01 X-1.9053 Y0.7155  
G01 X-1.8845 Y0.6947  
G01 X-1.8845 Y0.6825  
G01 X-1.8355 Y0.6825  
G01 X-1.8355 Y0.6947  
G01 X-1.8147 Y0.7155  
G01 X-1.8125 Y0.7155  
G01 X-1.8125 Y0.9425  
G01 X-1.8916 Y0.9425  
G01 X-1.8948 Y0.9434  
G01 X-1.8977 Y0.9450  
G01 X-1.9300 Y0.9773  
G01 X-1.9316 Y0.9802  
G01 X-1.9325 Y0.9834  
G01 X-1.9325 Y1.0648  
G01 X-1.9752 Y1.1075  
G01 X-2.0348 Y1.1075  
G01 X-2.0875 Y1.0548  
G01 X-2.0875 Y1.0284  
G01 X-2.0884 Y1.0252  
G01 X-2.0900 Y1.0223  
G01 X-2.1800 Y0.9323  
G01 X-2.1823 Y0.9300  
G01 X-2.1852 Y0.9284  
G01 X-2.1884 Y0.9275  
G01 X-2.3616 Y0.9275  
G01 X-2.3648 Y0.9284  
G01 X-2.3677 Y0.9300  
G01 X-2.4177 Y0.9800  
G01 X-2.4200 Y0.9823  
G01 X-2.4216 Y0.9852  
G01 X-2.4225 Y0.9884  
G01 X-2.4225 Y1.0816  
G01 X-2.4216 Y1.0848  
G01 X-2.4200 Y1.0877  
G01 X-2.3100 Y1.1977  
G01 X-2.3077 Y1.2000  
G01 X-2.3048 Y1.2016  
G01 X-2.3016 Y1.2025  
G01 X-1.8325 Y1.2025  
G01 X-1.8325 Y1.2416  
G01 X-1.8316 Y1.2448  
G01 X-1.8300 Y1.2477  
G01 X-1.7800 Y1.2977  
G01 X-1.7777 Y1.3000  
G01 X-1.7748 Y1.3016  
G01 X-1.7716 Y1.3025  
G01 X-1.4834 Y1.3025  
G01 X-1.4802 Y1.3016  
G01 X-1.4773 Y1.3000  
G01 X-1.4750 Y1.2977  
G01 X-1.4563 Y1.2789  
G01 X-1.4547 Y1.2805  
G01 X-1.4253 Y1.2805  
G01 X-1.4045 Y1.2597  
G01 X-1.4045 Y1.2303  
G01 X-1.4253 Y1.2095  
G01 X-1.4275 Y1.2095  
G01 X-1.4275 Y1.1452  
G01 X-1.4148 Y1.1325  
G01 X-1.3152 Y1.1325  
G01 X-1.2797 Y1.1679  
G01 X-1.2795 Y1.1683  
G01 X-1.2786 Y1.1691  
G01 X-1.2777 Y1.1700  
G01 X-1.2775 Y1.1701  
G01 X-1.2775 Y1.1997  
G01 X-1.2497 Y1.2275  
G01 X-1.2103 Y1.2275  
G01 X-1.1825 Y1.1997  
G01 X-1.1825 Y1.1603  
G01 X-1.1876 Y1.1553  
G01 X-1.1548 Y1.1225  
G01 X-0.4984 Y1.1225  
G01 X-0.4952 Y1.1216  
G01 X-0.4923 Y1.1200  
G01 X-0.4900 Y1.1177  
G01 X-0.4078 Y1.0355  
G01 X-0.3953 Y1.0355  
G01 X-0.3745 Y1.0147  
G01 X-0.3745 Y1.0025  
G01 X-0.3295 Y1.0025  
G01 X-0.3295 Y1.0164  
G01 X-0.3064 Y1.0395  
G01 X-0.2736 Y1.0395  
G01 X-0.2505 Y1.0164  
G01 X-0.2505 Y0.9836  
G01 X-0.2716 Y0.9625  
G01 X-0.2384 Y0.9625  
G01 X-0.2352 Y0.9616  
G01 X-0.2323 Y0.9600  
G01 X-0.2091 Y0.9368  
G01 X-0.2064 Y0.9395  
G01 X-0.1736 Y0.9395  
G01 X-0.1505 Y0.9164  
G01 X-0.1505 Y0.8836  
G01 X-0.1716 Y0.8625  
G01 X-0.1709 Y0.8625  
G01 X-0.1701 Y0.8626  
G01 X-0.1692 Y0.8625  
G01 X-0.1684 Y0.8625  
G01 X-0.1676 Y0.8623  
G01 X-0.1669 Y0.8622  
G01 X-0.1660 Y0.8619  
G01 X-0.1652 Y0.8616  
G01 X-0.1645 Y0.8613  
G01 X-0.1638 Y0.8610  
G01 X-0.1631 Y0.8604  
G01 X-0.1623 Y0.8600  
G01 X-0.1618 Y0.8595  
G01 X-0.1231 Y0.8304  
G01 X-0.1223 Y0.8300  
G01 X-0.1218 Y0.8295  
G01 X-0.1212 Y0.8290  
G01 X-0.1206 Y0.8283  
G01 X-0.1200 Y0.8277  
G01 X-0.1196 Y0.8270  
G01 X-0.1192 Y0.8264  
G01 X-0.1188 Y0.8256  
G01 X-0.1184 Y0.8248  
G01 X-0.1182 Y0.8241  
G01 X-0.1179 Y0.8234  
G01 X-0.1177 Y0.8225  
G01 X-0.1175 Y0.8216  
G01 X-0.1175 Y0.8209  
G01 X-0.1174 Y0.8201  
G01 X-0.1175 Y0.8192  
G01 X-0.1175 Y0.6807  
G01 X-0.1174 Y0.6799  
G01 X-0.1175 Y0.6791  
G01 X-0.1175 Y0.6784  
G01 X-0.1177 Y0.6775  
G01 X-0.1179 Y0.6766  
G01 X-0.1182 Y0.6759  
G01 X-0.1184 Y0.6752  
G01 X-0.1188 Y0.6744  
G01 X-0.1192 Y0.6736  
G01 X-0.1196 Y0.6730  
G01 X-0.1200 Y0.6723  
G01 X-0.1206 Y0.6717  
G01 X-0.1212 Y0.6710  
G01 X-0.1218 Y0.6705  
G01 X-0.1223 Y0.6700  
G01 X-0.1231 Y0.6696  
G01 X-0.1618 Y0.6405  
G01 X-0.1623 Y0.6400  
G01 X-0.1631 Y0.6396  
G01 X-0.1638 Y0.6390  
G01 X-0.1645 Y0.6387  
G01 X-0.1652 Y0.6384  
G01 X-0.1660 Y0.6381  
G01 X-0.1669 Y0.6378  
G01 X-0.1676 Y0.6377  
G01 X-0.1684 Y0.6375  
G01 X-0.1693 Y0.6375  
G01 X-0.1701 Y0.6374  
G01 X-0.1709 Y0.6375  
G01 X-0.1716 Y0.6375  
G01 X-0.1505 Y0.6164  
G01 X-0.1505 Y0.5836  
G01 X-0.1711 Y0.5630  
G01 X-0.1520 Y0.5707  
G01 X-0.1125 Y0.6102  
G01 X-0.1125 Y0.9096  
G01 X-0.1701 Y0.9640  
G01 X-0.1736 Y0.9605  
G01 X-0.2064 Y0.9605  
G01 X-0.2295 Y0.9836  
G01 X-0.2295 Y1.0164  
G01 X-0.2243 Y1.0216  
G01 X-0.3502 Y1.1475  
G01 X-1.0896 Y1.1475  
G01 X-1.0909 Y1.1474  
G01 X-1.0913 Y1.1475  
G01 X-1.0916 Y1.1475  
G01 X-1.0929 Y1.1478  
G01 X-1.0941 Y1.1481  
G01 X-1.0945 Y1.1483  
G01 X-1.0991 Y1.1438  
G01 X-1.1051 Y1.1394  
G01 X-1.1118 Y1.1360  
G01 X-1.1189 Y1.1337  
G01 X-1.1263 Y1.1325  
G01 X-1.1337 Y1.1325  
G01 X-1.1411 Y1.1337  
G01 X-1.1482 Y1.1360  
G01 X-1.1549 Y1.1394  
G01 X-1.1609 Y1.1438  
G01 X-1.1662 Y1.1491  
G01 X-1.1706 Y1.1551  
G01 X-1.1740 Y1.1618  
G01 X-1.1763 Y1.1689  
G01 X-1.1775 Y1.1763  
G01 X-1.1775 Y1.1837  
G01 X-1.1763 Y1.1911  
G01 X-1.1740 Y1.1982  
G01 X-1.1713 Y1.2036  
G01 X-1.2052 Y1.2375  
G01 X-1.2448 Y1.2375  
G01 X-1.3123 Y1.1700  
G01 X-1.3152 Y1.1684  
G01 X-1.3184 Y1.1675  
G01 X-1.3545 Y1.1675  
G01 X-1.3545 Y1.1553  
G01 X-1.3753 Y1.1345  
G01 X-1.4047 Y1.1345  
G01 X-1.4255 Y1.1553  
G01 X-1.4255 Y1.1847  
G01 X-1.4047 Y1.2055  
G01 X-1.3753 Y1.2055  
G01 X-1.3623 Y1.1925  
G01 X-1.3252 Y1.1925  
G01 X-1.2600 Y1.2577  
G01 X-1.2577 Y1.2600  
G01 X-1.2548 Y1.2616  
G01 X-1.2516 Y1.2625  
G01 X-1.1984 Y1.2625  
G01 X-1.1952 Y1.2616  
G01 X-1.1923 Y1.2600  
G01 X-1.1536 Y1.2213  
G01 X-1.1482 Y1.2240  
G01 X-1.1411 Y1.2263  
G01 X-1.1337 Y1.2275  
G01 X-1.1263 Y1.2275  
G01 X-1.1189 Y1.2263  
G01 X-1.1118 Y1.2240  
G01 X-1.1051 Y1.2206  
G01 X-1.0991 Y1.2162  
G01 X-1.0938 Y1.2109  
G01 X-1.0894 Y1.2049  
G01 X-1.0860 Y1.1982  
G01 X-1.0837 Y1.1911  
G01 X-1.0825 Y1.1837  
G01 X-1.0825 Y1.1763  
G01 X-1.0831 Y1.1725  
G01 X-0.3434 Y1.1725  
G01 X-0.3402 Y1.1716  
G01 X-0.3373 Y1.1700  
G01 X-0.2066 Y1.0393  
G01 X-0.2064 Y1.0395  
G01 X-0.1736 Y1.0395  
G01 X-0.1505 Y1.0164  
G01 X-0.1505 Y0.9836  
G01 X-0.1524 Y0.9817  
G01 X-0.0925 Y0.9251  
G01 X-0.0923 Y0.9250  
G01 X-0.0913 Y0.9240  
G01 X-0.0902 Y0.9230  
G01 X-0.0901 Y0.9228  
G01 X-0.0900 Y0.9227  
G01 X-0.0893 Y0.9214  
G01 X-0.0885 Y0.9202  
G01 X-0.0884 Y0.9200  
G01 X-0.0884 Y0.9198  
G01 X-0.0880 Y0.9184  
G01 X-0.0876 Y0.9170  
G01 X-0.0875 Y0.9168  
G01 X-0.0875 Y0.9166  
G01 X-0.0875 Y0.9152  
G01 X-0.0875 Y0.9137  
G01 X-0.0875 Y0.9135  
G01 X-0.0875 Y0.6034  
G01 X-0.0884 Y0.6002  
G01 X-0.0900 Y0.5973  
G01 X-0.0923 Y0.5950  
G01 X-0.1282 Y0.5592  
G01 X-0.1275 Y0.5566  
G01 X-0.1275 Y0.3584  
G01 X-0.1284 Y0.3552  
G01 X-0.1300 Y0.3523  
G01 X-0.4723 Y0.0100  
G01 X-0.4752 Y0.0084  
G01 X-0.4784 Y0.0075  
G01 X-2.2316 Y0.0075  
G01 X-2.2348 Y0.0084  
G01 X-2.2377 Y0.0100  
G01 X-2.2400 Y0.0123  
G01 X-2.3377 Y0.1100  
G01 X-2.3400 Y0.1123  
G01 X-2.3416 Y0.1152  
G01 X-2.3425 Y0.1184  
G01 X-2.3425 Y0.7816  
G01 X-2.3416 Y0.7848  
G01 X-2.3400 Y0.7877  
G01 X-2.2827 Y0.8450  
G01 X-2.2798 Y0.8466  
G01 X-2.2766 Y0.8475  
G01 X-2.1902 Y0.8475  
G01 X-2.0424 Y0.9953  
G01 X-2.0545 Y1.0074  
G01 X-2.0545 Y1.0526  
G01 X-2.0226 Y1.0845  
G01 X-1.9774 Y1.0845  
G01 X-1.9455 Y1.0526  
G01 X-1.9455 Y1.0074  
G01 X-1.9774 Y0.9755  
G01 X-2.0226 Y0.9755  
G01 X-2.0247 Y0.9776  
G01 X-2.1750 Y0.8273  
G01 X-2.1773 Y0.8250  
G01 X-2.1802 Y0.8234  
G01 X-2.1834 Y0.8225  
G01 X-2.2698 Y0.8225  
G01 X-2.3175 Y0.7748  
G01 X-2.3175 Y0.3625  
G01 X-2.2142 Y0.3625  
G01 X-2.2125 Y0.3668  
G01 X-2.2086 Y0.3726  
G01 X-2.2036 Y0.3776  
G01 X-2.1978 Y0.3815  
G01 X-2.1914 Y0.3841  
G01 X-2.1845 Y0.3855  
G01 X-2.1155 Y0.3855  
G01 X-2.1086 Y0.3841  
G01 X-2.1022 Y0.3815  
G01 X-2.0964 Y0.3776  
G01 X-2.0914 Y0.3726  
G01 X-2.0875 Y0.3668  
G01 X-2.0849 Y0.3604  
G01 X-2.0835 Y0.3535  
G01 X-2.0835 Y0.3465  
G01 X-2.0849 Y0.3396  
G01 X-2.0875 Y0.3332  
G01 X-2.0914 Y0.3274  
G01 X-2.0964 Y0.3224  
G01 X-2.1014 Y0.3191  
G01 X-2.1000 Y0.3177  
G01 X-2.0984 Y0.3148  
G01 X-2.0975 Y0.3116  
G01 X-2.0975 Y0.2783  
G01 X-2.0964 Y0.2776  
G01 X-2.0914 Y0.2726  
G01 X-2.0875 Y0.2668  
G01 X-2.0849 Y0.2604  
G01 X-2.0835 Y0.2535  
G01 X-2.0835 Y0.2465  
G01 X-2.0849 Y0.2396  
G01 X-2.0875 Y0.2332  
G01 X-2.0914 Y0.2274  
G01 X-2.0964 Y0.2224  
G01 X-2.1014 Y0.2191  
G01 X-2.1000 Y0.2177  
G01 X-2.0984 Y0.2148  
G01 X-2.0975 Y0.2116  
G01 X-2.0975 Y0.1783  
G01 X-2.0964 Y0.1776  
G01 X-2.0914 Y0.1726  
G01 X-2.0875 Y0.1668  
G01 X-2.0849 Y0.1604  
G01 X-2.0835 Y0.1535  
G01 X-2.0835 Y0.1465  
G01 X-2.0849 Y0.1396  
G01 X-2.0875 Y0.1332  
G01 X-2.0914 Y0.1274  
G01 X-2.0964 Y0.1224  
G01 X-2.1022 Y0.1185  
G01 X-2.1086 Y0.1159  
G01 X-2.1155 Y0.1145  
G01 X-2.1845 Y0.1145  
G01 X-2.1914 Y0.1159  
G01 X-2.1978 Y0.1185  
G01 X-2.2036 Y0.1224  
G01 X-2.2086 Y0.1274  
G01 X-2.2125 Y0.1332  
G01 X-2.2151 Y0.1396  
G01 X-2.2165 Y0.1465  
G01 X-2.2165 Y0.1535  
G01 X-2.2151 Y0.1604  
G01 X-2.2125 Y0.1668  
G01 X-2.2086 Y0.1726  
G01 X-2.2036 Y0.1776  
G01 X-2.1978 Y0.1815  
G01 X-2.1914 Y0.1841  
G01 X-2.1845 Y0.1855  
G01 X-2.1225 Y0.1855  
G01 X-2.1225 Y0.2048  
G01 X-2.1322 Y0.2145  
G01 X-2.1845 Y0.2145  
G01 X-2.1914 Y0.2159  
G01 X-2.1978 Y0.2185  
G01 X-2.2036 Y0.2224  
G01 X-2.2086 Y0.2274  
G01 X-2.2125 Y0.2332  
G01 X-2.2151 Y0.2396  
G01 X-2.2165 Y0.2465  
G01 X-2.2165 Y0.2535  
G01 X-2.2151 Y0.2604  
G01 X-2.2125 Y0.2668  
G01 X-2.2086 Y0.2726  
G01 X-2.2036 Y0.2776  
G01 X-2.1978 Y0.2815  
G01 X-2.1914 Y0.2841  
G01 X-2.1845 Y0.2855  
G01 X-2.1225 Y0.2855  
G01 X-2.1225 Y0.3048  
G01 X-2.1322 Y0.3145  
G01 X-2.1845 Y0.3145  
G01 X-2.1914 Y0.3159  
G01 X-2.1978 Y0.3185  
G01 X-2.2036 Y0.3224  
G01 X-2.2086 Y0.3274  
G01 X-2.2125 Y0.3332  
G01 X-2.2142 Y0.3375  
G01 X-2.3175 Y0.3375  
G01 X-2.3175 Y0.1252  
G01 X-2.2248 Y0.0325  
G01 X-0.4852 Y0.0325  
G01 X-0.1525 Y0.3652  
G01 X-0.1525 Y0.3816  
G01 X-0.1736 Y0.3605  
G01 X-0.1818 Y0.3605  
G01 X-0.5000 Y0.0423  
G01 X-0.5023 Y0.0400  
G01 X-0.5052 Y0.0384  
G01 X-0.5084 Y0.0375  
G01 X-2.0466 Y0.0375  
G01 X-2.0498 Y0.0384  
G01 X-2.0527 Y0.0400  
G01 X-2.0550 Y0.0423  
G01 X-2.0727 Y0.0600  
G01 X-2.0750 Y0.0623  
G01 X-2.0766 Y0.0652  
G01 X-2.0775 Y0.0684  
G01 X-2.0775 Y0.3735  
G01 X-2.1567 Y0.4295  
G01 X-2.1577 Y0.4300  
G01 X-2.1581 Y0.4304  
G01 X-2.1586 Y0.4307  
G01 X-2.1592 Y0.4316  
G01 X-2.1600 Y0.4323  
G01 X-2.1603 Y0.4328  
G01 X-2.1607 Y0.4333  
G01 X-2.1611 Y0.4342  
G01 X-2.1616 Y0.4352  
G01 X-2.1618 Y0.4357  
G01 X-2.1620 Y0.4363  
G01 X-2.1622 Y0.4373  
G01 X-2.1625 Y0.4384  
G01 X-2.1625 Y0.4389  
G01 X-2.1626 Y0.4395  
G01 X-2.1625 Y0.4406  
G01 X-2.1625 Y0.5316  
G01 X-2.1616 Y0.5348  
G01 X-2.1600 Y0.5377  
G01 X-2.0977 Y0.6000  
G01 X-2.0948 Y0.6016  
G01 X-2.0916 Y0.6025  
G01 X-1.7552 Y0.6025  
G01 X-1.7225 Y0.6352  
G01 X-1.7225 Y0.9116  
G01 X-1.7216 Y0.9148  
G01 X-1.7200 Y0.9177  
G01 X-1.7177 Y0.9200  
G01 X-1.6900 Y0.9477  
G01 X-1.6877 Y0.9500  
G01 X-1.6848 Y0.9516  
G01 X-1.6816 Y0.9525  
G01 X-1.6342 Y0.9525  
G01 X-1.6325 Y0.9568  
G01 X-1.6286 Y0.9626  
G01 X-1.6236 Y0.9676  
G01 X-1.6178 Y0.9715  
G01 X-1.6114 Y0.9741  
G01 X-1.6045 Y0.9755  
G01 X-1.5355 Y0.9755  
G01 X-1.5286 Y0.9741  
G01 X-1.5222 Y0.9715  
G01 X-1.5164 Y0.9676  
G01 X-1.5114 Y0.9626  
G01 X-1.5075 Y0.9568  
G01 X-1.5049 Y0.9504  
G01 X-1.5035 Y0.9435  
G01 X-1.5035 Y0.9365  
G01 X-1.5049 Y0.9296  
G01 X-1.5075 Y0.9232  
G01 X-1.5114 Y0.9174  
G01 X-1.5164 Y0.9124  
G01 X-1.5222 Y0.9085  
G01 X-1.5286 Y0.9059  
G01 X-1.5355 Y0.9045  
G01 X-1.6045 Y0.9045  
G01 X-1.6114 Y0.9059  
G01 X-1.6178 Y0.9085  
G01 X-1.6236 Y0.9124  
G01 X-1.6286 Y0.9174  
G01 X-1.6325 Y0.9232  
G01 X-1.6342 Y0.9275  
G01 X-1.6748 Y0.9275  
G01 X-1.6975 Y0.9048  
G01 X-1.6975 Y0.6284  
G01 X-1.6984 Y0.6252  
G01 X-1.7000 Y0.6223  
G01 X-1.7400 Y0.5823  
G01 X-1.7423 Y0.5800  
G01 X-1.7452 Y0.5784  
G01 X-1.7484 Y0.5775  
G01 X-2.0848 Y0.5775  
G01 X-2.1375 Y0.5248  
G01 X-2.1375 Y0.4465  
G01 X-2.0583 Y0.3905  
G01 X-2.0573 Y0.3900  
G01 X-2.0569 Y0.3896  
G01 X-2.0564 Y0.3893  
G01 X-2.0558 Y0.3884  
G01 X-2.0550 Y0.3877  
G01 X-2.0547 Y0.3872  
G01 X-2.0543 Y0.3867  
G01 X-2.0539 Y0.3858  
G01 X-2.0534 Y0.3848  
G01 X-2.0532 Y0.3843  
G01 X-2.0530 Y0.3837  
G01 X-2.0528 Y0.3827  
G01 X-2.0525 Y0.3816  
G01 X-2.0525 Y0.3811  
G01 X-2.0524 Y0.3805  
G01 X-2.0525 Y0.3794  
G01 X-2.0525 Y0.0752  
G01 X-2.0398 Y0.0625  
G01 X-0.5152 Y0.0625  
G01 X-0.2118 Y0.3659  
G01 X-0.2275 Y0.3816  
G01 X-0.2275 Y0.3734  
G01 X-0.2284 Y0.3702  
G01 X-0.2300 Y0.3673  
G01 X-0.5273 Y0.0700  
G01 X-0.5302 Y0.0684  
G01 X-0.5334 Y0.0675  
G01 X-1.9116 Y0.0675  
G01 X-1.9148 Y0.0684  
G01 X-1.9177 Y0.0700  
G01 X-1.9200 Y0.0723  
G01 X-2.0177 Y0.1700  
G01 X-2.0200 Y0.1723  
G01 X-2.0216 Y0.1752  
G01 X-2.0225 Y0.1784  
G01 X-2.0225 Y0.3898  
G01 X-2.0352 Y0.4025  
G01 X-2.0616 Y0.4025  
G01 X-2.0648 Y0.4034  
G01 X-2.0677 Y0.4050  
G01 X-2.1200 Y0.4573  
G01 X-2.1216 Y0.4602  
G01 X-2.1225 Y0.4634  
G01 X-2.1225 Y0.5116  
G01 X-2.1216 Y0.5148  
G01 X-2.1200 Y0.5177  
G01 X-2.1177 Y0.5200  
G01 X-2.0800 Y0.5577  
G01 X-2.0777 Y0.5600  
G01 X-2.0748 Y0.5616  
G01 X-2.0716 Y0.5625  
G01 X-1.6952 Y0.5625  
G01 X-1.6725 Y0.5852  
G01 X-1.6725 Y0.7216  
G01 X-1.6716 Y0.7248  
G01 X-1.6700 Y0.7277  
G01 X-1.6550 Y0.7427  
G01 X-1.6527 Y0.7450  
G01 X-1.6498 Y0.7466  
G01 X-1.6466 Y0.7475  
G01 X-1.6357 Y0.7475  
G01 X-1.6351 Y0.7504  
G01 X-1.6325 Y0.7568  
G01 X-1.6286 Y0.7626  
G01 X-1.6236 Y0.7676  
G01 X-1.6178 Y0.7715  
G01 X-1.6114 Y0.7741  
G01 X-1.6045 Y0.7755  
G01 X-1.5355 Y0.7755  
G01 X-1.5286 Y0.7741  
G01 X-1.5222 Y0.7715  
G01 X-1.5164 Y0.7676  
G01 X-1.5114 Y0.7626  
G01 X-1.5075 Y0.7568  
G01 X-1.5075 Y0.7770  
G01 X-1.5077 Y0.7775  
G01 X-1.6316 Y0.7775  
G01 X-1.6348 Y0.7784  
G01 X-1.6377 Y0.7800  
G01 X-1.6577 Y0.8000  
G01 X-1.6600 Y0.8023  
G01 X-1.6616 Y0.8052  
G01 X-1.6625 Y0.8084  
G01 X-1.6625 Y0.8616  
G01 X-1.6616 Y0.8648  
G01 X-1.6600 Y0.8677  
G01 X-1.6300 Y0.8977  
G01 X-1.6277 Y0.9000  
G01 X-1.6248 Y0.9016  
G01 X-1.6216 Y0.9025  
G01 X-1.4914 Y0.9025  
G01 X-1.4911 Y0.9026  
G01 X-1.4897 Y0.9025  
G01 X-1.4884 Y0.9025  
G01 X-1.4881 Y0.9024  
G01 X-1.4878 Y0.9024  
G01 X-1.4865 Y0.9020  
G01 X-1.4852 Y0.9016  
G01 X-1.4849 Y0.9015  
G01 X-1.4847 Y0.9014  
G01 X-1.4835 Y0.9007  
G01 X-1.4823 Y0.9000  
G01 X-1.4821 Y0.8998  
G01 X-1.4819 Y0.8997  
G01 X-1.4810 Y0.8986  
G01 X-1.4800 Y0.8977  
G01 X-1.4799 Y0.8974  
G01 X-1.4260 Y0.8386  
G01 X-1.4250 Y0.8377  
G01 X-1.4249 Y0.8374  
G01 X-1.4247 Y0.8372  
G01 X-1.4240 Y0.8360  
G01 X-1.4234 Y0.8348  
G01 X-1.4233 Y0.8346  
G01 X-1.4232 Y0.8343  
G01 X-1.4229 Y0.8330  
G01 X-1.4225 Y0.8316  
G01 X-1.4225 Y0.8314  
G01 X-1.4224 Y0.8311  
G01 X-1.4225 Y0.8297  
G01 X-1.4225 Y0.6209  
G01 X-1.4224 Y0.6201  
G01 X-1.4225 Y0.6192  
G01 X-1.4225 Y0.6184  
G01 X-1.4227 Y0.6176  
G01 X-1.4228 Y0.6169  
G01 X-1.4231 Y0.6160  
G01 X-1.4234 Y0.6152  
G01 X-1.4237 Y0.6145  
G01 X-1.4240 Y0.6138  
G01 X-1.4246 Y0.6131  
G01 X-1.4250 Y0.6123  
G01 X-1.4255 Y0.6118  
G01 X-1.4375 Y0.5958  
G01 X-1.4375 Y0.1752  
G01 X-1.4148 Y0.1525  
G01 X-0.6152 Y0.1525  
G01 X-0.3925 Y0.3752  
G01 X-0.3925 Y0.4116  
G01 X-0.3916 Y0.4148  
G01 X-0.3900 Y0.4177  
G01 X-0.3268 Y0.4809  
G01 X-0.3295 Y0.4836  
G01 X-0.3295 Y0.5164  
G01 X-0.3084 Y0.5375  
G01 X-0.3298 Y0.5375  
G01 X-0.5150 Y0.3523  
G01 X-0.5173 Y0.3500  
G01 X-0.5202 Y0.3484  
G01 X-0.5234 Y0.3475  
G01 X-0.6498 Y0.3475  
G01 X-0.6950 Y0.3023  
G01 X-0.6973 Y0.3000  
G01 X-0.7002 Y0.2984  
G01 X-0.7034 Y0.2975  
G01 X-0.9748 Y0.2975  
G01 X-1.0023 Y0.2700  
G01 X-1.0052 Y0.2684  
G01 X-1.0084 Y0.2675  
G01 X-1.0335 Y0.2675  
G01 X-1.0335 Y0.2665  
G01 X-1.0349 Y0.2596  
G01 X-1.0375 Y0.2532  
G01 X-1.0414 Y0.2474  
G01 X-1.0464 Y0.2424  
G01 X-1.0522 Y0.2385  
G01 X-1.0586 Y0.2359  
G01 X-1.0655 Y0.2345  
G01 X-1.1345 Y0.2345  
G01 X-1.1414 Y0.2359  
G01 X-1.1478 Y0.2385  
G01 X-1.1536 Y0.2424  
G01 X-1.1586 Y0.2474  
G01 X-1.1625 Y0.2532  
G01 X-1.1651 Y0.2596  
G01 X-1.1665 Y0.2665  
G01 X-1.1665 Y0.2735  
G01 X-1.1656 Y0.2779  
G01 X-1.2089 Y0.3212  
G01 X-1.2114 Y0.3174  
G01 X-1.2164 Y0.3124  
G01 X-1.2222 Y0.3085  
G01 X-1.2286 Y0.3059  
G01 X-1.2355 Y0.3045  
G01 X-1.2475 Y0.3045  
G01 X-1.2475 Y0.2577  
G01 X-1.2345 Y0.2447  
G01 X-1.2345 Y0.2153  
G01 X-1.2553 Y0.1945  
G01 X-1.2847 Y0.1945  
G01 X-1.3055 Y0.2153  
G01 X-1.3055 Y0.2447  
G01 X-1.2847 Y0.2655  
G01 X-1.2725 Y0.2655  
G01 X-1.2725 Y0.3045  
G01 X-1.3045 Y0.3045  
G01 X-1.3114 Y0.3059  
G01 X-1.3178 Y0.3085  
G01 X-1.3236 Y0.3124  
G01 X-1.3286 Y0.3174  
G01 X-1.3325 Y0.3232  
G01 X-1.3351 Y0.3296  
G01 X-1.3365 Y0.3365  
G01 X-1.3365 Y0.3435  
G01 X-1.3351 Y0.3504  
G01 X-1.3325 Y0.3568  
G01 X-1.3286 Y0.3626  
G01 X-1.3236 Y0.3676  
G01 X-1.3178 Y0.3715  
G01 X-1.3114 Y0.3741  
G01 X-1.3045 Y0.3755  
G01 X-1.2355 Y0.3755  
G01 X-1.2286 Y0.3741  
G01 X-1.2222 Y0.3715  
G01 X-1.2164 Y0.3676  
G01 X-1.2114 Y0.3626  
G01 X-1.2075 Y0.3568  
G01 X-1.2064 Y0.3541  
G01 X-1.1514 Y0.2991  
G01 X-1.1478 Y0.3015  
G01 X-1.1414 Y0.3041  
G01 X-1.1345 Y0.3055  
G01 X-1.0655 Y0.3055  
G01 X-1.0586 Y0.3041  
G01 X-1.0522 Y0.3015  
G01 X-1.0464 Y0.2976  
G01 X-1.0414 Y0.2926  
G01 X-1.0413 Y0.2925  
G01 X-1.0152 Y0.2925  
G01 X-0.9877 Y0.3200  
G01 X-0.9848 Y0.3216  
G01 X-0.9816 Y0.3225  
G01 X-0.9375 Y0.3225  
G01 X-0.9375 Y0.4216  
G01 X-0.9366 Y0.4248  
G01 X-0.9350 Y0.4277  
G01 X-0.9327 Y0.4300  
G01 X-0.9298 Y0.4316  
G01 X-0.9266 Y0.4325  
G01 X-0.8202 Y0.4325  
G01 X-0.6825 Y0.5702  
G01 X-0.6825 Y0.6848  
G01 X-0.7526 Y0.7549  
G01 X-0.7593 Y0.7536  
G01 X-0.7663 Y0.7536  
G01 X-0.7731 Y0.7549  
G01 X-0.7796 Y0.7576  
G01 X-0.7854 Y0.7615  
G01 X-0.7903 Y0.7664  
G01 X-0.7942 Y0.7722  
G01 X-0.7969 Y0.7787  
G01 X-0.7983 Y0.7856  
G01 X-0.7983 Y0.8546  
G01 X-0.7969 Y0.8614  
G01 X-0.7942 Y0.8679  
G01 X-0.7903 Y0.8737  
G01 X-0.7854 Y0.8786  
G01 X-0.7796 Y0.8825  
G01 X-0.7731 Y0.8852  
G01 X-0.7663 Y0.8866  
G01 X-0.7593 Y0.8866  
G01 X-0.7524 Y0.8852  
G01 X-0.7459 Y0.8825  
G01 X-0.7401 Y0.8786  
G01 X-0.7352 Y0.8737  
G01 X-0.7313 Y0.8679  
G01 X-0.7286 Y0.8614  
G01 X-0.7273 Y0.8546  
G01 X-0.7273 Y0.7856  
G01 X-0.7286 Y0.7787  
G01 X-0.7313 Y0.7722  
G01 X-0.7326 Y0.7703  
G01 X-0.6600 Y0.6977  
G01 X-0.6584 Y0.6948  
G01 X-0.6575 Y0.6916  
G01 X-0.6575 Y0.5634  
G01 X-0.6584 Y0.5602  
G01 X-0.6600 Y0.5573  
G01 X-0.8050 Y0.4123  
G01 X-0.8073 Y0.4100  
G01 X-0.8102 Y0.4084  
G01 X-0.8134 Y0.4075  
G01 X-0.9125 Y0.4075  
G01 X-0.9125 Y0.3225  
G01 X-0.7102 Y0.3225  
G01 X-0.6627 Y0.3700  
G01 X-0.6598 Y0.3716  
G01 X-0.6566 Y0.3725  
G01 X-0.5302 Y0.3725  
G01 X-0.3427 Y0.5600  
G01 X-0.3398 Y0.5616  
G01 X-0.3366 Y0.5625  
G01 X-0.3084 Y0.5625  
G01 X-0.3295 Y0.5836  
G01 X-0.3295 Y0.6164  
G01 X-0.3084 Y0.6375  
G01 X-0.3348 Y0.6375  
G01 X-0.4675 Y0.5048  
G01 X-0.4675 Y0.5034  
G01 X-0.4684 Y0.5002  
G01 X-0.4700 Y0.4973  
G01 X-0.5450 Y0.4223  
G01 X-0.5473 Y0.4200  
G01 X-0.5502 Y0.4184  
G01 X-0.5534 Y0.4175  
G01 X-0.6898 Y0.4175  
G01 X-0.7336 Y0.3738  
G01 X-0.7335 Y0.3735  
G01 X-0.7335 Y0.3665  
G01 X-0.7349 Y0.3596  
G01 X-0.7375 Y0.3532  
G01 X-0.7414 Y0.3474  
G01 X-0.7464 Y0.3424  
G01 X-0.7522 Y0.3385  
G01 X-0.7586 Y0.3359  
G01 X-0.7655 Y0.3345  
G01 X-0.8345 Y0.3345  
G01 X-0.8414 Y0.3359  
G01 X-0.8478 Y0.3385  
G01 X-0.8536 Y0.3424  
G01 X-0.8586 Y0.3474  
G01 X-0.8625 Y0.3532  
G01 X-0.8651 Y0.3596  
G01 X-0.8665 Y0.3665  
G01 X-0.8665 Y0.3735  
G01 X-0.8651 Y0.3804  
G01 X-0.8625 Y0.3868  
G01 X-0.8586 Y0.3926  
G01 X-0.8536 Y0.3976  
G01 X-0.8478 Y0.4015  
G01 X-0.8414 Y0.4041  
G01 X-0.8345 Y0.4055  
G01 X-0.7655 Y0.4055  
G01 X-0.7586 Y0.4041  
G01 X-0.7522 Y0.4015  
G01 X-0.7464 Y0.3976  
G01 X-0.7457 Y0.3969  
G01 X-0.7027 Y0.4400  
G01 X-0.6998 Y0.4416  
G01 X-0.6966 Y0.4425  
G01 X-0.5602 Y0.4425  
G01 X-0.4925 Y0.5102  
G01 X-0.4925 Y0.5116  
G01 X-0.4916 Y0.5148  
G01 X-0.4900 Y0.5177  
G01 X-0.4877 Y0.5200  
G01 X-0.3477 Y0.6600  
G01 X-0.3448 Y0.6616  
G01 X-0.3416 Y0.6625  
G01 X-0.3084 Y0.6625  
G01 X-0.3295 Y0.6836  
G01 X-0.3295 Y0.7164  
G01 X-0.3084 Y0.7375  
G01 X-0.3516 Y0.7375  
G01 X-0.3548 Y0.7384  
G01 X-0.3577 Y0.7400  
G01 X-0.5052 Y0.8875  
G01 X-1.1448 Y0.8875  
G01 X-1.2000 Y0.8323  
G01 X-1.2023 Y0.8300  
G01 X-1.2052 Y0.8284  
G01 X-1.2054 Y0.8283  
G01 X-1.2075 Y0.8232  
G01 X-1.2114 Y0.8174  
G01 X-1.2164 Y0.8124  
G01 X-1.2222 Y0.8085  
G01 X-1.2286 Y0.8059  
G01 X-1.2355 Y0.8045  
G01 X-1.3045 Y0.8045  
G01 X-1.3114 Y0.8059  
G01 X-1.3178 Y0.8085  
G01 X-1.3236 Y0.8124  
G01 X-1.3286 Y0.8174  
G01 X-1.3325 Y0.8232  
G01 X-1.3325 Y0.8102  
G01 X-1.3248 Y0.8025  
G01 X-1.2002 Y0.8025  
G01 X-1.1750 Y0.8277  
G01 X-1.1727 Y0.8300  
G01 X-1.1698 Y0.8316  
G01 X-1.1666 Y0.8325  
G01 X-0.9557 Y0.8325  
G01 X-0.9557 Y0.8546  
G01 X-0.9544 Y0.8614  
G01 X-0.9517 Y0.8679  
G01 X-0.9478 Y0.8737  
G01 X-0.9429 Y0.8786  
G01 X-0.9371 Y0.8825  
G01 X-0.9306 Y0.8852  
G01 X-0.9237 Y0.8866  
G01 X-0.9167 Y0.8866  
G01 X-0.9099 Y0.8852  
G01 X-0.9034 Y0.8825  
G01 X-0.8976 Y0.8786  
G01 X-0.8927 Y0.8737  
G01 X-0.8888 Y0.8679  
G01 X-0.8861 Y0.8614  
G01 X-0.8847 Y0.8546  
G01 X-0.8847 Y0.7856  
G01 X-0.8861 Y0.7787  
G01 X-0.8888 Y0.7722  
G01 X-0.8927 Y0.7664  
G01 X-0.8976 Y0.7615  
G01 X-0.9034 Y0.7576  
G01 X-0.9099 Y0.7549  
G01 X-0.9167 Y0.7536  
G01 X-0.9237 Y0.7536  
G01 X-0.9306 Y0.7549  
G01 X-0.9371 Y0.7576  
G01 X-0.9429 Y0.7615  
G01 X-0.9478 Y0.7664  
G01 X-0.9517 Y0.7722  
G01 X-0.9544 Y0.7787  
G01 X-0.9557 Y0.7856  
G01 X-0.9557 Y0.8075  
G01 X-1.1598 Y0.8075  
G01 X-1.1873 Y0.7800  
G01 X-1.1902 Y0.7784  
G01 X-1.1934 Y0.7775  
G01 X-1.3316 Y0.7775  
G01 X-1.3348 Y0.7784  
G01 X-1.3377 Y0.7800  
G01 X-1.3400 Y0.7823  
G01 X-1.3550 Y0.7973  
G01 X-1.3566 Y0.8002  
G01 X-1.3575 Y0.8034  
G01 X-1.3575 Y0.9798  
G01 X-1.5000 Y1.1223  
G01 X-1.5016 Y1.1252  
G01 X-1.5025 Y1.1284  
G01 X-1.5025 Y1.1345  
G01 X-1.5047 Y1.1345  
G01 X-1.5255 Y1.1553  
G01 X-1.5255 Y1.1847  
G01 X-1.5239 Y1.1863  
G01 X-1.5252 Y1.1875  
G01 X-1.7096 Y1.1875  
G01 X-1.7109 Y1.1874  
G01 X-1.7113 Y1.1875  
G01 X-1.7116 Y1.1875  
G01 X-1.7129 Y1.1878  
G01 X-1.7141 Y1.1881  
G01 X-1.7145 Y1.1883  
G01 X-1.7191 Y1.1838  
G01 X-1.7251 Y1.1794  
G01 X-1.7318 Y1.1760  
G01 X-1.7389 Y1.1737  
G01 X-1.7463 Y1.1725  
G01 X-1.7537 Y1.1725  
G01 X-1.7611 Y1.1737  
G01 X-1.7682 Y1.1760  
G01 X-1.7749 Y1.1794  
G01 X-1.7809 Y1.1838  
G01 X-1.7862 Y1.1891  
G01 X-1.7906 Y1.1951  
G01 X-1.7940 Y1.2018  
G01 X-1.7963 Y1.2089  
G01 X-1.7975 Y1.2163  
G01 X-1.7975 Y1.2237  
G01 X-1.7963 Y1.2311  
G01 X-1.7940 Y1.2382  
G01 X-1.7906 Y1.2449  
G01 X-1.7862 Y1.2509  
G01 X-1.7809 Y1.2562  
G01 X-1.7749 Y1.2606  
G01 X-1.7682 Y1.2640  
G01 X-1.7611 Y1.2663  
G01 X-1.7537 Y1.2675  
G01 X-1.7463 Y1.2675  
G01 X-1.7389 Y1.2663  
G01 X-1.7318 Y1.2640  
G01 X-1.7251 Y1.2606  
G01 X-1.7191 Y1.2562  
G01 X-1.7138 Y1.2509  
G01 X-1.7094 Y1.2449  
G01 X-1.7060 Y1.2382  
G01 X-1.7037 Y1.2311  
G01 X-1.7025 Y1.2237  
G01 X-1.7025 Y1.2163  
G01 X-1.7031 Y1.2125  
G01 X-1.5184 Y1.2125  
G01 X-1.5152 Y1.2116  
G01 X-1.5123 Y1.2100  
G01 X-1.5100 Y1.2077  
G01 X-1.5063 Y1.2039  
G01 X-1.5047 Y1.2055  
G01 X-1.4753 Y1.2055  
G01 X-1.4545 Y1.1847  
G01 X-1.4545 Y1.1553  
G01 X-1.4753 Y1.1345  
G01 X-1.4768 Y1.1345  
G01 X-1.3442 Y1.0018  
G01 X-1.3416 Y1.0025  
G01 X-0.5455 Y1.0025  
G01 X-0.5455 Y1.0147  
G01 X-0.5247 Y1.0355  
G01 X-0.4953 Y1.0355  
G01 X-0.4745 Y1.0147  
G01 X-0.4745 Y0.9853  
G01 X-0.4953 Y0.9645  
G01 X-0.5247 Y0.9645  
G01 X-0.5377 Y0.9775  
G01 X-1.3325 Y0.9775  
G01 X-1.3325 Y0.9567  
G01 X-1.3286 Y0.9626  
G01 X-1.3236 Y0.9676  
G01 X-1.3178 Y0.9715  
G01 X-1.3114 Y0.9741  
G01 X-1.3045 Y0.9755  
G01 X-1.2355 Y0.9755  
G01 X-1.2286 Y0.9741  
G01 X-1.2222 Y0.9715  
G01 X-1.2164 Y0.9676  
G01 X-1.2114 Y0.9626  
G01 X-1.2075 Y0.9568  
G01 X-1.2058 Y0.9525  
G01 X-0.4664 Y0.9525  
G01 X-0.4662 Y0.9526  
G01 X-0.4648 Y0.9525  
G01 X-0.4634 Y0.9525  
G01 X-0.4631 Y0.9524  
G01 X-0.4629 Y0.9524  
G01 X-0.4615 Y0.9520  
G01 X-0.4602 Y0.9516  
G01 X-0.4600 Y0.9515  
G01 X-0.4597 Y0.9515  
G01 X-0.4585 Y0.9507  
G01 X-0.4573 Y0.9500  
G01 X-0.4572 Y0.9498  
G01 X-0.4570 Y0.9497  
G01 X-0.4560 Y0.9487  
G01 X-0.4550 Y0.9477  
G01 X-0.4549 Y0.9475  
G01 X-0.3295 Y0.8125  
G01 X-0.3295 Y0.8164  
G01 X-0.3064 Y0.8395  
G01 X-0.2736 Y0.8395  
G01 X-0.2505 Y0.8164  
G01 X-0.2505 Y0.7836  
G01 X-0.2716 Y0.7625  
G01 X-0.2452 Y0.7625  
G01 X-0.2268 Y0.7809  
G01 X-0.2295 Y0.7836  
G01 X-0.2295 Y0.8164  
G01 X-0.2084 Y0.8375  
G01 X-0.2416 Y0.8375  
G01 X-0.2448 Y0.8384  
G01 X-0.2477 Y0.8400  
G01 X-0.2709 Y0.8632  
G01 X-0.2736 Y0.8605  
G01 X-0.3064 Y0.8605  
G01 X-0.3295 Y0.8836  
G01 X-0.3295 Y0.9164  
G01 X-0.3084 Y0.9375  
G01 X-0.4316 Y0.9375  
G01 X-0.4348 Y0.9384  
G01 X-0.4377 Y0.9400  
G01 X-0.4400 Y0.9423  
G01 X-0.4700 Y0.9723  
G01 X-0.4716 Y0.9752  
G01 X-0.4725 Y0.9784  
G01 X-0.4725 Y1.0148  
G01 X-0.4952 Y1.0375  
G01 X-1.2035 Y1.0375  
G01 X-1.2035 Y1.0365  
G01 X-1.2049 Y1.0296  
G01 X-1.2075 Y1.0232  
G01 X-1.2114 Y1.0174  
G01 X-1.2164 Y1.0124  
G01 X-1.2222 Y1.0085  
G01 X-1.2286 Y1.0059  
G01 X-1.2355 Y1.0045  
G01 X-1.3045 Y1.0045  
G01 X-1.3114 Y1.0059  
G01 X-1.3178 Y1.0085  
G01 X-1.3236 Y1.0124  
G01 X-1.3286 Y1.0174  
G01 X-1.3325 Y1.0232  
G01 X-1.3351 Y1.0296  
G01 X-1.3365 Y1.0365  
G01 X-1.3365 Y1.0435  
G01 X-1.3351 Y1.0504  
G01 X-1.3325 Y1.0568  
G01 X-1.3286 Y1.0626  
G01 X-1.3236 Y1.0676  
G01 X-1.3178 Y1.0715  
G01 X-1.3114 Y1.0741  
G01 X-1.3045 Y1.0755  
G01 X-1.2355 Y1.0755  
G01 X-1.2286 Y1.0741  
G01 X-1.2222 Y1.0715  
G01 X-1.2164 Y1.0676  
G01 X-1.2114 Y1.0626  
G01 X-1.2113 Y1.0625  
G01 X-0.4884 Y1.0625  
G01 X-0.4852 Y1.0616  
G01 X-0.4823 Y1.0600  
G01 X-0.4523 Y1.0300  
G01 X-0.4500 Y1.0277  
G01 X-0.4484 Y1.0248  
G01 X-0.4475 Y1.0216  
G01 X-0.4475 Y0.9852  
G01 X-0.4248 Y0.9625  
G01 X-0.3084 Y0.9625  
G01 X-0.3234 Y0.9775  
G01 X-0.3823 Y0.9775  
G01 X-0.3953 Y0.9645  
G01 X-0.4247 Y0.9645  
G01 X-0.4455 Y0.9853  
G01 X-0.4455 Y1.0147  
G01 X-0.4339 Y1.0263  
G01 X-0.5052 Y1.0975  
G01 X-1.1616 Y1.0975  
G01 X-1.1648 Y1.0984  
G01 X-1.1677 Y1.1000  
G01 X-1.2053 Y1.1376  
G01 X-1.2103 Y1.1325  
G01 X-1.2497 Y1.1325  
G01 X-1.2647 Y1.1476  
G01 X-1.3000 Y1.1123  
G01 X-1.3023 Y1.1100  
G01 X-1.3052 Y1.1084  
G01 X-1.3084 Y1.1075  
G01 X-1.4216 Y1.1075  
G01 X-1.4248 Y1.1084  
G01 X-1.4277 Y1.1100  
G01 X-1.4477 Y1.1300  
G01 X-1.4500 Y1.1323  
G01 X-1.4516 Y1.1352  
G01 X-1.4525 Y1.1384  
G01 X-1.4525 Y1.2095  
G01 X-1.4547 Y1.2095  
G01 X-1.4755 Y1.2303  
G01 X-1.4755 Y1.2597  
G01 X-1.4739 Y1.2613  
G01 X-1.4902 Y1.2775  
G01 X-1.7648 Y1.2775  
G01 X-1.8075 Y1.2348  
G01 X-1.8075 Y1.1952  
G01 X-1.7747 Y1.1624  
G01 X-1.7697 Y1.1675  
G01 X-1.7303 Y1.1675  
G01 X-1.7025 Y1.1397  
G01 X-1.7025 Y1.1003  
G01 X-1.7303 Y1.0725  
G01 X-1.7697 Y1.0725  
G01 X-1.7975 Y1.1003  
G01 X-1.7975 Y1.1397  
G01 X-1.7924 Y1.1447  
G01 X-1.8252 Y1.1775  
G01 X-2.2948 Y1.1775  
G01 X-2.3975 Y1.0748  
G01 X-2.3975 Y0.9952  
G01 X-2.3548 Y0.9525  
G01 X-2.1952 Y0.9525  
G01 X-2.1125 Y1.0352  
G01 X-2.1125 Y1.0616  
G01 X-2.1116 Y1.0648  
G01 X-2.1100 Y1.0677  
G01 X-2.1077 Y1.0700  
G01 X-2.0477 Y1.1300  
G01 X-2.0448 Y1.1316  
G01 X-2.0416 Y1.1325  
G01 X-1.9684 Y1.1325  
G01 X-1.9652 Y1.1316  
G01 X-1.9623 Y1.1300  
G01 X-1.9600 Y1.1277  
G01 X-1.9100 Y1.0777  
G01 X-1.9084 Y1.0748  
G01 X-1.9075 Y1.0716  
G01 X-1.9075 Y0.9902  
G01 X-1.8848 Y0.9675  
G01 X-1.7352 Y0.9675  
G01 X-1.6727 Y1.0300  
G01 X-1.6698 Y1.0316  
G01 X-1.6666 Y1.0325  
G01 X-1.6357 Y1.0325  
G01 X-1.6365 Y1.0365  
G01 X-1.6365 Y1.0435  
G01 X-1.6351 Y1.0504  
G01 X-1.6325 Y1.0568  
G01 X-1.6286 Y1.0626  
G01 X-1.6236 Y1.0676  
G01 X-1.6178 Y1.0715  
G01 X-1.6114 Y1.0741  
G01 X-1.6045 Y1.0755  
G01 X-1.5355 Y1.0755  
G01 X-1.5286 Y1.0741  
G01 X-1.5222 Y1.0715  
G01 X-1.5164 Y1.0676  
G01 X-1.5114 Y1.0626  
G01 X-1.5075 Y1.0568  
G01 X-1.5049 Y1.0504  
G01 X-1.5035 Y1.0435  
G01 X-1.5035 Y1.0365  
G01 X-1.5045 Y1.0313  
G01 X-1.5036 Y1.0308  
G01 X-1.5023 Y1.0300  
G01 X-1.5022 Y1.0299  
G01 X-1.5021 Y1.0298  
G01 X-1.5011 Y1.0287  
G01 X-1.5000 Y1.0277  
G01 X-1.4999 Y1.0275  
G01 X-1.3961 Y0.9187  
G01 X-1.3950 Y0.9177  
G01 X-1.3949 Y0.9175  
G01 X-1.3948 Y0.9174  
G01 X-1.3941 Y0.9161  
G01 X-1.3934 Y0.9148  
G01 X-1.3933 Y0.9147  
G01 X-1.3932 Y0.9146  
G01 X-1.3929 Y0.9131  
G01 X-1.3925 Y0.9116  
G01 X-1.3925 Y0.9115  
G01 X-1.3925 Y0.9114  
G01 X-1.3925 Y0.9099  
G01 X-1.3925 Y0.5501  
G01 X-1.3923 Y0.5500  
G01 X-1.3900 Y0.5477  
G01 X-1.3884 Y0.5448  
G01 X-1.3875 Y0.5416  
G01 X-1.3875 Y0.5384  
G01 X-1.3884 Y0.5352  
G01 X-1.3900 Y0.5323  
G01 X-1.3925 Y0.5298  
G01 X-1.3925 Y0.5025  
G01 X-0.8902 Y0.5025  
G01 X-0.8163 Y0.5764  
G01 X-0.8189 Y0.5775  
G01 X-0.8248 Y0.5814  
G01 X-0.8297 Y0.5863  
G01 X-0.8336 Y0.5921  
G01 X-0.8363 Y0.5986  
G01 X-0.8376 Y0.6054  
G00 Z0.1000  
G00 X-0.8060 Y0.8546  
G01 Z-0.0070 F10    
G01 X-0.8060 Y0.7856  F20    
G01 X-0.8074 Y0.7787  
G01 X-0.8100 Y0.7722  
G01 X-0.8139 Y0.7664  
G01 X-0.8189 Y0.7615  
G01 X-0.8247 Y0.7576  
G01 X-0.8311 Y0.7549  
G01 X-0.8325 Y0.7546  
G01 X-0.8325 Y0.7534  
G01 X-0.8334 Y0.7502  
G01 X-0.8350 Y0.7473  
G01 X-0.8373 Y0.7450  
G01 X-0.8673 Y0.7150  
G01 X-0.8702 Y0.7134  
G01 X-0.8734 Y0.7125  
G01 X-0.9098 Y0.7125  
G01 X-0.9423 Y0.6800  
G01 X-0.9452 Y0.6784  
G01 X-0.9484 Y0.6775  
G01 X-1.3248 Y0.6775  
G01 X-1.3475 Y0.6548  
G01 X-1.3475 Y0.6152  
G01 X-1.3073 Y0.5749  
G01 X-1.3045 Y0.5755  
G01 X-1.2355 Y0.5755  
G01 X-1.2286 Y0.5741  
G01 X-1.2222 Y0.5715  
G01 X-1.2164 Y0.5676  
G01 X-1.2114 Y0.5626  
G01 X-1.2075 Y0.5568  
G01 X-1.2049 Y0.5504  
G01 X-1.2035 Y0.5435  
G01 X-1.2035 Y0.5365  
G01 X-1.2049 Y0.5296  
G01 X-1.2075 Y0.5232  
G01 X-1.2114 Y0.5174  
G01 X-1.2164 Y0.5124  
G01 X-1.2222 Y0.5085  
G01 X-1.2286 Y0.5059  
G01 X-1.2355 Y0.5045  
G01 X-1.3045 Y0.5045  
G01 X-1.3114 Y0.5059  
G01 X-1.3178 Y0.5085  
G01 X-1.3236 Y0.5124  
G01 X-1.3286 Y0.5174  
G01 X-1.3325 Y0.5232  
G01 X-1.3351 Y0.5296  
G01 X-1.3365 Y0.5365  
G01 X-1.3365 Y0.5435  
G01 X-1.3351 Y0.5504  
G01 X-1.3325 Y0.5568  
G01 X-1.3293 Y0.5616  
G01 X-1.3700 Y0.6023  
G01 X-1.3716 Y0.6052  
G01 X-1.3725 Y0.6084  
G01 X-1.3725 Y0.6616  
G01 X-1.3716 Y0.6648  
G01 X-1.3700 Y0.6677  
G01 X-1.3677 Y0.6700  
G01 X-1.3377 Y0.7000  
G01 X-1.3348 Y0.7016  
G01 X-1.3316 Y0.7025  
G01 X-0.9552 Y0.7025  
G01 X-0.9250 Y0.7327  
G01 X-0.9227 Y0.7350  
G01 X-0.9198 Y0.7366  
G01 X-0.9166 Y0.7375  
G01 X-0.8802 Y0.7375  
G01 X-0.8594 Y0.7583  
G01 X-0.8641 Y0.7615  
G01 X-0.8691 Y0.7664  
G01 X-0.8730 Y0.7722  
G01 X-0.8756 Y0.7787  
G01 X-0.8770 Y0.7856  
G01 X-0.8770 Y0.8546  
G01 X-0.8756 Y0.8614  
G01 X-0.8730 Y0.8679  
G01 X-0.8691 Y0.8737  
G01 X-0.8641 Y0.8786  
G01 X-0.8583 Y0.8825  
G01 X-0.8519 Y0.8852  
G01 X-0.8450 Y0.8866  
G01 X-0.8380 Y0.8866  
G01 X-0.8311 Y0.8852  
G01 X-0.8247 Y0.8825  
G01 X-0.8189 Y0.8786  
G01 X-0.8139 Y0.8737  
G01 X-0.8100 Y0.8679  
G01 X-0.8074 Y0.8614  
G01 X-0.8060 Y0.8546  
G00 Z0.1000  
G00 X-0.7589 Y0.6054  
G01 Z-0.0070 F10    
G01 X-0.7589 Y0.6744  F20    
G01 X-0.7575 Y0.6813  
G01 X-0.7548 Y0.6878  
G01 X-0.7510 Y0.6936  
G01 X-0.7460 Y0.6985  
G01 X-0.7402 Y0.7024  
G01 X-0.7337 Y0.7051  
G01 X-0.7269 Y0.7064  
G01 X-0.7199 Y0.7064  
G01 X-0.7130 Y0.7051  
G01 X-0.7066 Y0.7024  
G01 X-0.7008 Y0.6985  
G01 X-0.6958 Y0.6936  
G01 X-0.6919 Y0.6878  
G01 X-0.6893 Y0.6813  
G01 X-0.6879 Y0.6744  
G01 X-0.6879 Y0.6054  
G01 X-0.6893 Y0.5986  
G01 X-0.6919 Y0.5921  
G01 X-0.6958 Y0.5863  
G01 X-0.7008 Y0.5814  
G01 X-0.7066 Y0.5775  
G01 X-0.7075 Y0.5771  
G01 X-0.7075 Y0.5734  
G01 X-0.7084 Y0.5702  
G01 X-0.7100 Y0.5673  
G01 X-0.7123 Y0.5650  
G01 X-0.8373 Y0.4400  
G01 X-0.8402 Y0.4384  
G01 X-0.8434 Y0.4375  
G01 X-1.2035 Y0.4375  
G01 X-1.2035 Y0.4365  
G01 X-1.2049 Y0.4296  
G01 X-1.2075 Y0.4232  
G01 X-1.2114 Y0.4174  
G01 X-1.2164 Y0.4124  
G01 X-1.2222 Y0.4085  
G01 X-1.2286 Y0.4059  
G01 X-1.2355 Y0.4045  
G01 X-1.3045 Y0.4045  
G01 X-1.3114 Y0.4059  
G01 X-1.3178 Y0.4085  
G01 X-1.3236 Y0.4124  
G01 X-1.3286 Y0.4174  
G01 X-1.3325 Y0.4232  
G01 X-1.3351 Y0.4296  
G01 X-1.3365 Y0.4365  
G01 X-1.3365 Y0.4435  
G01 X-1.3351 Y0.4504  
G01 X-1.3325 Y0.4568  
G01 X-1.3286 Y0.4626  
G01 X-1.3236 Y0.4676  
G01 X-1.3178 Y0.4715  
G01 X-1.3114 Y0.4741  
G01 X-1.3045 Y0.4755  
G01 X-1.2355 Y0.4755  
G01 X-1.2286 Y0.4741  
G01 X-1.2222 Y0.4715  
G01 X-1.2164 Y0.4676  
G01 X-1.2114 Y0.4626  
G01 X-1.2113 Y0.4625  
G01 X-0.8502 Y0.4625  
G01 X-0.7367 Y0.5760  
G01 X-0.7402 Y0.5775  
G01 X-0.7460 Y0.5814  
G01 X-0.7510 Y0.5863  
G01 X-0.7548 Y0.5921  
G01 X-0.7575 Y0.5986  
G01 X-0.7589 Y0.6054  
G00 Z0.1000  
G00 X-1.2355 Y0.6045  
G01 Z-0.0070 F10    
G01 X-1.3045 Y0.6045  F20    
G01 X-1.3114 Y0.6059  
G01 X-1.3178 Y0.6085  
G01 X-1.3236 Y0.6124  
G01 X-1.3286 Y0.6174  
G01 X-1.3325 Y0.6232  
G01 X-1.3351 Y0.6296  
G01 X-1.3365 Y0.6365  
G01 X-1.3365 Y0.6435  
G01 X-1.3351 Y0.6504  
G01 X-1.3325 Y0.6568  
G01 X-1.3286 Y0.6626  
G01 X-1.3236 Y0.6676  
G01 X-1.3178 Y0.6715  
G01 X-1.3114 Y0.6741  
G01 X-1.3045 Y0.6755  
G01 X-1.2355 Y0.6755  
G01 X-1.2286 Y0.6741  
G01 X-1.2222 Y0.6715  
G01 X-1.2164 Y0.6676  
G01 X-1.2114 Y0.6626  
G01 X-1.2075 Y0.6568  
G01 X-1.2049 Y0.6504  
G01 X-1.2035 Y0.6435  
G01 X-1.2035 Y0.6425  
G01 X-0.9164 Y0.6425  
G01 X-0.9164 Y0.6744  
G01 X-0.9150 Y0.6813  
G01 X-0.9123 Y0.6878  
G01 X-0.9084 Y0.6936  
G01 X-0.9035 Y0.6985  
G01 X-0.8977 Y0.7024  
G01 X-0.8912 Y0.7051  
G01 X-0.8844 Y0.7064  
G01 X-0.8774 Y0.7064  
G01 X-0.8705 Y0.7051  
G01 X-0.8641 Y0.7024  
G01 X-0.8582 Y0.6985  
G01 X-0.8533 Y0.6936  
G01 X-0.8494 Y0.6878  
G01 X-0.8467 Y0.6813  
G01 X-0.8454 Y0.6744  
G01 X-0.8454 Y0.6054  
G01 X-0.8467 Y0.5986  
G01 X-0.8494 Y0.5921  
G01 X-0.8533 Y0.5863  
G01 X-0.8582 Y0.5814  
G01 X-0.8641 Y0.5775  
G01 X-0.8705 Y0.5748  
G01 X-0.8774 Y0.5734  
G01 X-0.8844 Y0.5734  
G01 X-0.8912 Y0.5748  
G01 X-0.8977 Y0.5775  
G01 X-0.9035 Y0.5814  
G01 X-0.9084 Y0.5863  
G01 X-0.9123 Y0.5921  
G01 X-0.9150 Y0.5986  
G01 X-0.9164 Y0.6054  
G01 X-0.9164 Y0.6175  
G01 X-1.2113 Y0.6175  
G01 X-1.2114 Y0.6174  
G01 X-1.2164 Y0.6124  
G01 X-1.2222 Y0.6085  
G01 X-1.2286 Y0.6059  
G01 X-1.2355 Y0.6045  
G00 Z0.1000  
G00 X-2.3545 Y1.0074  
G01 Z-0.0070 F10    
G01 X-2.3545 Y1.0526  F20    
G01 X-2.3226 Y1.0845  
G01 X-2.2774 Y1.0845  
G01 X-2.2455 Y1.0526  
G01 X-2.2455 Y1.0522  
G01 X-2.1800 Y1.1177  
G01 X-2.1777 Y1.1200  
G01 X-2.1748 Y1.1216  
G01 X-2.1716 Y1.1225  
G01 X-2.1652 Y1.1225  
G01 X-2.1200 Y1.1677  
G01 X-2.1177 Y1.1700  
G01 X-2.1148 Y1.1716  
G01 X-2.1116 Y1.1725  
G01 X-1.9184 Y1.1725  
G01 X-1.9152 Y1.1716  
G01 X-1.9123 Y1.1700  
G01 X-1.7748 Y1.0325  
G01 X-1.7252 Y1.0325  
G01 X-1.6477 Y1.1100  
G01 X-1.6448 Y1.1116  
G01 X-1.6416 Y1.1125  
G01 X-1.5084 Y1.1125  
G01 X-1.5052 Y1.1116  
G01 X-1.5023 Y1.1100  
G01 X-1.5000 Y1.1077  
G01 X-1.4700 Y1.0777  
G01 X-1.4684 Y1.0748  
G01 X-1.4675 Y1.0716  
G01 X-1.4675 Y1.0450  
G01 X-1.3661 Y0.9387  
G01 X-1.3650 Y0.9377  
G01 X-1.3649 Y0.9375  
G01 X-1.3648 Y0.9374  
G01 X-1.3641 Y0.9361  
G01 X-1.3634 Y0.9348  
G01 X-1.3633 Y0.9347  
G01 X-1.3632 Y0.9346  
G01 X-1.3629 Y0.9331  
G01 X-1.3625 Y0.9316  
G01 X-1.3625 Y0.9315  
G01 X-1.3625 Y0.9314  
G01 X-1.3625 Y0.9299  
G01 X-1.3625 Y0.7757  
G01 X-1.3354 Y0.7525  
G01 X-1.3342 Y0.7525  
G01 X-1.3325 Y0.7568  
G01 X-1.3286 Y0.7626  
G01 X-1.3236 Y0.7676  
G01 X-1.3178 Y0.7715  
G01 X-1.3114 Y0.7741  
G01 X-1.3045 Y0.7755  
G01 X-1.2355 Y0.7755  
G01 X-1.2286 Y0.7741  
G01 X-1.2222 Y0.7715  
G01 X-1.2164 Y0.7676  
G01 X-1.2114 Y0.7626  
G01 X-1.2075 Y0.7568  
G01 X-1.2049 Y0.7504  
G01 X-1.2035 Y0.7435  
G01 X-1.2035 Y0.7365  
G01 X-1.2049 Y0.7296  
G01 X-1.2075 Y0.7232  
G01 X-1.2114 Y0.7174  
G01 X-1.2164 Y0.7124  
G01 X-1.2222 Y0.7085  
G01 X-1.2286 Y0.7059  
G01 X-1.2355 Y0.7045  
G01 X-1.3045 Y0.7045  
G01 X-1.3114 Y0.7059  
G01 X-1.3178 Y0.7085  
G01 X-1.3236 Y0.7124  
G01 X-1.3286 Y0.7174  
G01 X-1.3325 Y0.7232  
G01 X-1.3342 Y0.7275  
G01 X-1.3395 Y0.7275  
G01 X-1.3407 Y0.7274  
G01 X-1.3412 Y0.7275  
G01 X-1.3416 Y0.7275  
G01 X-1.3428 Y0.7278  
G01 X-1.3439 Y0.7280  
G01 X-1.3444 Y0.7282  
G01 X-1.3448 Y0.7284  
G01 X-1.3458 Y0.7289  
G01 X-1.3469 Y0.7294  
G01 X-1.3473 Y0.7298  
G01 X-1.3477 Y0.7300  
G01 X-1.3485 Y0.7308  
G01 X-1.3823 Y0.7598  
G01 X-1.3827 Y0.7600  
G01 X-1.3835 Y0.7608  
G01 X-1.3844 Y0.7616  
G01 X-1.3847 Y0.7620  
G01 X-1.3850 Y0.7623  
G01 X-1.3856 Y0.7633  
G01 X-1.3862 Y0.7643  
G01 X-1.3864 Y0.7648  
G01 X-1.3866 Y0.7652  
G01 X-1.3869 Y0.7663  
G01 X-1.3873 Y0.7674  
G01 X-1.3874 Y0.7679  
G01 X-1.3875 Y0.7684  
G01 X-1.3875 Y0.7695  
G01 X-1.3876 Y0.7707  
G01 X-1.3875 Y0.7712  
G01 X-1.3875 Y0.9250  
G01 X-1.4889 Y1.0313  
G01 X-1.4900 Y1.0323  
G01 X-1.4901 Y1.0325  
G01 X-1.4902 Y1.0326  
G01 X-1.4909 Y1.0339  
G01 X-1.4916 Y1.0352  
G01 X-1.4917 Y1.0353  
G01 X-1.4918 Y1.0354  
G01 X-1.4921 Y1.0369  
G01 X-1.4925 Y1.0384  
G01 X-1.4925 Y1.0385  
G01 X-1.4925 Y1.0386  
G01 X-1.4925 Y1.0401  
G01 X-1.4925 Y1.0648  
G01 X-1.5152 Y1.0875  
G01 X-1.6348 Y1.0875  
G01 X-1.7100 Y1.0123  
G01 X-1.7123 Y1.0100  
G01 X-1.7152 Y1.0084  
G01 X-1.7184 Y1.0075  
G01 X-1.7816 Y1.0075  
G01 X-1.7848 Y1.0084  
G01 X-1.7877 Y1.0100  
G01 X-1.9252 Y1.1475  
G01 X-2.1048 Y1.1475  
G01 X-2.1500 Y1.1023  
G01 X-2.1523 Y1.1000  
G01 X-2.1552 Y1.0984  
G01 X-2.1584 Y1.0975  
G01 X-2.1648 Y1.0975  
G01 X-2.2400 Y1.0223  
G01 X-2.2423 Y1.0200  
G01 X-2.2452 Y1.0184  
G01 X-2.2455 Y1.0183  
G01 X-2.2455 Y1.0074  
G01 X-2.2774 Y0.9755  
G01 X-2.3226 Y0.9755  
G01 X-2.3545 Y1.0074  
G00 Z0.1000  
G00 X-0.2188 Y0.3659  
G01 Z-0.0070 F10    
G01 X-0.2232 Y0.3702  F20    
G01 X-0.2237 Y0.3682  
G01 X-0.2260 Y0.3643  
G01 X-0.5228 Y0.0675  
G01 X-0.5172 Y0.0675  
G01 X-0.2188 Y0.3659  
G00 Z0.1000  
G00 X-2.3595 Y1.0054  
G01 Z-0.0070 F10    
G01 X-2.3595 Y1.0546  F20    
G01 X-2.3246 Y1.0895  
G01 X-2.2754 Y1.0895  
G01 X-2.2453 Y1.0594  
G01 X-2.1840 Y1.1207  
G01 X-2.1807 Y1.1240  
G01 X-2.1768 Y1.1263  
G01 X-2.1723 Y1.1275  
G01 X-2.1672 Y1.1275  
G01 X-2.1240 Y1.1707  
G01 X-2.1222 Y1.1725  
G01 X-2.2928 Y1.1725  
G01 X-2.3925 Y1.0728  
G01 X-2.3925 Y0.9972  
G01 X-2.3528 Y0.9575  
G01 X-2.1972 Y0.9575  
G01 X-2.1175 Y1.0372  
G01 X-2.1175 Y1.0623  
G01 X-2.1163 Y1.0668  
G01 X-2.1140 Y1.0707  
G01 X-2.1107 Y1.0740  
G01 X-2.0507 Y1.1340  
G01 X-2.0468 Y1.1363  
G01 X-2.0423 Y1.1375  
G01 X-1.9677 Y1.1375  
G01 X-1.9632 Y1.1363  
G01 X-1.9593 Y1.1340  
G01 X-1.9560 Y1.1307  
G01 X-1.9060 Y1.0807  
G01 X-1.9037 Y1.0768  
G01 X-1.9025 Y1.0723  
G01 X-1.9025 Y0.9922  
G01 X-1.8828 Y0.9725  
G01 X-1.7372 Y0.9725  
G01 X-1.6757 Y1.0340  
G01 X-1.6718 Y1.0363  
G01 X-1.6673 Y1.0375  
G01 X-1.6415 Y1.0375  
G01 X-1.6415 Y1.0440  
G01 X-1.6399 Y1.0518  
G01 X-1.6369 Y1.0592  
G01 X-1.6325 Y1.0658  
G01 X-1.6268 Y1.0715  
G01 X-1.6202 Y1.0759  
G01 X-1.6128 Y1.0789  
G01 X-1.6050 Y1.0805  
G01 X-1.5350 Y1.0805  
G01 X-1.5272 Y1.0789  
G01 X-1.5198 Y1.0759  
G01 X-1.5132 Y1.0715  
G01 X-1.5075 Y1.0658  
G01 X-1.5031 Y1.0592  
G01 X-1.5001 Y1.0518  
G01 X-1.4985 Y1.0440  
G01 X-1.4985 Y1.0360  
G01 X-1.4989 Y1.0338  
G01 X-1.4975 Y1.0322  
G01 X-1.4960 Y1.0307  
G01 X-1.4959 Y1.0306  
G01 X-1.3925 Y0.9222  
G01 X-1.3925 Y0.9230  
G01 X-1.4925 Y1.0278  
G01 X-1.4940 Y1.0293  
G01 X-1.4941 Y1.0294  
G01 X-1.4942 Y1.0296  
G01 X-1.4953 Y1.0314  
G01 X-1.4963 Y1.0332  
G01 X-1.4964 Y1.0334  
G01 X-1.4965 Y1.0336  
G01 X-1.4970 Y1.0357  
G01 X-1.4975 Y1.0377  
G01 X-1.4975 Y1.0379  
G01 X-1.4975 Y1.0381  
G01 X-1.4975 Y1.0402  
G01 X-1.4975 Y1.0628  
G01 X-1.5172 Y1.0825  
G01 X-1.6328 Y1.0825  
G01 X-1.7060 Y1.0093  
G01 X-1.7093 Y1.0060  
G01 X-1.7132 Y1.0037  
G01 X-1.7177 Y1.0025  
G01 X-1.7823 Y1.0025  
G01 X-1.7868 Y1.0037  
G01 X-1.7907 Y1.0060  
G01 X-1.9272 Y1.1425  
G01 X-2.1028 Y1.1425  
G01 X-2.1460 Y1.0993  
G01 X-2.1493 Y1.0960  
G01 X-2.1532 Y1.0937  
G01 X-2.1577 Y1.0925  
G01 X-2.1628 Y1.0925  
G01 X-2.2360 Y1.0193  
G01 X-2.2393 Y1.0160  
G01 X-2.2405 Y1.0153  
G01 X-2.2405 Y1.0054  
G01 X-2.2754 Y0.9705  
G01 X-2.3246 Y0.9705  
G01 X-2.3595 Y1.0054  
G00 Z0.1000  
G00 X-1.9026 Y0.2843  
G01 Z-0.0070 F10    
G01 X-1.9002 Y0.2859  F20    
G01 X-1.8928 Y0.2889  
G01 X-1.8850 Y0.2905  
G01 X-1.8150 Y0.2905  
G01 X-1.8144 Y0.2904  
G01 X-1.6507 Y0.4540  
G01 X-1.6468 Y0.4563  
G01 X-1.6423 Y0.4575  
G01 X-1.6376 Y0.4575  
G01 X-1.6369 Y0.4592  
G01 X-1.6325 Y0.4658  
G01 X-1.6268 Y0.4715  
G01 X-1.6202 Y0.4759  
G01 X-1.6128 Y0.4789  
G01 X-1.6050 Y0.4805  
G01 X-1.5350 Y0.4805  
G01 X-1.5272 Y0.4789  
G01 X-1.5198 Y0.4759  
G01 X-1.5132 Y0.4715  
G01 X-1.5075 Y0.4658  
G01 X-1.5075 Y0.5142  
G01 X-1.5132 Y0.5085  
G01 X-1.5198 Y0.5041  
G01 X-1.5272 Y0.5011  
G01 X-1.5350 Y0.4995  
G01 X-1.6050 Y0.4995  
G01 X-1.6128 Y0.5011  
G01 X-1.6202 Y0.5041  
G01 X-1.6268 Y0.5085  
G01 X-1.6660 Y0.4693  
G01 X-1.6693 Y0.4660  
G01 X-1.6732 Y0.4637  
G01 X-1.6777 Y0.4625  
G01 X-1.7602 Y0.4625  
G01 X-1.7832 Y0.4395  
G01 X-1.8058 Y0.4395  
G01 X-1.8325 Y0.4128  
G01 X-1.8325 Y0.3905  
G01 X-1.8150 Y0.3905  
G01 X-1.8072 Y0.3889  
G01 X-1.7998 Y0.3859  
G01 X-1.7932 Y0.3815  
G01 X-1.7875 Y0.3758  
G01 X-1.7831 Y0.3692  
G01 X-1.7801 Y0.3618  
G01 X-1.7785 Y0.3540  
G01 X-1.7785 Y0.3460  
G01 X-1.7801 Y0.3382  
G01 X-1.7831 Y0.3308  
G01 X-1.7875 Y0.3242  
G01 X-1.7932 Y0.3185  
G01 X-1.7998 Y0.3141  
G01 X-1.8072 Y0.3111  
G01 X-1.8150 Y0.3095  
G01 X-1.8850 Y0.3095  
G01 X-1.8928 Y0.3111  
G01 X-1.9002 Y0.3141  
G01 X-1.9068 Y0.3185  
G01 X-1.9125 Y0.3242  
G01 X-1.9125 Y0.2929  
G01 X-1.9026 Y0.2843  
G00 Z0.1000  
G00 X-1.9560 Y0.4107  
G01 Z-0.0070 F10    
G01 X-1.9557 Y0.4102  F20    
G01 X-1.9553 Y0.4098  
G01 X-1.9546 Y0.4082  
G01 X-1.9537 Y0.4068  
G01 X-1.9535 Y0.4062  
G01 X-1.9533 Y0.4057  
G01 X-1.9529 Y0.4040  
G01 X-1.9525 Y0.4023  
G01 X-1.9525 Y0.4017  
G01 X-1.9524 Y0.4011  
G01 X-1.9525 Y0.3994  
G01 X-1.9525 Y0.2280  
G01 X-1.9019 Y0.1847  
G01 X-1.9002 Y0.1859  
G01 X-1.8928 Y0.1889  
G01 X-1.8850 Y0.1905  
G01 X-1.8150 Y0.1905  
G01 X-1.8072 Y0.1889  
G01 X-1.7998 Y0.1859  
G01 X-1.7932 Y0.1815  
G01 X-1.7875 Y0.1758  
G01 X-1.7863 Y0.1740  
G01 X-1.7580 Y0.1768  
G01 X-1.6265 Y0.3083  
G01 X-1.6268 Y0.3085  
G01 X-1.6325 Y0.3142  
G01 X-1.6369 Y0.3208  
G01 X-1.6399 Y0.3282  
G01 X-1.6415 Y0.3360  
G01 X-1.6415 Y0.3440  
G01 X-1.6399 Y0.3518  
G01 X-1.6369 Y0.3592  
G01 X-1.6325 Y0.3658  
G01 X-1.6268 Y0.3715  
G01 X-1.6202 Y0.3759  
G01 X-1.6128 Y0.3789  
G01 X-1.6050 Y0.3805  
G01 X-1.5350 Y0.3805  
G01 X-1.5272 Y0.3789  
G01 X-1.5198 Y0.3759  
G01 X-1.5132 Y0.3715  
G01 X-1.5075 Y0.3658  
G01 X-1.5075 Y0.4142  
G01 X-1.5132 Y0.4085  
G01 X-1.5198 Y0.4041  
G01 X-1.5272 Y0.4011  
G01 X-1.5350 Y0.3995  
G01 X-1.6050 Y0.3995  
G01 X-1.6128 Y0.4011  
G01 X-1.6202 Y0.4041  
G01 X-1.6268 Y0.4085  
G01 X-1.6325 Y0.4142  
G01 X-1.6359 Y0.4193  
G01 X-1.7843 Y0.2710  
G01 X-1.7831 Y0.2692  
G01 X-1.7801 Y0.2618  
G01 X-1.7785 Y0.2540  
G01 X-1.7785 Y0.2460  
G01 X-1.7801 Y0.2382  
G01 X-1.7831 Y0.2308  
G01 X-1.7875 Y0.2242  
G01 X-1.7932 Y0.2185  
G01 X-1.7998 Y0.2141  
G01 X-1.8072 Y0.2111  
G01 X-1.8150 Y0.2095  
G01 X-1.8850 Y0.2095  
G01 X-1.8928 Y0.2111  
G01 X-1.9002 Y0.2141  
G01 X-1.9068 Y0.2185  
G01 X-1.9125 Y0.2242  
G01 X-1.9169 Y0.2308  
G01 X-1.9199 Y0.2382  
G01 X-1.9215 Y0.2460  
G01 X-1.9215 Y0.2540  
G01 X-1.9214 Y0.2543  
G01 X-1.9402 Y0.2707  
G01 X-1.9407 Y0.2710  
G01 X-1.9420 Y0.2722  
G01 X-1.9433 Y0.2733  
G01 X-1.9436 Y0.2738  
G01 X-1.9440 Y0.2743  
G01 X-1.9449 Y0.2757  
G01 X-1.9458 Y0.2772  
G01 X-1.9460 Y0.2777  
G01 X-1.9463 Y0.2782  
G01 X-1.9468 Y0.2799  
G01 X-1.9473 Y0.2815  
G01 X-1.9473 Y0.2821  
G01 X-1.9475 Y0.2827  
G01 X-1.9475 Y0.2844  
G01 X-1.9476 Y0.2861  
G01 X-1.9475 Y0.2867  
G01 X-1.9475 Y0.4502  
G01 X-1.9605 Y0.4632  
G01 X-1.9605 Y0.4968  
G01 X-1.9368 Y0.5205  
G01 X-1.9032 Y0.5205  
G01 X-1.8795 Y0.4968  
G01 X-1.8795 Y0.4632  
G01 X-1.9032 Y0.4395  
G01 X-1.9125 Y0.4395  
G01 X-1.9125 Y0.3758  
G01 X-1.9068 Y0.3815  
G01 X-1.9002 Y0.3859  
G01 X-1.8928 Y0.3889  
G01 X-1.8850 Y0.3905  
G01 X-1.8675 Y0.3905  
G01 X-1.8675 Y0.4223  
G01 X-1.8663 Y0.4268  
G01 X-1.8640 Y0.4307  
G01 X-1.8607 Y0.4340  
G01 X-1.8360 Y0.4587  
G01 X-1.8405 Y0.4632  
G01 X-1.8405 Y0.4968  
G01 X-1.8168 Y0.5205  
G01 X-1.7832 Y0.5205  
G01 X-1.7602 Y0.4975  
G01 X-1.6872 Y0.4975  
G01 X-1.6415 Y0.5432  
G01 X-1.6415 Y0.5440  
G01 X-1.6399 Y0.5518  
G01 X-1.6369 Y0.5592  
G01 X-1.6325 Y0.5658  
G01 X-1.6268 Y0.5715  
G01 X-1.6202 Y0.5759  
G01 X-1.6128 Y0.5789  
G01 X-1.6050 Y0.5805  
G01 X-1.5350 Y0.5805  
G01 X-1.5272 Y0.5789  
G01 X-1.5198 Y0.5759  
G01 X-1.5132 Y0.5715  
G01 X-1.5075 Y0.5658  
G01 X-1.5075 Y0.6142  
G01 X-1.5132 Y0.6085  
G01 X-1.5198 Y0.6041  
G01 X-1.5272 Y0.6011  
G01 X-1.5350 Y0.5995  
G01 X-1.6050 Y0.5995  
G01 X-1.6128 Y0.6011  
G01 X-1.6202 Y0.6041  
G01 X-1.6268 Y0.6085  
G01 X-1.6325 Y0.6142  
G01 X-1.6369 Y0.6208  
G01 X-1.6399 Y0.6282  
G01 X-1.6415 Y0.6360  
G01 X-1.6415 Y0.6440  
G01 X-1.6399 Y0.6518  
G01 X-1.6369 Y0.6592  
G01 X-1.6325 Y0.6658  
G01 X-1.6268 Y0.6715  
G01 X-1.6202 Y0.6759  
G01 X-1.6128 Y0.6789  
G01 X-1.6050 Y0.6805  
G01 X-1.5350 Y0.6805  
G01 X-1.5272 Y0.6789  
G01 X-1.5198 Y0.6759  
G01 X-1.5154 Y0.6729  
G01 X-1.5125 Y0.6763  
G01 X-1.5125 Y0.7092  
G01 X-1.5132 Y0.7085  
G01 X-1.5198 Y0.7041  
G01 X-1.5272 Y0.7011  
G01 X-1.5350 Y0.6995  
G01 X-1.6050 Y0.6995  
G01 X-1.6128 Y0.7011  
G01 X-1.6202 Y0.7041  
G01 X-1.6268 Y0.7085  
G01 X-1.6325 Y0.7142  
G01 X-1.6347 Y0.7175  
G01 X-1.6378 Y0.7175  
G01 X-1.6425 Y0.7128  
G01 X-1.6425 Y0.5777  
G01 X-1.6437 Y0.5732  
G01 X-1.6460 Y0.5693  
G01 X-1.6493 Y0.5660  
G01 X-1.6793 Y0.5360  
G01 X-1.6832 Y0.5337  
G01 X-1.6877 Y0.5325  
G01 X-2.0628 Y0.5325  
G01 X-2.0925 Y0.5028  
G01 X-2.0925 Y0.4722  
G01 X-2.0528 Y0.4325  
G01 X-2.0277 Y0.4325  
G01 X-2.0232 Y0.4313  
G01 X-2.0193 Y0.4290  
G01 X-2.0160 Y0.4257  
G01 X-2.0143 Y0.4240  
G01 X-2.0278 Y0.4395  
G01 X-2.0568 Y0.4395  
G01 X-2.0805 Y0.4632  
G01 X-2.0805 Y0.4968  
G01 X-2.0568 Y0.5205  
G01 X-2.0232 Y0.5205  
G01 X-1.9995 Y0.4968  
G01 X-1.9995 Y0.4632  
G01 X-2.0009 Y0.4619  
G01 X-1.9572 Y0.4120  
G01 X-1.9560 Y0.4107  
G00 Z0.1000  
G00 X-1.8150 Y0.1095  
G01 Z-0.0070 F10    
G01 X-1.8850 Y0.1095  F20    
G01 X-1.8928 Y0.1111  
G01 X-1.9002 Y0.1141  
G01 X-1.9068 Y0.1185  
G01 X-1.9125 Y0.1242  
G01 X-1.9169 Y0.1308  
G01 X-1.9199 Y0.1382  
G01 X-1.9215 Y0.1460  
G01 X-1.9215 Y0.1540  
G01 X-1.9213 Y0.1552  
G01 X-1.9802 Y0.2057  
G01 X-1.9807 Y0.2060  
G01 X-1.9819 Y0.2072  
G01 X-1.9831 Y0.2082  
G01 X-1.9835 Y0.2088  
G01 X-1.9840 Y0.2093  
G01 X-1.9848 Y0.2107  
G01 X-1.9857 Y0.2120  
G01 X-1.9860 Y0.2127  
G01 X-1.9863 Y0.2132  
G01 X-1.9867 Y0.2148  
G01 X-1.9873 Y0.2164  
G01 X-1.9873 Y0.2170  
G01 X-1.9875 Y0.2177  
G01 X-1.9875 Y0.2193  
G01 X-1.9876 Y0.2210  
G01 X-1.9875 Y0.2216  
G01 X-1.9875 Y0.3934  
G01 X-1.9932 Y0.3999  
G01 X-1.9925 Y0.3973  
G01 X-1.9925 Y0.1872  
G01 X-1.9028 Y0.0975  
G01 X-1.4722 Y0.0975  
G01 X-1.5040 Y0.1293  
G01 X-1.5063 Y0.1332  
G01 X-1.5075 Y0.1377  
G01 X-1.5075 Y0.3142  
G01 X-1.5132 Y0.3085  
G01 X-1.5198 Y0.3041  
G01 X-1.5272 Y0.3011  
G01 X-1.5350 Y0.2995  
G01 X-1.5858 Y0.2995  
G01 X-1.7370 Y0.1482  
G01 X-1.7379 Y0.1471  
G01 X-1.7386 Y0.1466  
G01 X-1.7393 Y0.1460  
G01 X-1.7405 Y0.1453  
G01 X-1.7417 Y0.1444  
G01 X-1.7425 Y0.1441  
G01 X-1.7432 Y0.1437  
G01 X-1.7446 Y0.1433  
G01 X-1.7460 Y0.1428  
G01 X-1.7468 Y0.1427  
G01 X-1.7477 Y0.1425  
G01 X-1.7491 Y0.1425  
G01 X-1.7798 Y0.1394  
G01 X-1.7801 Y0.1382  
G01 X-1.7831 Y0.1308  
G01 X-1.7875 Y0.1242  
G01 X-1.7932 Y0.1185  
G01 X-1.7998 Y0.1141  
G01 X-1.8072 Y0.1111  
G01 X-1.8150 Y0.1095  
G00 Z0.1000  
G00 X-1.3495 Y1.1532  
G01 Z-0.0070 F10    
G01 X-1.3652 Y1.1375  F20    
G01 X-1.3172 Y1.1375  
G01 X-1.2836 Y1.1711  
G01 X-1.2833 Y1.1716  
G01 X-1.2825 Y1.1723  
G01 X-1.2825 Y1.1928  
G01 X-1.3093 Y1.1660  
G01 X-1.3132 Y1.1637  
G01 X-1.3177 Y1.1625  
G01 X-1.3495 Y1.1625  
G01 X-1.3495 Y1.1532  
G00 Z0.1000  
G00 X-1.2428 Y1.2325  
G01 Z-0.0070 F10    
G01 X-1.2428 Y1.2325  F20    
G01 X-1.2083 Y1.2325  
G01 X-1.1777 Y1.2020  
G01 X-1.1774 Y1.2026  
G01 X-1.2072 Y1.2325  
G01 X-1.2428 Y1.2325  
G00 Z0.1000  
G00 X-1.2001 Y0.4282  
G01 Z-0.0070 F10    
G01 X-1.2031 Y0.4208  F20    
G01 X-1.2075 Y0.4142  
G01 X-1.2132 Y0.4085  
G01 X-1.2198 Y0.4041  
G01 X-1.2272 Y0.4011  
G01 X-1.2350 Y0.3995  
G01 X-1.3050 Y0.3995  
G01 X-1.3128 Y0.4011  
G01 X-1.3202 Y0.4041  
G01 X-1.3268 Y0.4085  
G01 X-1.3325 Y0.4142  
G01 X-1.3369 Y0.4208  
G01 X-1.3399 Y0.4282  
G01 X-1.3415 Y0.4360  
G01 X-1.3415 Y0.4440  
G01 X-1.3399 Y0.4518  
G01 X-1.3369 Y0.4592  
G01 X-1.3325 Y0.4658  
G01 X-1.3268 Y0.4715  
G01 X-1.3253 Y0.4725  
G01 X-1.3875 Y0.4725  
G01 X-1.3875 Y0.3572  
G01 X-1.3593 Y0.3290  
G01 X-1.3560 Y0.3257  
G01 X-1.3537 Y0.3218  
G01 X-1.3525 Y0.3173  
G01 X-1.3525 Y0.2698  
G01 X-1.3295 Y0.2468  
G01 X-1.3295 Y0.2242  
G01 X-1.3028 Y0.1975  
G01 X-1.2948 Y0.1975  
G01 X-1.3105 Y0.2132  
G01 X-1.3105 Y0.2468  
G01 X-1.2868 Y0.2705  
G01 X-1.2775 Y0.2705  
G01 X-1.2775 Y0.2995  
G01 X-1.3050 Y0.2995  
G01 X-1.3128 Y0.3011  
G01 X-1.3202 Y0.3041  
G01 X-1.3268 Y0.3085  
G01 X-1.3325 Y0.3142  
G01 X-1.3369 Y0.3208  
G01 X-1.3399 Y0.3282  
G01 X-1.3415 Y0.3360  
G01 X-1.3415 Y0.3440  
G01 X-1.3399 Y0.3518  
G01 X-1.3369 Y0.3592  
G01 X-1.3325 Y0.3658  
G01 X-1.3268 Y0.3715  
G01 X-1.3202 Y0.3759  
G01 X-1.3128 Y0.3789  
G01 X-1.3050 Y0.3805  
G01 X-1.2350 Y0.3805  
G01 X-1.2272 Y0.3789  
G01 X-1.2198 Y0.3759  
G01 X-1.2132 Y0.3715  
G01 X-1.2075 Y0.3658  
G01 X-1.2031 Y0.3592  
G01 X-1.2022 Y0.3569  
G01 X-1.1508 Y0.3055  
G01 X-1.1502 Y0.3059  
G01 X-1.1428 Y0.3089  
G01 X-1.1350 Y0.3105  
G01 X-1.0650 Y0.3105  
G01 X-1.0572 Y0.3089  
G01 X-1.0498 Y0.3059  
G01 X-1.0432 Y0.3015  
G01 X-1.0392 Y0.2975  
G01 X-1.0172 Y0.2975  
G01 X-0.9907 Y0.3240  
G01 X-0.9868 Y0.3263  
G01 X-0.9823 Y0.3275  
G01 X-0.9425 Y0.3275  
G01 X-0.9425 Y0.4223  
G01 X-0.9413 Y0.4268  
G01 X-0.9390 Y0.4307  
G01 X-0.9372 Y0.4325  
G01 X-1.1992 Y0.4325  
G01 X-1.2001 Y0.4282  
G00 Z0.1000  
G00 X-0.8222 Y0.4375  
G01 Z-0.0070 F10    
G01 X-0.6875 Y0.5722  F20    
G01 X-0.6875 Y0.5898  
G01 X-0.6919 Y0.5831  
G01 X-0.6976 Y0.5775  
G01 X-0.7025 Y0.5742  
G01 X-0.7025 Y0.5727  
G01 X-0.7037 Y0.5682  
G01 X-0.7060 Y0.5643  
G01 X-0.7093 Y0.5610  
G01 X-0.8328 Y0.4375  
G01 X-0.8222 Y0.4375  
G00 Z0.1000  
G00 X-0.7492 Y0.5775  
G01 Z-0.0070 F10    
G01 X-0.7548 Y0.5831  F20    
G01 X-0.7593 Y0.5898  
G01 X-0.7623 Y0.5971  
G01 X-0.7628 Y0.5993  
G01 X-0.7632 Y0.5971  
G01 X-0.7662 Y0.5898  
G01 X-0.7707 Y0.5831  
G01 X-0.7763 Y0.5775  
G01 X-0.7825 Y0.5733  
G01 X-0.7825 Y0.5727  
G01 X-0.7837 Y0.5682  
G01 X-0.7860 Y0.5643  
G01 X-0.8743 Y0.4760  
G01 X-0.8782 Y0.4737  
G01 X-0.8827 Y0.4725  
G01 X-1.2147 Y0.4725  
G01 X-1.2132 Y0.4715  
G01 X-1.2092 Y0.4675  
G01 X-0.8522 Y0.4675  
G01 X-0.7450 Y0.5747  
G01 X-0.7492 Y0.5775  
G00 Z0.1000  
G00 X-0.3975 Y0.3772  
G01 Z-0.0070 F10    
G01 X-0.3975 Y0.4123  F20    
G01 X-0.3963 Y0.4168  
G01 X-0.3940 Y0.4207  
G01 X-0.3338 Y0.4809  
G01 X-0.3345 Y0.4816  
G01 X-0.3345 Y0.5184  
G01 X-0.3204 Y0.5325  
G01 X-0.3278 Y0.5325  
G01 X-0.5110 Y0.3493  
G01 X-0.5143 Y0.3460  
G01 X-0.5182 Y0.3437  
G01 X-0.5227 Y0.3425  
G01 X-0.6478 Y0.3425  
G01 X-0.6910 Y0.2993  
G01 X-0.6943 Y0.2960  
G01 X-0.6982 Y0.2937  
G01 X-0.7027 Y0.2925  
G01 X-0.9728 Y0.2925  
G01 X-0.9993 Y0.2660  
G01 X-1.0032 Y0.2637  
G01 X-1.0077 Y0.2625  
G01 X-1.0292 Y0.2625  
G01 X-1.0301 Y0.2582  
G01 X-1.0331 Y0.2508  
G01 X-1.0375 Y0.2442  
G01 X-1.0432 Y0.2385  
G01 X-1.0498 Y0.2341  
G01 X-1.0572 Y0.2311  
G01 X-1.0650 Y0.2295  
G01 X-1.1350 Y0.2295  
G01 X-1.1428 Y0.2311  
G01 X-1.1502 Y0.2341  
G01 X-1.1568 Y0.2385  
G01 X-1.1625 Y0.2442  
G01 X-1.1669 Y0.2508  
G01 X-1.1699 Y0.2582  
G01 X-1.1715 Y0.2660  
G01 X-1.1715 Y0.2740  
G01 X-1.1710 Y0.2763  
G01 X-1.2082 Y0.3135  
G01 X-1.2132 Y0.3085  
G01 X-1.2198 Y0.3041  
G01 X-1.2272 Y0.3011  
G01 X-1.2350 Y0.2995  
G01 X-1.2425 Y0.2995  
G01 X-1.2425 Y0.2598  
G01 X-1.2295 Y0.2468  
G01 X-1.2295 Y0.2132  
G01 X-1.2452 Y0.1975  
G01 X-1.0372 Y0.1975  
G01 X-0.9607 Y0.2740  
G01 X-0.9568 Y0.2763  
G01 X-0.9523 Y0.2775  
G01 X-0.6708 Y0.2775  
G01 X-0.6699 Y0.2818  
G01 X-0.6669 Y0.2892  
G01 X-0.6625 Y0.2958  
G01 X-0.6568 Y0.3015  
G01 X-0.6502 Y0.3059  
G01 X-0.6428 Y0.3089  
G01 X-0.6350 Y0.3105  
G01 X-0.5650 Y0.3105  
G01 X-0.5572 Y0.3089  
G01 X-0.5498 Y0.3059  
G01 X-0.5432 Y0.3015  
G01 X-0.5375 Y0.2958  
G01 X-0.5331 Y0.2892  
G01 X-0.5301 Y0.2818  
G01 X-0.5285 Y0.2740  
G01 X-0.5285 Y0.2660  
G01 X-0.5301 Y0.2582  
G01 X-0.5331 Y0.2508  
G01 X-0.5375 Y0.2442  
G01 X-0.5432 Y0.2385  
G01 X-0.5498 Y0.2341  
G01 X-0.5572 Y0.2311  
G01 X-0.5650 Y0.2295  
G01 X-0.6350 Y0.2295  
G01 X-0.6428 Y0.2311  
G01 X-0.6502 Y0.2341  
G01 X-0.6568 Y0.2385  
G01 X-0.6608 Y0.2425  
G01 X-0.9428 Y0.2425  
G01 X-1.0160 Y0.1693  
G01 X-1.0193 Y0.1660  
G01 X-1.0232 Y0.1637  
G01 X-1.0277 Y0.1625  
G01 X-1.3123 Y0.1625  
G01 X-1.3168 Y0.1637  
G01 X-1.3207 Y0.1660  
G01 X-1.3487 Y0.1940  
G01 X-1.3532 Y0.1895  
G01 X-1.3868 Y0.1895  
G01 X-1.4105 Y0.2132  
G01 X-1.4105 Y0.2468  
G01 X-1.3875 Y0.2698  
G01 X-1.3875 Y0.3078  
G01 X-1.4190 Y0.3393  
G01 X-1.4213 Y0.3432  
G01 X-1.4225 Y0.3477  
G01 X-1.4225 Y0.5373  
G01 X-1.4224 Y0.5375  
G01 X-1.4225 Y0.5377  
G01 X-1.4225 Y0.6075  
G01 X-1.4325 Y0.5942  
G01 X-1.4325 Y0.1772  
G01 X-1.4128 Y0.1575  
G01 X-0.6172 Y0.1575  
G01 X-0.3975 Y0.3772  
G00 Z0.1000  
G00 X-0.2084 Y0.4445  
G01 Z-0.0070 F10    
G01 X-0.1716 Y0.4445  F20    
G01 X-0.1575 Y0.4304  
G01 X-0.1575 Y0.4696  
G01 X-0.1716 Y0.4555  
G01 X-0.2084 Y0.4555  
G01 X-0.2091 Y0.4562  
G01 X-0.2225 Y0.4428  
G01 X-0.2225 Y0.4304  
G01 X-0.2084 Y0.4445  
G00 Z0.1000  
G00 X-0.5422 Y0.0975  
G01 Z-0.0070 F10    
G01 X-0.2842 Y0.3555  F20    
G01 X-0.3084 Y0.3555  
G01 X-0.3091 Y0.3562  
G01 X-0.5660 Y0.0993  
G01 X-0.5678 Y0.0975  
G01 X-0.5422 Y0.0975  
G00 Z0.1000  
G00 X-0.2575 Y0.4477  
G01 Z-0.0070 F10    
G01 X-0.2575 Y0.4523  F20    
G01 X-0.2563 Y0.4568  
G01 X-0.2540 Y0.4607  
G01 X-0.2338 Y0.4809  
G01 X-0.2345 Y0.4816  
G01 X-0.2345 Y0.5184  
G01 X-0.2204 Y0.5325  
G01 X-0.2596 Y0.5325  
G01 X-0.2455 Y0.5184  
G01 X-0.2455 Y0.4816  
G01 X-0.2716 Y0.4555  
G01 X-0.3084 Y0.4555  
G01 X-0.3091 Y0.4562  
G01 X-0.3625 Y0.4028  
G01 X-0.3625 Y0.3677  
G01 X-0.3637 Y0.3632  
G01 X-0.3660 Y0.3593  
G01 X-0.3693 Y0.3560  
G01 X-0.5960 Y0.1293  
G01 X-0.5978 Y0.1275  
G01 X-0.5872 Y0.1275  
G01 X-0.3338 Y0.3809  
G01 X-0.3345 Y0.3816  
G01 X-0.3345 Y0.4184  
G01 X-0.3084 Y0.4445  
G01 X-0.2716 Y0.4445  
G01 X-0.2575 Y0.4304  
G01 X-0.2575 Y0.4477  
G00 Z0.1000  
G00 X-1.5075 Y0.8142  
G01 Z-0.0070 F10    
G01 X-1.5132 Y0.8085  F20    
G01 X-1.5147 Y0.8075  
G01 X-1.5018 Y0.8075  
G01 X-1.5013 Y0.8076  
G01 X-1.4995 Y0.8075  
G01 X-1.4977 Y0.8075  
G01 X-1.4972 Y0.8074  
G01 X-1.4967 Y0.8073  
G01 X-1.4950 Y0.8068  
G01 X-1.4939 Y0.8065  
G01 X-1.5046 Y0.8186  
G01 X-1.5075 Y0.8142  
G00 Z0.1000  
G00 X-1.4525 Y0.8232  
G01 Z-0.0070 F10    
G01 X-1.4977 Y0.8725  F20    
G01 X-1.5147 Y0.8725  
G01 X-1.5132 Y0.8715  
G01 X-1.5075 Y0.8658  
G01 X-1.5031 Y0.8592  
G01 X-1.5024 Y0.8575  
G01 X-1.5017 Y0.8575  
G01 X-1.5011 Y0.8576  
G01 X-1.4994 Y0.8575  
G01 X-1.4977 Y0.8575  
G01 X-1.4971 Y0.8573  
G01 X-1.4965 Y0.8573  
G01 X-1.4949 Y0.8568  
G01 X-1.4932 Y0.8563  
G01 X-1.4927 Y0.8560  
G01 X-1.4922 Y0.8558  
G01 X-1.4907 Y0.8549  
G01 X-1.4893 Y0.8540  
G01 X-1.4888 Y0.8536  
G01 X-1.4883 Y0.8533  
G01 X-1.4872 Y0.8520  
G01 X-1.4860 Y0.8507  
G01 X-1.4857 Y0.8502  
G01 X-1.4525 Y0.8123  
G01 X-1.4525 Y0.8232  
G00 Z0.1000  
G00 X-1.4825 Y0.6577  
G01 Z-0.0070 F10    
G01 X-1.4985 Y0.6385  F20    
G01 X-1.4985 Y0.6371  
G01 X-1.4825 Y0.6563  
G01 X-1.4825 Y0.6577  
G00 Z0.1000  
G00 X-0.4872 Y0.0375  
G01 Z-0.0070 F10    
G01 X-0.1575 Y0.3672  F20    
G01 X-0.1575 Y0.3696  
G01 X-0.1716 Y0.3555  
G01 X-0.1798 Y0.3555  
G01 X-0.4960 Y0.0393  
G01 X-0.4978 Y0.0375  
G01 X-0.4872 Y0.0375  
G00 Z0.1000  
G00 X-0.1616 Y0.5345  
G01 Z-0.0070 F10    
G01 X-0.1575 Y0.5304  F20    
G01 X-0.1575 Y0.5362  
G01 X-0.1616 Y0.5345  
G00 Z0.1000  
G00 X-0.8617 Y0.7068  
G01 Z-0.0070 F10    
G01 X-0.8550 Y0.7024  F20    
G01 X-0.8494 Y0.6968  
G01 X-0.8450 Y0.6901  
G01 X-0.8419 Y0.6828  
G01 X-0.8415 Y0.6806  
G01 X-0.8411 Y0.6828  
G01 X-0.8380 Y0.6901  
G01 X-0.8336 Y0.6968  
G01 X-0.8279 Y0.7024  
G01 X-0.8213 Y0.7068  
G01 X-0.8139 Y0.7099  
G01 X-0.8061 Y0.7114  
G01 X-0.7981 Y0.7114  
G01 X-0.7903 Y0.7099  
G01 X-0.7829 Y0.7068  
G01 X-0.7763 Y0.7024  
G01 X-0.7707 Y0.6968  
G01 X-0.7662 Y0.6901  
G01 X-0.7632 Y0.6828  
G01 X-0.7628 Y0.6806  
G01 X-0.7623 Y0.6828  
G01 X-0.7593 Y0.6901  
G01 X-0.7548 Y0.6968  
G01 X-0.7492 Y0.7024  
G01 X-0.7426 Y0.7068  
G01 X-0.7352 Y0.7099  
G01 X-0.7274 Y0.7114  
G01 X-0.7194 Y0.7114  
G01 X-0.7154 Y0.7106  
G01 X-0.7542 Y0.7495  
G01 X-0.7588 Y0.7486  
G01 X-0.7667 Y0.7486  
G01 X-0.7746 Y0.7501  
G01 X-0.7819 Y0.7532  
G01 X-0.7886 Y0.7576  
G01 X-0.7942 Y0.7632  
G01 X-0.7986 Y0.7699  
G01 X-0.8017 Y0.7772  
G01 X-0.8021 Y0.7794  
G01 X-0.8026 Y0.7772  
G01 X-0.8056 Y0.7699  
G01 X-0.8100 Y0.7632  
G01 X-0.8157 Y0.7576  
G01 X-0.8223 Y0.7532  
G01 X-0.8280 Y0.7508  
G01 X-0.8287 Y0.7482  
G01 X-0.8310 Y0.7443  
G01 X-0.8343 Y0.7410  
G01 X-0.8643 Y0.7110  
G01 X-0.8674 Y0.7092  
G01 X-0.8617 Y0.7068  
G00 Z0.1000  
G00 X-0.3254 Y0.9725  
G01 Z-0.0070 F10    
G01 X-0.3802 Y0.9725  F20    
G01 X-0.3852 Y0.9675  
G01 X-0.3204 Y0.9675  
G01 X-0.3254 Y0.9725  
G00 Z0.1000  
G00 X-0.8100 Y0.8769  
G01 Z-0.0070 F10    
G01 X-0.8056 Y0.8702  F20    
G01 X-0.8026 Y0.8629  
G01 X-0.8021 Y0.8607  
G01 X-0.8017 Y0.8629  
G01 X-0.7986 Y0.8702  
G01 X-0.7942 Y0.8769  
G01 X-0.7886 Y0.8825  
G01 X-0.8157 Y0.8825  
G01 X-0.8100 Y0.8769  
G00 Z0.1000  
G00 X-0.8888 Y0.8769  
G01 Z-0.0070 F10    
G01 X-0.8843 Y0.8702  F20    
G01 X-0.8813 Y0.8629  
G01 X-0.8809 Y0.8607  
G01 X-0.8804 Y0.8629  
G01 X-0.8774 Y0.8702  
G01 X-0.8730 Y0.8769  
G01 X-0.8673 Y0.8825  
G01 X-0.8944 Y0.8825  
G01 X-0.8888 Y0.8769  
G00 Z0.1000  
G00 X-0.1455 Y0.6184  
G01 Z-0.0070 F10    
G01 X-0.1455 Y0.5842  F20    
G01 X-0.1175 Y0.6122  
G01 X-0.1175 Y0.6676  
G01 X-0.1177 Y0.6674  
G01 X-0.1185 Y0.6667  
G01 X-0.1193 Y0.6660  
G01 X-0.1203 Y0.6654  
G01 X-0.1585 Y0.6367  
G01 X-0.1593 Y0.6360  
G01 X-0.1603 Y0.6354  
G01 X-0.1613 Y0.6346  
G01 X-0.1616 Y0.6345  
G01 X-0.1455 Y0.6184  
G00 Z0.1000  
G00 X-0.1193 Y0.8340  
G01 Z-0.0070 F10    
G01 X-0.1185 Y0.8333  F20    
G01 X-0.1177 Y0.8326  
G01 X-0.1175 Y0.8324  
G01 X-0.1175 Y0.9075  
G01 X-0.1700 Y0.9571  
G01 X-0.1716 Y0.9555  
G01 X-0.2084 Y0.9555  
G01 X-0.2345 Y0.9816  
G01 X-0.2345 Y1.0184  
G01 X-0.2313 Y1.0216  
G01 X-0.3522 Y1.1425  
G01 X-1.0895 Y1.1425  
G01 X-1.0913 Y1.1424  
G01 X-1.0918 Y1.1425  
G01 X-1.0923 Y1.1425  
G01 X-1.0931 Y1.1427  
G01 X-1.0958 Y1.1400  
G01 X-1.1025 Y1.1351  
G01 X-1.1098 Y1.1313  
G01 X-1.1177 Y1.1288  
G01 X-1.1259 Y1.1275  
G01 X-1.1341 Y1.1275  
G01 X-1.1423 Y1.1288  
G01 X-1.1502 Y1.1313  
G01 X-1.1575 Y1.1351  
G01 X-1.1642 Y1.1400  
G01 X-1.1700 Y1.1458  
G01 X-1.1749 Y1.1525  
G01 X-1.1777 Y1.1580  
G01 X-1.1805 Y1.1553  
G01 X-1.1528 Y1.1275  
G01 X-0.4977 Y1.1275  
G01 X-0.4932 Y1.1263  
G01 X-0.4893 Y1.1240  
G01 X-0.4860 Y1.1207  
G01 X-0.4058 Y1.0405  
G01 X-0.3932 Y1.0405  
G01 X-0.3695 Y1.0168  
G01 X-0.3695 Y1.0075  
G01 X-0.3345 Y1.0075  
G01 X-0.3345 Y1.0184  
G01 X-0.3084 Y1.0445  
G01 X-0.2716 Y1.0445  
G01 X-0.2455 Y1.0184  
G01 X-0.2455 Y0.9816  
G01 X-0.2596 Y0.9675  
G01 X-0.2377 Y0.9675  
G01 X-0.2332 Y0.9663  
G01 X-0.2293 Y0.9640  
G01 X-0.2091 Y0.9438  
G01 X-0.2084 Y0.9445  
G01 X-0.1716 Y0.9445  
G01 X-0.1455 Y0.9184  
G01 X-0.1455 Y0.8816  
G01 X-0.1616 Y0.8655  
G01 X-0.1613 Y0.8654  
G01 X-0.1603 Y0.8646  
G01 X-0.1593 Y0.8640  
G01 X-0.1585 Y0.8633  
G01 X-0.1203 Y0.8346  
G01 X-0.1193 Y0.8340  
G00 Z0.1000  
G00 X-0.3084 Y0.8445  
G01 Z-0.0070 F10    
G01 X-0.2716 Y0.8445  F20    
G01 X-0.2455 Y0.8184  
G01 X-0.2455 Y0.7816  
G01 X-0.2596 Y0.7675  
G01 X-0.2472 Y0.7675  
G01 X-0.2338 Y0.7809  
G01 X-0.2345 Y0.7816  
G01 X-0.2345 Y0.8184  
G01 X-0.2204 Y0.8325  
G01 X-0.2423 Y0.8325  
G01 X-0.2468 Y0.8337  
G01 X-0.2507 Y0.8360  
G01 X-0.2709 Y0.8562  
G01 X-0.2716 Y0.8555  
G01 X-0.3084 Y0.8555  
G01 X-0.3345 Y0.8816  
G01 X-0.3345 Y0.9184  
G01 X-0.3204 Y0.9325  
G01 X-0.4323 Y0.9325  
G01 X-0.4348 Y0.9332  
G01 X-0.3313 Y0.8217  
G01 X-0.3084 Y0.8445  
G00 Z0.1000  
G00 X-0.2204 Y0.8675  
G01 Z-0.0070 F10    
G01 X-0.2345 Y0.8816  F20    
G01 X-0.2345 Y0.9184  
G01 X-0.2338 Y0.9191  
G01 X-0.2472 Y0.9325  
G01 X-0.2596 Y0.9325  
G01 X-0.2455 Y0.9184  
G01 X-0.2455 Y0.8816  
G01 X-0.2462 Y0.8809  
G01 X-0.2328 Y0.8675  
G01 X-0.2204 Y0.8675  
G00 Z0.1000  
G00 X-0.2455 Y0.6184  
G01 Z-0.0070 F10    
G01 X-0.2455 Y0.5816  F20    
G01 X-0.2596 Y0.5675  
G01 X-0.2204 Y0.5675  
G01 X-0.2345 Y0.5816  
G01 X-0.2345 Y0.6184  
G01 X-0.2204 Y0.6325  
G01 X-0.2596 Y0.6325  
G01 X-0.2455 Y0.6184  
G00 Z0.1000  
G00 X-0.7285 Y0.3660  
G01 Z-0.0070 F10    
G01 X-0.7301 Y0.3582  F20    
G01 X-0.7331 Y0.3508  
G01 X-0.7375 Y0.3442  
G01 X-0.7432 Y0.3385  
G01 X-0.7498 Y0.3341  
G01 X-0.7572 Y0.3311  
G01 X-0.7650 Y0.3295  
G01 X-0.8350 Y0.3295  
G01 X-0.8428 Y0.3311  
G01 X-0.8502 Y0.3341  
G01 X-0.8568 Y0.3385  
G01 X-0.8625 Y0.3442  
G01 X-0.8669 Y0.3508  
G01 X-0.8699 Y0.3582  
G01 X-0.8715 Y0.3660  
G01 X-0.8715 Y0.3740  
G01 X-0.8699 Y0.3818  
G01 X-0.8669 Y0.3892  
G01 X-0.8625 Y0.3958  
G01 X-0.8568 Y0.4015  
G01 X-0.8553 Y0.4025  
G01 X-0.9075 Y0.4025  
G01 X-0.9075 Y0.3275  
G01 X-0.7122 Y0.3275  
G01 X-0.6657 Y0.3740  
G01 X-0.6618 Y0.3763  
G01 X-0.6573 Y0.3775  
G01 X-0.5322 Y0.3775  
G01 X-0.3457 Y0.5640  
G01 X-0.3418 Y0.5663  
G01 X-0.3373 Y0.5675  
G01 X-0.3204 Y0.5675  
G01 X-0.3345 Y0.5816  
G01 X-0.3345 Y0.6184  
G01 X-0.3204 Y0.6325  
G01 X-0.3328 Y0.6325  
G01 X-0.4625 Y0.5028  
G01 X-0.4637 Y0.4982  
G01 X-0.4660 Y0.4943  
G01 X-0.5410 Y0.4193  
G01 X-0.5443 Y0.4160  
G01 X-0.5482 Y0.4137  
G01 X-0.5527 Y0.4125  
G01 X-0.6878 Y0.4125  
G01 X-0.7285 Y0.3718  
G01 X-0.7285 Y0.3660  
G00 Z0.1000  
G00 X-0.3345 Y0.6816  
G01 Z-0.0070 F10    
G01 X-0.3345 Y0.7184  F20    
G01 X-0.3204 Y0.7325  
G01 X-0.3523 Y0.7325  
G01 X-0.3568 Y0.7337  
G01 X-0.3607 Y0.7360  
G01 X-0.5072 Y0.8825  
G01 X-0.7369 Y0.8825  
G01 X-0.7313 Y0.8769  
G01 X-0.7269 Y0.8702  
G01 X-0.7238 Y0.8629  
G01 X-0.7223 Y0.8550  
G01 X-0.7223 Y0.7851  
G01 X-0.7238 Y0.7772  
G01 X-0.7264 Y0.7711  
G01 X-0.6560 Y0.7007  
G01 X-0.6537 Y0.6968  
G01 X-0.6525 Y0.6923  
G01 X-0.6525 Y0.5627  
G01 X-0.6537 Y0.5582  
G01 X-0.6560 Y0.5543  
G01 X-0.7998 Y0.4105  
G01 X-0.7650 Y0.4105  
G01 X-0.7572 Y0.4089  
G01 X-0.7498 Y0.4059  
G01 X-0.7462 Y0.4035  
G01 X-0.7057 Y0.4440  
G01 X-0.7018 Y0.4463  
G01 X-0.6973 Y0.4475  
G01 X-0.5622 Y0.4475  
G01 X-0.4975 Y0.5122  
G01 X-0.4963 Y0.5168  
G01 X-0.4940 Y0.5207  
G01 X-0.4907 Y0.5240  
G01 X-0.3507 Y0.6640  
G01 X-0.3468 Y0.6663  
G01 X-0.3423 Y0.6675  
G01 X-0.3204 Y0.6675  
G01 X-0.3345 Y0.6816  
G00 Z0.1000  
G00 X-0.1716 Y0.7555  
G01 Z-0.0070 F10    
G01 X-0.2084 Y0.7555  F20    
G01 X-0.2091 Y0.7562  
G01 X-0.2260 Y0.7393  
G01 X-0.2293 Y0.7360  
G01 X-0.2332 Y0.7337  
G01 X-0.2377 Y0.7325  
G01 X-0.2596 Y0.7325  
G01 X-0.2455 Y0.7184  
G01 X-0.2455 Y0.6816  
G01 X-0.2596 Y0.6675  
G01 X-0.2204 Y0.6675  
G01 X-0.2345 Y0.6816  
G01 X-0.2345 Y0.7184  
G01 X-0.2084 Y0.7445  
G01 X-0.1716 Y0.7445  
G01 X-0.1475 Y0.7204  
G01 X-0.1475 Y0.7796  
G01 X-0.1716 Y0.7555  
G00 Z0.1000  
G00 X-1.2350 Y0.5995  
G01 Z-0.0070 F10    
G01 X-1.3050 Y0.5995  F20    
G01 X-1.3128 Y0.6011  
G01 X-1.3202 Y0.6041  
G01 X-1.3268 Y0.6085  
G01 X-1.3325 Y0.6142  
G01 X-1.3369 Y0.6208  
G01 X-1.3399 Y0.6282  
G01 X-1.3415 Y0.6360  
G01 X-1.3415 Y0.6440  
G01 X-1.3399 Y0.6518  
G01 X-1.3375 Y0.6578  
G01 X-1.3425 Y0.6528  
G01 X-1.3425 Y0.6172  
G01 X-1.3056 Y0.5804  
G01 X-1.3050 Y0.5805  
G01 X-1.2350 Y0.5805  
G01 X-1.2272 Y0.5789  
G01 X-1.2198 Y0.5759  
G01 X-1.2132 Y0.5715  
G01 X-1.2075 Y0.5658  
G01 X-1.2031 Y0.5592  
G01 X-1.2001 Y0.5518  
G01 X-1.1985 Y0.5440  
G01 X-1.1985 Y0.5360  
G01 X-1.2001 Y0.5282  
G01 X-1.2031 Y0.5208  
G01 X-1.2075 Y0.5142  
G01 X-1.2132 Y0.5085  
G01 X-1.2147 Y0.5075  
G01 X-0.8922 Y0.5075  
G01 X-0.8245 Y0.5752  
G01 X-0.8279 Y0.5775  
G01 X-0.8336 Y0.5831  
G01 X-0.8380 Y0.5898  
G01 X-0.8411 Y0.5971  
G01 X-0.8415 Y0.5993  
G01 X-0.8419 Y0.5971  
G01 X-0.8450 Y0.5898  
G01 X-0.8494 Y0.5831  
G01 X-0.8550 Y0.5775  
G01 X-0.8617 Y0.5731  
G01 X-0.8691 Y0.5700  
G01 X-0.8769 Y0.5684  
G01 X-0.8849 Y0.5684  
G01 X-0.8927 Y0.5700  
G01 X-0.9001 Y0.5731  
G01 X-0.9067 Y0.5775  
G01 X-0.9123 Y0.5831  
G01 X-0.9168 Y0.5898  
G01 X-0.9198 Y0.5971  
G01 X-0.9214 Y0.6050  
G01 X-0.9214 Y0.6125  
G01 X-1.2092 Y0.6125  
G01 X-1.2132 Y0.6085  
G01 X-1.2198 Y0.6041  
G01 X-1.2272 Y0.6011  
G01 X-1.2350 Y0.5995  
G00 Z0.1000  
G00 X-0.9214 Y0.6749  
G01 Z-0.0070 F10    
G01 X-0.9198 Y0.6828  F20    
G01 X-0.9168 Y0.6901  
G01 X-0.9123 Y0.6968  
G01 X-0.9067 Y0.7024  
G01 X-0.9001 Y0.7068  
G01 X-0.8984 Y0.7075  
G01 X-0.9078 Y0.7075  
G01 X-0.9393 Y0.6760  
G01 X-0.9432 Y0.6737  
G01 X-0.9477 Y0.6725  
G01 X-1.2147 Y0.6725  
G01 X-1.2132 Y0.6715  
G01 X-1.2075 Y0.6658  
G01 X-1.2031 Y0.6592  
G01 X-1.2001 Y0.6518  
G01 X-1.1992 Y0.6475  
G01 X-0.9214 Y0.6475  
G01 X-0.9214 Y0.6749  
G00 Z0.1000  
G00 X-1.3253 Y1.0075  
G01 Z-0.0070 F10    
G01 X-1.3268 Y1.0085  F20    
G01 X-1.3325 Y1.0142  
G01 X-1.3369 Y1.0208  
G01 X-1.3399 Y1.0282  
G01 X-1.3415 Y1.0360  
G01 X-1.3415 Y1.0440  
G01 X-1.3399 Y1.0518  
G01 X-1.3369 Y1.0592  
G01 X-1.3325 Y1.0658  
G01 X-1.3268 Y1.0715  
G01 X-1.3202 Y1.0759  
G01 X-1.3128 Y1.0789  
G01 X-1.3050 Y1.0805  
G01 X-1.2350 Y1.0805  
G01 X-1.2272 Y1.0789  
G01 X-1.2198 Y1.0759  
G01 X-1.2132 Y1.0715  
G01 X-1.2092 Y1.0675  
G01 X-0.4877 Y1.0675  
G01 X-0.4832 Y1.0663  
G01 X-0.4793 Y1.0640  
G01 X-0.4493 Y1.0340  
G01 X-0.4460 Y1.0307  
G01 X-0.4437 Y1.0268  
G01 X-0.4430 Y1.0243  
G01 X-0.4410 Y1.0263  
G01 X-0.5072 Y1.0925  
G01 X-1.1623 Y1.0925  
G01 X-1.1668 Y1.0937  
G01 X-1.1707 Y1.0960  
G01 X-1.2053 Y1.1305  
G01 X-1.2083 Y1.1275  
G01 X-1.2517 Y1.1275  
G01 X-1.2647 Y1.1405  
G01 X-1.2960 Y1.1093  
G01 X-1.2993 Y1.1060  
G01 X-1.3032 Y1.1037  
G01 X-1.3077 Y1.1025  
G01 X-1.4223 Y1.1025  
G01 X-1.4268 Y1.1037  
G01 X-1.4307 Y1.1060  
G01 X-1.4507 Y1.1260  
G01 X-1.4540 Y1.1293  
G01 X-1.4563 Y1.1332  
G01 X-1.4575 Y1.1377  
G01 X-1.4575 Y1.1452  
G01 X-1.4690 Y1.1337  
G01 X-1.3427 Y1.0074  
G01 X-1.3423 Y1.0075  
G01 X-1.3377 Y1.0075  
G01 X-1.3253 Y1.0075  
G00 Z0.1000  
G00 X-1.3575 Y0.7780  
G01 Z-0.0070 F10    
G01 X-1.3364 Y0.7599  F20    
G01 X-1.3325 Y0.7658  
G01 X-1.3268 Y0.7715  
G01 X-1.3253 Y0.7725  
G01 X-1.3323 Y0.7725  
G01 X-1.3368 Y0.7737  
G01 X-1.3407 Y0.7760  
G01 X-1.3440 Y0.7793  
G01 X-1.3575 Y0.7928  
G01 X-1.3575 Y0.7780  
G00 Z0.1000  
G00 X-0.9607 Y0.8550  
G01 Z-0.0070 F10    
G01 X-0.9592 Y0.8629  F20    
G01 X-0.9561 Y0.8702  
G01 X-0.9517 Y0.8769  
G01 X-0.9461 Y0.8825  
G01 X-1.1428 Y0.8825  
G01 X-1.1960 Y0.8293  
G01 X-1.1993 Y0.8260  
G01 X-1.2015 Y0.8247  
G01 X-1.2031 Y0.8208  
G01 X-1.2075 Y0.8142  
G01 X-1.2132 Y0.8085  
G01 X-1.2147 Y0.8075  
G01 X-1.2022 Y0.8075  
G01 X-1.1790 Y0.8307  
G01 X-1.1757 Y0.8340  
G01 X-1.1718 Y0.8363  
G01 X-1.1673 Y0.8375  
G01 X-0.9607 Y0.8375  
G01 X-0.9607 Y0.8550  
G00 Z0.1000  
G00 X-1.2132 Y0.7715  
G01 Z-0.0070 F10    
G01 X-1.2075 Y0.7658  F20    
G01 X-1.2031 Y0.7592  
G01 X-1.2001 Y0.7518  
G01 X-1.1985 Y0.7440  
G01 X-1.1985 Y0.7360  
G01 X-1.2001 Y0.7282  
G01 X-1.2031 Y0.7208  
G01 X-1.2075 Y0.7142  
G01 X-1.2132 Y0.7085  
G01 X-1.2147 Y0.7075  
G01 X-0.9572 Y0.7075  
G01 X-0.9290 Y0.7357  
G01 X-0.9257 Y0.7390  
G01 X-0.9218 Y0.7413  
G01 X-0.9173 Y0.7425  
G01 X-0.8822 Y0.7425  
G01 X-0.8672 Y0.7575  
G01 X-0.8730 Y0.7632  
G01 X-0.8774 Y0.7699  
G01 X-0.8804 Y0.7772  
G01 X-0.8809 Y0.7794  
G01 X-0.8813 Y0.7772  
G01 X-0.8843 Y0.7699  
G01 X-0.8888 Y0.7632  
G01 X-0.8944 Y0.7576  
G01 X-0.9011 Y0.7532  
G01 X-0.9084 Y0.7501  
G01 X-0.9162 Y0.7486  
G01 X-0.9242 Y0.7486  
G01 X-0.9320 Y0.7501  
G01 X-0.9394 Y0.7532  
G01 X-0.9461 Y0.7576  
G01 X-0.9517 Y0.7632  
G01 X-0.9561 Y0.7699  
G01 X-0.9592 Y0.7772  
G01 X-0.9607 Y0.7851  
G01 X-0.9607 Y0.8025  
G01 X-1.1578 Y0.8025  
G01 X-1.1843 Y0.7760  
G01 X-1.1882 Y0.7737  
G01 X-1.1927 Y0.7725  
G01 X-1.2147 Y0.7725  
G01 X-1.2132 Y0.7715  
G00 Z0.1000  
G00 X-1.5040 Y1.1193  
G01 Z-0.0070 F10    
G01 X-1.5063 Y1.1232  F20    
G01 X-1.5075 Y1.1277  
G01 X-1.5075 Y1.1302  
G01 X-1.5305 Y1.1532  
G01 X-1.5305 Y1.1825  
G01 X-1.7095 Y1.1825  
G01 X-1.7113 Y1.1824  
G01 X-1.7118 Y1.1825  
G01 X-1.7123 Y1.1825  
G01 X-1.7131 Y1.1827  
G01 X-1.7158 Y1.1800  
G01 X-1.7225 Y1.1751  
G01 X-1.7280 Y1.1723  
G01 X-1.6975 Y1.1417  
G01 X-1.6975 Y1.0983  
G01 X-1.7283 Y1.0675  
G01 X-1.7717 Y1.0675  
G01 X-1.8025 Y1.0983  
G01 X-1.8025 Y1.1417  
G01 X-1.7995 Y1.1447  
G01 X-1.8272 Y1.1725  
G01 X-1.9078 Y1.1725  
G01 X-1.7728 Y1.0375  
G01 X-1.7272 Y1.0375  
G01 X-1.6507 Y1.1140  
G01 X-1.6468 Y1.1163  
G01 X-1.6423 Y1.1175  
G01 X-1.5077 Y1.1175  
G01 X-1.5032 Y1.1163  
G01 X-1.4993 Y1.1140  
G01 X-1.4960 Y1.1107  
G01 X-1.4660 Y1.0807  
G01 X-1.4637 Y1.0768  
G01 X-1.4625 Y1.0723  
G01 X-1.4625 Y1.0470  
G01 X-1.3625 Y0.9422  
G01 X-1.3625 Y0.9778  
G01 X-1.5040 Y1.1193  
G00 Z0.1000  
G00 X-1.3268 Y0.9715  
G01 Z-0.0070 F10    
G01 X-1.3253 Y0.9725  F20    
G01 X-1.3275 Y0.9725  
G01 X-1.3275 Y0.9708  
G01 X-1.3268 Y0.9715  
G00 Z0.1000  
G00 X-1.2350 Y0.8995  
G01 Z-0.0070 F10    
G01 X-1.3050 Y0.8995  F20    
G01 X-1.3128 Y0.9011  
G01 X-1.3202 Y0.9041  
G01 X-1.3268 Y0.9085  
G01 X-1.3275 Y0.9092  
G01 X-1.3275 Y0.8708  
G01 X-1.3268 Y0.8715  
G01 X-1.3202 Y0.8759  
G01 X-1.3128 Y0.8789  
G01 X-1.3050 Y0.8805  
G01 X-1.2350 Y0.8805  
G01 X-1.2272 Y0.8789  
G01 X-1.2198 Y0.8759  
G01 X-1.2132 Y0.8715  
G01 X-1.2082 Y0.8665  
G01 X-1.1607 Y0.9140  
G01 X-1.1568 Y0.9163  
G01 X-1.1523 Y0.9175  
G01 X-0.4977 Y0.9175  
G01 X-0.4932 Y0.9163  
G01 X-0.4893 Y0.9140  
G01 X-0.4860 Y0.9107  
G01 X-0.3428 Y0.7675  
G01 X-0.3204 Y0.7675  
G01 X-0.3345 Y0.7816  
G01 X-0.3345 Y0.7825  
G01 X-0.3353 Y0.7825  
G01 X-0.3373 Y0.7825  
G01 X-0.3376 Y0.7826  
G01 X-0.3380 Y0.7826  
G01 X-0.3398 Y0.7832  
G01 X-0.3418 Y0.7837  
G01 X-0.3420 Y0.7839  
G01 X-0.3424 Y0.7840  
G01 X-0.3440 Y0.7850  
G01 X-0.3457 Y0.7860  
G01 X-0.3460 Y0.7862  
G01 X-0.3463 Y0.7864  
G01 X-0.3476 Y0.7879  
G01 X-0.3490 Y0.7893  
G01 X-0.3492 Y0.7895  
G01 X-0.4726 Y0.9225  
G01 X-1.2024 Y0.9225  
G01 X-1.2031 Y0.9208  
G01 X-1.2075 Y0.9142  
G01 X-1.2132 Y0.9085  
G01 X-1.2198 Y0.9041  
G01 X-1.2272 Y0.9011  
G01 X-1.2350 Y0.8995  
G00 Z0.1000  
G00 X-1.2132 Y0.9715  
G01 Z-0.0070 F10    
G01 X-1.2075 Y0.9658  F20    
G01 X-1.2031 Y0.9592  
G01 X-1.2024 Y0.9575  
G01 X-0.4670 Y0.9575  
G01 X-0.4667 Y0.9576  
G01 X-0.4647 Y0.9575  
G01 X-0.4627 Y0.9575  
G01 X-0.4624 Y0.9574  
G01 X-0.4622 Y0.9574  
G01 X-0.4740 Y0.9693  
G01 X-0.4763 Y0.9732  
G01 X-0.4770 Y0.9757  
G01 X-0.4932 Y0.9595  
G01 X-0.5268 Y0.9595  
G01 X-0.5398 Y0.9725  
G01 X-1.2147 Y0.9725  
G01 X-1.2132 Y0.9715  
G00 Z0.1000  
G00 X-0.5505 Y1.0168  
G01 Z-0.0070 F10    
G01 X-0.5348 Y1.0325  F20    
G01 X-1.1992 Y1.0325  
G01 X-1.2001 Y1.0282  
G01 X-1.2031 Y1.0208  
G01 X-1.2075 Y1.0142  
G01 X-1.2132 Y1.0085  
G01 X-1.2147 Y1.0075  
G01 X-0.5505 Y1.0075  
G01 X-0.5505 Y1.0168  
G00 Z0.1000  
G00 X-1.5058 Y1.2105  
G01 Z-0.0070 F10    
G01 X-1.4732 Y1.2105  F20    
G01 X-1.4575 Y1.1948  
G01 X-1.4575 Y1.2052  
G01 X-1.4805 Y1.2282  
G01 X-1.4805 Y1.2608  
G01 X-1.4922 Y1.2725  
G01 X-1.7628 Y1.2725  
G01 X-1.7649 Y1.2704  
G01 X-1.7623 Y1.2712  
G01 X-1.7541 Y1.2725  
G01 X-1.7459 Y1.2725  
G01 X-1.7377 Y1.2712  
G01 X-1.7298 Y1.2687  
G01 X-1.7225 Y1.2649  
G01 X-1.7158 Y1.2600  
G01 X-1.7100 Y1.2542  
G01 X-1.7051 Y1.2475  
G01 X-1.7013 Y1.2402  
G01 X-1.6988 Y1.2323  
G01 X-1.6975 Y1.2241  
G01 X-1.6975 Y1.2175  
G01 X-1.5177 Y1.2175  
G01 X-1.5132 Y1.2163  
G01 X-1.5093 Y1.2140  
G01 X-1.5060 Y1.2107  
G01 X-1.5058 Y1.2105  
G00 Z0.1000  
G00 X-1.3875 Y0.5522  
G01 Z-0.0070 F10    
G01 X-1.3860 Y0.5507  F20    
G01 X-1.3837 Y0.5468  
G01 X-1.3825 Y0.5423  
G01 X-1.3825 Y0.5377  
G01 X-1.3837 Y0.5332  
G01 X-1.3860 Y0.5293  
G01 X-1.3875 Y0.5278  
G01 X-1.3875 Y0.5075  
G01 X-1.3253 Y0.5075  
G01 X-1.3268 Y0.5085  
G01 X-1.3325 Y0.5142  
G01 X-1.3369 Y0.5208  
G01 X-1.3399 Y0.5282  
G01 X-1.3415 Y0.5360  
G01 X-1.3415 Y0.5440  
G01 X-1.3399 Y0.5518  
G01 X-1.3369 Y0.5592  
G01 X-1.3357 Y0.5610  
G01 X-1.3740 Y0.5993  
G01 X-1.3763 Y0.6032  
G01 X-1.3775 Y0.6077  
G01 X-1.3775 Y0.6623  
G01 X-1.3763 Y0.6668  
G01 X-1.3740 Y0.6707  
G01 X-1.3707 Y0.6740  
G01 X-1.3407 Y0.7040  
G01 X-1.3368 Y0.7063  
G01 X-1.3323 Y0.7075  
G01 X-1.3253 Y0.7075  
G01 X-1.3268 Y0.7085  
G01 X-1.3325 Y0.7142  
G01 X-1.3369 Y0.7208  
G01 X-1.3376 Y0.7225  
G01 X-1.3393 Y0.7225  
G01 X-1.3410 Y0.7224  
G01 X-1.3416 Y0.7225  
G01 X-1.3423 Y0.7225  
G01 X-1.3439 Y0.7229  
G01 X-1.3455 Y0.7232  
G01 X-1.3461 Y0.7235  
G01 X-1.3468 Y0.7237  
G01 X-1.3482 Y0.7245  
G01 X-1.3496 Y0.7252  
G01 X-1.3502 Y0.7257  
G01 X-1.3507 Y0.7260  
G01 X-1.3519 Y0.7272  
G01 X-1.3852 Y0.7557  
G01 X-1.3857 Y0.7560  
G01 X-1.3869 Y0.7572  
G01 X-1.3875 Y0.7577  
G01 X-1.3875 Y0.5522  
G00 Z0.1000  
G00 X-1.5132 Y0.7715  
G01 Z-0.0070 F10    
G01 X-1.5125 Y0.7708  F20    
G01 X-1.5125 Y0.7725  
G01 X-1.5147 Y0.7725  
G01 X-1.5132 Y0.7715  
G00 Z0.1000  
G00 X-1.4322 Y0.1275  
G01 Z-0.0070 F10    
G01 X-1.4340 Y0.1293  F20    
G01 X-1.4640 Y0.1593  
G01 X-1.4663 Y0.1632  
G01 X-1.4675 Y0.1677  
G01 X-1.4675 Y0.5988  
G01 X-1.4676 Y0.5998  
G01 X-1.4675 Y0.6011  
G01 X-1.4675 Y0.6023  
G01 X-1.4672 Y0.6033  
G01 X-1.4671 Y0.6044  
G01 X-1.4666 Y0.6055  
G01 X-1.4663 Y0.6068  
G01 X-1.4658 Y0.6077  
G01 X-1.4654 Y0.6087  
G01 X-1.4646 Y0.6097  
G01 X-1.4640 Y0.6107  
G01 X-1.4633 Y0.6115  
G01 X-1.4525 Y0.6258  
G01 X-1.4525 Y0.6377  
G01 X-1.4725 Y0.6137  
G01 X-1.4725 Y0.1472  
G01 X-1.4528 Y0.1275  
G01 X-1.4322 Y0.1275  
G00 Z0.1000  
G00 X-1.7720 Y1.1723  
G01 Z-0.0070 F10    
G01 X-1.7775 Y1.1751  F20    
G01 X-1.7842 Y1.1800  
G01 X-1.7900 Y1.1858  
G01 X-1.7949 Y1.1925  
G01 X-1.7987 Y1.1998  
G01 X-1.8012 Y1.2077  
G01 X-1.8025 Y1.2159  
G01 X-1.8025 Y1.2241  
G01 X-1.8012 Y1.2323  
G01 X-1.8004 Y1.2349  
G01 X-1.8025 Y1.2328  
G01 X-1.8025 Y1.1972  
G01 X-1.7747 Y1.1695  
G01 X-1.7720 Y1.1723  
G00 Z0.1000  
G00 X-2.0831 Y0.1308  
G01 Z-0.0070 F10    
G01 X-2.0875 Y0.1242  F20    
G01 X-2.0932 Y0.1185  
G01 X-2.0998 Y0.1141  
G01 X-2.1072 Y0.1111  
G01 X-2.1150 Y0.1095  
G01 X-2.1850 Y0.1095  
G01 X-2.1928 Y0.1111  
G01 X-2.2002 Y0.1141  
G01 X-2.2068 Y0.1185  
G01 X-2.2125 Y0.1242  
G01 X-2.2169 Y0.1308  
G01 X-2.2199 Y0.1382  
G01 X-2.2215 Y0.1460  
G01 X-2.2215 Y0.1540  
G01 X-2.2199 Y0.1618  
G01 X-2.2169 Y0.1692  
G01 X-2.2125 Y0.1758  
G01 X-2.2068 Y0.1815  
G01 X-2.2002 Y0.1859  
G01 X-2.1928 Y0.1889  
G01 X-2.1850 Y0.1905  
G01 X-2.1275 Y0.1905  
G01 X-2.1275 Y0.2028  
G01 X-2.1342 Y0.2095  
G01 X-2.1850 Y0.2095  
G01 X-2.1928 Y0.2111  
G01 X-2.2002 Y0.2141  
G01 X-2.2068 Y0.2185  
G01 X-2.2125 Y0.2242  
G01 X-2.2169 Y0.2308  
G01 X-2.2199 Y0.2382  
G01 X-2.2215 Y0.2460  
G01 X-2.2215 Y0.2540  
G01 X-2.2199 Y0.2618  
G01 X-2.2169 Y0.2692  
G01 X-2.2125 Y0.2758  
G01 X-2.2068 Y0.2815  
G01 X-2.2002 Y0.2859  
G01 X-2.1928 Y0.2889  
G01 X-2.1850 Y0.2905  
G01 X-2.1275 Y0.2905  
G01 X-2.1275 Y0.3028  
G01 X-2.1342 Y0.3095  
G01 X-2.1850 Y0.3095  
G01 X-2.1928 Y0.3111  
G01 X-2.2002 Y0.3141  
G01 X-2.2068 Y0.3185  
G01 X-2.2125 Y0.3242  
G01 X-2.2169 Y0.3308  
G01 X-2.2176 Y0.3325  
G01 X-2.3125 Y0.3325  
G01 X-2.3125 Y0.1272  
G01 X-2.2228 Y0.0375  
G01 X-2.0572 Y0.0375  
G01 X-2.0590 Y0.0393  
G01 X-2.0757 Y0.0560  
G01 X-2.0790 Y0.0593  
G01 X-2.0813 Y0.0632  
G01 X-2.0825 Y0.0677  
G01 X-2.0825 Y0.1323  
G01 X-2.0831 Y0.1308  
G00 Z0.1000  
G00 X-2.0831 Y0.2308  
G01 Z-0.0070 F10    
G01 X-2.0875 Y0.2242  F20    
G01 X-2.0932 Y0.2185  
G01 X-2.0943 Y0.2178  
G01 X-2.0937 Y0.2168  
G01 X-2.0925 Y0.2123  
G01 X-2.0925 Y0.1808  
G01 X-2.0875 Y0.1758  
G01 X-2.0831 Y0.1692  
G01 X-2.0825 Y0.1677  
G01 X-2.0825 Y0.2323  
G01 X-2.0831 Y0.2308  
G00 Z0.1000  
G00 X-2.0831 Y0.3308  
G01 Z-0.0070 F10    
G01 X-2.0875 Y0.3242  F20    
G01 X-2.0932 Y0.3185  
G01 X-2.0943 Y0.3178  
G01 X-2.0937 Y0.3168  
G01 X-2.0925 Y0.3123  
G01 X-2.0925 Y0.2808  
G01 X-2.0875 Y0.2758  
G01 X-2.0831 Y0.2692  
G01 X-2.0825 Y0.2677  
G01 X-2.0825 Y0.3323  
G01 X-2.0831 Y0.3308  
G00 Z0.1000  
G00 X-2.0831 Y0.3692  
G01 Z-0.0070 F10    
G01 X-2.0825 Y0.3677  F20    
G01 X-2.0825 Y0.3709  
G01 X-2.0859 Y0.3733  
G01 X-2.0831 Y0.3692  
G00 Z0.1000  
G00 X-2.0543 Y0.3940  
G01 Z-0.0070 F10    
G01 X-2.0537 Y0.3934  F20    
G01 X-2.0530 Y0.3930  
G01 X-2.0521 Y0.3918  
G01 X-2.0510 Y0.3907  
G01 X-2.0506 Y0.3900  
G01 X-2.0501 Y0.3894  
G01 X-2.0494 Y0.3881  
G01 X-2.0487 Y0.3868  
G01 X-2.0485 Y0.3860  
G01 X-2.0481 Y0.3852  
G01 X-2.0479 Y0.3838  
G01 X-2.0475 Y0.3823  
G01 X-2.0475 Y0.3815  
G01 X-2.0474 Y0.3807  
G01 X-2.0475 Y0.3792  
G01 X-2.0475 Y0.0772  
G01 X-2.0378 Y0.0675  
G01 X-1.9222 Y0.0675  
G01 X-1.9240 Y0.0693  
G01 X-2.0207 Y0.1660  
G01 X-2.0240 Y0.1693  
G01 X-2.0263 Y0.1732  
G01 X-2.0275 Y0.1777  
G01 X-2.0275 Y0.3878  
G01 X-2.0372 Y0.3975  
G01 X-2.0594 Y0.3975  
G01 X-2.0556 Y0.3948  
G01 X-2.0543 Y0.3940  
G00 Z0.1000  
G00 X-2.1240 Y0.4543  
G01 Z-0.0070 F10    
G01 X-2.1263 Y0.4582  F20    
G01 X-2.1275 Y0.4627  
G01 X-2.1275 Y0.5123  
G01 X-2.1263 Y0.5168  
G01 X-2.1240 Y0.5207  
G01 X-2.1207 Y0.5240  
G01 X-2.0840 Y0.5607  
G01 X-2.0807 Y0.5640  
G01 X-2.0768 Y0.5663  
G01 X-2.0723 Y0.5675  
G01 X-1.6972 Y0.5675  
G01 X-1.6775 Y0.5872  
G01 X-1.6775 Y0.7223  
G01 X-1.6763 Y0.7268  
G01 X-1.6740 Y0.7307  
G01 X-1.6590 Y0.7457  
G01 X-1.6557 Y0.7490  
G01 X-1.6518 Y0.7513  
G01 X-1.6473 Y0.7525  
G01 X-1.6397 Y0.7525  
G01 X-1.6369 Y0.7592  
G01 X-1.6325 Y0.7658  
G01 X-1.6268 Y0.7715  
G01 X-1.6253 Y0.7725  
G01 X-1.6323 Y0.7725  
G01 X-1.6368 Y0.7737  
G01 X-1.6407 Y0.7760  
G01 X-1.6607 Y0.7960  
G01 X-1.6640 Y0.7993  
G01 X-1.6663 Y0.8032  
G01 X-1.6675 Y0.8077  
G01 X-1.6675 Y0.8623  
G01 X-1.6663 Y0.8668  
G01 X-1.6640 Y0.8707  
G01 X-1.6340 Y0.9007  
G01 X-1.6307 Y0.9040  
G01 X-1.6268 Y0.9063  
G01 X-1.6244 Y0.9069  
G01 X-1.6268 Y0.9085  
G01 X-1.6325 Y0.9142  
G01 X-1.6369 Y0.9208  
G01 X-1.6376 Y0.9225  
G01 X-1.6728 Y0.9225  
G01 X-1.6925 Y0.9028  
G01 X-1.6925 Y0.6277  
G01 X-1.6937 Y0.6232  
G01 X-1.6960 Y0.6193  
G01 X-1.7360 Y0.5793  
G01 X-1.7393 Y0.5760  
G01 X-1.7432 Y0.5737  
G01 X-1.7477 Y0.5725  
G01 X-2.0828 Y0.5725  
G01 X-2.1325 Y0.5228  
G01 X-2.1325 Y0.4491  
G01 X-2.0860 Y0.4162  
G01 X-2.1240 Y0.4543  
G00 Z0.1000  
G00 X-2.1607 Y0.4260  
G01 Z-0.0070 F10    
G01 X-2.1613 Y0.4266  F20    
G01 X-2.1620 Y0.4270  
G01 X-2.1629 Y0.4282  
G01 X-2.1640 Y0.4293  
G01 X-2.1644 Y0.4300  
G01 X-2.1649 Y0.4306  
G01 X-2.1656 Y0.4319  
G01 X-2.1663 Y0.4332  
G01 X-2.1665 Y0.4340  
G01 X-2.1669 Y0.4348  
G01 X-2.1671 Y0.4362  
G01 X-2.1675 Y0.4377  
G01 X-2.1675 Y0.4385  
G01 X-2.1676 Y0.4393  
G01 X-2.1675 Y0.4408  
G01 X-2.1675 Y0.5323  
G01 X-2.1663 Y0.5368  
G01 X-2.1640 Y0.5407  
G01 X-2.1007 Y0.6040  
G01 X-2.0968 Y0.6063  
G01 X-2.0923 Y0.6075  
G01 X-1.7572 Y0.6075  
G01 X-1.7275 Y0.6372  
G01 X-1.7275 Y0.9123  
G01 X-1.7263 Y0.9168  
G01 X-1.7240 Y0.9207  
G01 X-1.7207 Y0.9240  
G01 X-1.6940 Y0.9507  
G01 X-1.6907 Y0.9540  
G01 X-1.6868 Y0.9563  
G01 X-1.6823 Y0.9575  
G01 X-1.6376 Y0.9575  
G01 X-1.6369 Y0.9592  
G01 X-1.6325 Y0.9658  
G01 X-1.6268 Y0.9715  
G01 X-1.6202 Y0.9759  
G01 X-1.6128 Y0.9789  
G01 X-1.6050 Y0.9805  
G01 X-1.5350 Y0.9805  
G01 X-1.5272 Y0.9789  
G01 X-1.5198 Y0.9759  
G01 X-1.5132 Y0.9715  
G01 X-1.5075 Y0.9658  
G01 X-1.5031 Y0.9592  
G01 X-1.5001 Y0.9518  
G01 X-1.4985 Y0.9440  
G01 X-1.4985 Y0.9360  
G01 X-1.5001 Y0.9282  
G01 X-1.5031 Y0.9208  
G01 X-1.5075 Y0.9142  
G01 X-1.5132 Y0.9085  
G01 X-1.5147 Y0.9075  
