(.../pcb-gcode-3.5.2.11/pcb-gcode.ulp)
(Copyright 2005 - 2009 by John Johnson)
(See readme.txt for licensing terms.)
(This file generated from the board:)
(.../docs/examples/04151_lcdi2c.brd)
(Current profile is .../pcb-gcode-3.5.2.11/profiles/emc.pp  )
(This file generated 11/23/11 4:02 PM)
(Settings from pcb-machine.h)
(  Tool Size)
(0.0030 )
(Z Axis Settings)
(  High     Up        Down     Drill)
(0.5000 	0.1000 	-0.0070 	-0.0320 )
(spindle on time = 3.0000)
(milling depth = -0.0100)
(text depth = -0.0050)
(tool change at 0.5000 0.6000 1.5432 )
(feed rate xy = F20.00 )
(feed rate z  = F10.00 )
(Settings from pcb-defaults.h)
(Default isolate = 0.0010)
(isolate max = 0.0002)
(isolate step = 0.0050)
(Generated top outlines, top drill, bottom outlines, )
(Unit of measure: inch)
(Inch Mode)
G20
(Absolute Coordinates)
G90
G00 X0.0000 Y0.0000 
M03
G04 P3.000000
G00 Z0.1000 
G00 X-0.1701 Y0.5386 
G01 Z-0.0070 F10.00 
G01 X-0.1721 Y0.5395 F20.00 
G01 X-0.3306 Y0.5395 
G01 X-0.5145 Y0.3556 
G01 X-0.5206 Y0.3495 
G01 X-0.6506 Y0.3495 
G01 X-0.6945 Y0.3056 
G01 X-0.7006 Y0.2995 
G01 X-0.9256 Y0.2995 
G01 X-0.9343 Y0.2995 
G01 X-0.9756 Y0.2995 
G01 X-1.0056 Y0.2695 
G01 X-1.0143 Y0.2695 
G01 X-1.0355 Y0.2695 
G01 X-1.0355 Y0.2633 
G01 X-1.0406 Y0.2510 
G01 X-1.0500 Y0.2416 
G01 X-1.0623 Y0.2365 
G01 X-1.1377 Y0.2365 
G01 X-1.1500 Y0.2416 
G01 X-1.1594 Y0.2510 
G01 X-1.1645 Y0.2633 
G01 X-1.1645 Y0.2767 
G01 X-1.1636 Y0.2788 
G01 X-1.2092 Y0.3244 
G01 X-1.2106 Y0.3210 
G01 X-1.2200 Y0.3116 
G01 X-1.2323 Y0.3065 
G01 X-1.2495 Y0.3065 
G01 X-1.2495 Y0.2569 
G01 X-1.2365 Y0.2439 
G01 X-1.2365 Y0.2161 
G01 X-1.2561 Y0.1965 
G01 X-1.2839 Y0.1965 
G01 X-1.3035 Y0.2161 
G01 X-1.3035 Y0.2439 
G01 X-1.2839 Y0.2635 
G01 X-1.2705 Y0.2635 
G01 X-1.2705 Y0.3065 
G01 X-1.3077 Y0.3065 
G01 X-1.3200 Y0.3116 
G01 X-1.3294 Y0.3210 
G01 X-1.3345 Y0.3333 
G01 X-1.3345 Y0.3467 
G01 X-1.3294 Y0.3590 
G01 X-1.3200 Y0.3684 
G01 X-1.3077 Y0.3735 
G01 X-1.2323 Y0.3735 
G01 X-1.2200 Y0.3684 
G01 X-1.2106 Y0.3590 
G01 X-1.2081 Y0.3529 
G01 X-1.1518 Y0.2966 
G01 X-1.1500 Y0.2984 
G01 X-1.1377 Y0.3035 
G01 X-1.0623 Y0.3035 
G01 X-1.0500 Y0.2984 
G01 X-1.0421 Y0.2905 
G01 X-1.0143 Y0.2905 
G01 X-0.9843 Y0.3205 
G01 X-0.9756 Y0.3205 
G01 X-0.9355 Y0.3205 
G01 X-0.9355 Y0.4243 
G01 X-0.9293 Y0.4305 
G01 X-0.9206 Y0.4305 
G01 X-0.8193 Y0.4305 
G01 X-0.6805 Y0.5693 
G01 X-0.6805 Y0.6856 
G01 X-0.7521 Y0.7572 
G01 X-0.7561 Y0.7556 
G01 X-0.7694 Y0.7556 
G01 X-0.7817 Y0.7607 
G01 X-0.7912 Y0.7701 
G01 X-0.7963 Y0.7824 
G01 X-0.7963 Y0.8577 
G01 X-0.7912 Y0.8700 
G01 X-0.7817 Y0.8795 
G01 X-0.7694 Y0.8846 
G01 X-0.7561 Y0.8846 
G01 X-0.7438 Y0.8795 
G01 X-0.7344 Y0.8700 
G01 X-0.7293 Y0.8577 
G01 X-0.7293 Y0.7824 
G01 X-0.7344 Y0.7701 
G01 X-0.7348 Y0.7696 
G01 X-0.6595 Y0.6943 
G01 X-0.6595 Y0.6856 
G01 X-0.6595 Y0.5693 
G01 X-0.6595 Y0.5606 
G01 X-0.8045 Y0.4156 
G01 X-0.8106 Y0.4095 
G01 X-0.9145 Y0.4095 
G01 X-0.9145 Y0.3205 
G01 X-0.7093 Y0.3205 
G01 X-0.6593 Y0.3705 
G01 X-0.6506 Y0.3705 
G01 X-0.5293 Y0.3705 
G01 X-0.3393 Y0.5605 
G01 X-0.3306 Y0.5605 
G01 X-0.1720 Y0.5605 
G01 X-0.1509 Y0.5689 
G01 X-0.1493 Y0.5705 
G01 X-0.1105 Y0.6093 
G01 X-0.1105 Y0.9105 
G01 X-0.1702 Y0.9668 
G01 X-0.1745 Y0.9625 
G01 X-0.2055 Y0.9625 
G01 X-0.2275 Y0.9845 
G01 X-0.2275 Y1.0155 
G01 X-0.2214 Y1.0216 
G01 X-0.3493 Y1.1495 
G01 X-1.0883 Y1.1495 
G01 X-1.0908 Y1.1487 
G01 X-1.0925 Y1.1495 
G01 X-1.0943 Y1.1495 
G01 X-1.0952 Y1.1504 
G01 X-1.1042 Y1.1414 
G01 X-1.1209 Y1.1345 
G01 X-1.1391 Y1.1345 
G01 X-1.1558 Y1.1414 
G01 X-1.1686 Y1.1542 
G01 X-1.1755 Y1.1709 
G01 X-1.1755 Y1.1891 
G01 X-1.1692 Y1.2043 
G01 X-1.2043 Y1.2395 
G01 X-1.2456 Y1.2395 
G01 X-1.3156 Y1.1695 
G01 X-1.3243 Y1.1695 
G01 X-1.3565 Y1.1695 
G01 X-1.3565 Y1.1561 
G01 X-1.3761 Y1.1365 
G01 X-1.4039 Y1.1365 
G01 X-1.4235 Y1.1561 
G01 X-1.4235 Y1.1839 
G01 X-1.4039 Y1.2035 
G01 X-1.3761 Y1.2035 
G01 X-1.3631 Y1.1905 
G01 X-1.3243 Y1.1905 
G01 X-1.2605 Y1.2543 
G01 X-1.2543 Y1.2605 
G01 X-1.2043 Y1.2605 
G01 X-1.1956 Y1.2605 
G01 X-1.1543 Y1.2192 
G01 X-1.1391 Y1.2255 
G01 X-1.1209 Y1.2255 
G01 X-1.1042 Y1.2186 
G01 X-1.0914 Y1.2058 
G01 X-1.0845 Y1.1891 
G01 X-1.0845 Y1.1709 
G01 X-1.0847 Y1.1705 
G01 X-0.3493 Y1.1705 
G01 X-0.3406 Y1.1705 
G01 X-0.2066 Y1.0364 
G01 X-0.2055 Y1.0375 
G01 X-0.1745 Y1.0375 
G01 X-0.1525 Y1.0155 
G01 X-0.1525 Y0.9845 
G01 X-0.1553 Y0.9817 
G01 X-0.0958 Y0.9255 
G01 X-0.0956 Y0.9255 
G01 X-0.0927 Y0.9225 
G01 X-0.0896 Y0.9196 
G01 X-0.0896 Y0.9195 
G01 X-0.0895 Y0.9193 
G01 X-0.0895 Y0.9151 
G01 X-0.0894 Y0.9109 
G01 X-0.0895 Y0.9108 
G01 X-0.0895 Y0.6006 
G01 X-0.0956 Y0.5945 
G01 X-0.1302 Y0.5600 
G01 X-0.1295 Y0.5593 
G01 X-0.1295 Y0.3643 
G01 X-0.1295 Y0.3556 
G01 X-0.4756 Y0.0095 
G01 X-0.4843 Y0.0095 
G01 X-2.2343 Y0.0095 
G01 X-2.2405 Y0.0156 
G01 X-2.3343 Y0.1095 
G01 X-2.3405 Y0.1156 
G01 X-2.3405 Y0.3456 
G01 X-2.3405 Y0.3543 
G01 X-2.3405 Y0.7756 
G01 X-2.3405 Y0.7843 
G01 X-2.2793 Y0.8455 
G01 X-2.2706 Y0.8455 
G01 X-2.1893 Y0.8455 
G01 X-2.0395 Y0.9953 
G01 X-2.0525 Y1.0083 
G01 X-2.0525 Y1.0517 
G01 X-2.0217 Y1.0825 
G01 X-1.9783 Y1.0825 
G01 X-1.9475 Y1.0517 
G01 X-1.9475 Y1.0083 
G01 X-1.9783 Y0.9775 
G01 X-2.0217 Y0.9775 
G01 X-2.0244 Y0.9802 
G01 X-2.0251 Y0.9801 
G01 X-2.1745 Y0.8306 
G01 X-2.1806 Y0.8245 
G01 X-2.2706 Y0.8245 
G01 X-2.3195 Y0.7756 
G01 X-2.3195 Y0.3605 
G01 X-2.2129 Y0.3605 
G01 X-2.2094 Y0.3690 
G01 X-2.2000 Y0.3784 
G01 X-2.1877 Y0.3835 
G01 X-2.1123 Y0.3835 
G01 X-2.1000 Y0.3784 
G01 X-2.0906 Y0.3690 
G01 X-2.0855 Y0.3567 
G01 X-2.0855 Y0.3433 
G01 X-2.0906 Y0.3310 
G01 X-2.1000 Y0.3216 
G01 X-2.1048 Y0.3196 
G01 X-2.0995 Y0.3143 
G01 X-2.0995 Y0.3056 
G01 X-2.0995 Y0.2779 
G01 X-2.0906 Y0.2690 
G01 X-2.0855 Y0.2567 
G01 X-2.0855 Y0.2433 
G01 X-2.0906 Y0.2310 
G01 X-2.1000 Y0.2216 
G01 X-2.1048 Y0.2196 
G01 X-2.0995 Y0.2143 
G01 X-2.0995 Y0.2056 
G01 X-2.0995 Y0.1779 
G01 X-2.0906 Y0.1690 
G01 X-2.0855 Y0.1567 
G01 X-2.0855 Y0.1433 
G01 X-2.0906 Y0.1310 
G01 X-2.1000 Y0.1216 
G01 X-2.1123 Y0.1165 
G01 X-2.1877 Y0.1165 
G01 X-2.2000 Y0.1216 
G01 X-2.2094 Y0.1310 
G01 X-2.2145 Y0.1433 
G01 X-2.2145 Y0.1567 
G01 X-2.2094 Y0.1690 
G01 X-2.2000 Y0.1784 
G01 X-2.1877 Y0.1835 
G01 X-2.1205 Y0.1835 
G01 X-2.1205 Y0.2056 
G01 X-2.1313 Y0.2165 
G01 X-2.1877 Y0.2165 
G01 X-2.2000 Y0.2216 
G01 X-2.2094 Y0.2310 
G01 X-2.2145 Y0.2433 
G01 X-2.2145 Y0.2567 
G01 X-2.2094 Y0.2690 
G01 X-2.2000 Y0.2784 
G01 X-2.1877 Y0.2835 
G01 X-2.1205 Y0.2835 
G01 X-2.1205 Y0.3056 
G01 X-2.1313 Y0.3165 
G01 X-2.1877 Y0.3165 
G01 X-2.2000 Y0.3216 
G01 X-2.2094 Y0.3310 
G01 X-2.2129 Y0.3395 
G01 X-2.3195 Y0.3395 
G01 X-2.3195 Y0.1243 
G01 X-2.2257 Y0.0305 
G01 X-0.4843 Y0.0305 
G01 X-0.1505 Y0.3643 
G01 X-0.1505 Y0.5465 
G01 X-0.1641 Y0.5411 
G01 X-0.1656 Y0.5395 
G01 X-0.1680 Y0.5395 
G01 X-0.1701 Y0.5386 
G00 Z0.1000 
G00 X-1.5235 Y1.1561 
G01 Z-0.0070 F10.00 
G01 X-1.5235 Y1.1839 F20.00 
G01 X-1.5211 Y1.1863 
G01 X-1.5243 Y1.1895 
G01 X-1.7083 Y1.1895 
G01 X-1.7108 Y1.1887 
G01 X-1.7125 Y1.1895 
G01 X-1.7143 Y1.1895 
G01 X-1.7152 Y1.1904 
G01 X-1.7242 Y1.1814 
G01 X-1.7409 Y1.1745 
G01 X-1.7591 Y1.1745 
G01 X-1.7758 Y1.1814 
G01 X-1.7886 Y1.1942 
G01 X-1.7955 Y1.2109 
G01 X-1.7955 Y1.2291 
G01 X-1.7886 Y1.2458 
G01 X-1.7758 Y1.2586 
G01 X-1.7591 Y1.2655 
G01 X-1.7409 Y1.2655 
G01 X-1.7242 Y1.2586 
G01 X-1.7114 Y1.2458 
G01 X-1.7045 Y1.2291 
G01 X-1.7045 Y1.2109 
G01 X-1.7047 Y1.2105 
G01 X-1.5156 Y1.2105 
G01 X-1.5095 Y1.2043 
G01 X-1.5063 Y1.2011 
G01 X-1.5039 Y1.2035 
G01 X-1.4761 Y1.2035 
G01 X-1.4565 Y1.1839 
G01 X-1.4565 Y1.1561 
G01 X-1.4761 Y1.1365 
G01 X-1.4795 Y1.1365 
G01 X-1.4795 Y1.1343 
G01 X-1.3450 Y0.9998 
G01 X-1.3443 Y1.0005 
G01 X-1.3356 Y1.0005 
G01 X-0.5435 Y1.0005 
G01 X-0.5435 Y1.0139 
G01 X-0.5239 Y1.0335 
G01 X-0.4961 Y1.0335 
G01 X-0.4765 Y1.0139 
G01 X-0.4765 Y0.9861 
G01 X-0.4961 Y0.9665 
G01 X-0.5239 Y0.9665 
G01 X-0.5369 Y0.9795 
G01 X-1.3345 Y0.9795 
G01 X-1.3345 Y0.8093 
G01 X-1.3256 Y0.8005 
G01 X-1.1993 Y0.8005 
G01 X-1.1755 Y0.8243 
G01 X-1.1693 Y0.8305 
G01 X-0.9537 Y0.8305 
G01 X-0.9537 Y0.8577 
G01 X-0.9486 Y0.8700 
G01 X-0.9392 Y0.8795 
G01 X-0.9269 Y0.8846 
G01 X-0.9136 Y0.8846 
G01 X-0.9013 Y0.8795 
G01 X-0.8918 Y0.8700 
G01 X-0.8867 Y0.8577 
G01 X-0.8867 Y0.7824 
G01 X-0.8918 Y0.7701 
G01 X-0.9013 Y0.7607 
G01 X-0.9136 Y0.7556 
G01 X-0.9269 Y0.7556 
G01 X-0.9392 Y0.7607 
G01 X-0.9486 Y0.7701 
G01 X-0.9537 Y0.7824 
G01 X-0.9537 Y0.8095 
G01 X-1.1606 Y0.8095 
G01 X-1.1906 Y0.7795 
G01 X-1.1993 Y0.7795 
G01 X-1.3343 Y0.7795 
G01 X-1.3405 Y0.7856 
G01 X-1.3555 Y0.8006 
G01 X-1.3555 Y0.8093 
G01 X-1.3555 Y0.9806 
G01 X-1.5005 Y1.1256 
G01 X-1.5005 Y1.1343 
G01 X-1.5005 Y1.1365 
G01 X-1.5039 Y1.1365 
G01 X-1.5235 Y1.1561 
G00 Z0.1000 
G00 X-2.0735 Y0.4661 
G01 Z-0.0070 F10.00 
G01 X-2.0735 Y0.4939 F20.00 
G01 X-2.0539 Y0.5135 
G01 X-2.0261 Y0.5135 
G01 X-2.0065 Y0.4939 
G01 X-2.0065 Y0.4661 
G01 X-2.0105 Y0.4622 
G01 X-1.9623 Y0.4071 
G01 X-1.9595 Y0.4043 
G01 X-1.9595 Y0.4039 
G01 X-1.9592 Y0.4036 
G01 X-1.9595 Y0.3996 
G01 X-1.9595 Y0.2248 
G01 X-1.9024 Y0.1759 
G01 X-1.9000 Y0.1784 
G01 X-1.8877 Y0.1835 
G01 X-1.8123 Y0.1835 
G01 X-1.8000 Y0.1784 
G01 X-1.7906 Y0.1690 
G01 X-1.7896 Y0.1666 
G01 X-1.7548 Y0.1701 
G01 X-1.6152 Y0.3096 
G01 X-1.6200 Y0.3116 
G01 X-1.6294 Y0.3210 
G01 X-1.6345 Y0.3333 
G01 X-1.6345 Y0.3467 
G01 X-1.6294 Y0.3590 
G01 X-1.6200 Y0.3684 
G01 X-1.6077 Y0.3735 
G01 X-1.5323 Y0.3735 
G01 X-1.5200 Y0.3684 
G01 X-1.5106 Y0.3590 
G01 X-1.5055 Y0.3467 
G01 X-1.5055 Y0.3333 
G01 X-1.5106 Y0.3210 
G01 X-1.5200 Y0.3116 
G01 X-1.5323 Y0.3065 
G01 X-1.5886 Y0.3065 
G01 X-1.7422 Y0.1530 
G01 X-1.7446 Y0.1500 
G01 X-1.7452 Y0.1499 
G01 X-1.7456 Y0.1495 
G01 X-1.7495 Y0.1495 
G01 X-1.7855 Y0.1459 
G01 X-1.7855 Y0.1433 
G01 X-1.7906 Y0.1310 
G01 X-1.8000 Y0.1216 
G01 X-1.8123 Y0.1165 
G01 X-1.8877 Y0.1165 
G01 X-1.9000 Y0.1216 
G01 X-1.9094 Y0.1310 
G01 X-1.9145 Y0.1433 
G01 X-1.9145 Y0.1567 
G01 X-1.9139 Y0.1581 
G01 X-1.9739 Y0.2095 
G01 X-1.9743 Y0.2095 
G01 X-1.9771 Y0.2123 
G01 X-1.9801 Y0.2149 
G01 X-1.9802 Y0.2153 
G01 X-1.9805 Y0.2156 
G01 X-1.9805 Y0.2196 
G01 X-1.9808 Y0.2235 
G01 X-1.9805 Y0.2239 
G01 X-1.9805 Y0.3961 
G01 X-2.0253 Y0.4473 
G01 X-2.0261 Y0.4465 
G01 X-2.0539 Y0.4465 
G01 X-2.0735 Y0.4661 
G00 Z0.1000 
G00 X-1.9535 Y0.4661 
G01 Z-0.0070 F10.00 
G01 X-1.9535 Y0.4939 F20.00 
G01 X-1.9339 Y0.5135 
G01 X-1.9061 Y0.5135 
G01 X-1.8865 Y0.4939 
G01 X-1.8865 Y0.4661 
G01 X-1.9061 Y0.4465 
G01 X-1.9195 Y0.4465 
G01 X-1.9195 Y0.2898 
G01 X-1.9030 Y0.2753 
G01 X-1.9000 Y0.2784 
G01 X-1.8877 Y0.2835 
G01 X-1.8123 Y0.2835 
G01 X-1.8116 Y0.2832 
G01 X-1.6443 Y0.4505 
G01 X-1.6356 Y0.4505 
G01 X-1.6329 Y0.4505 
G01 X-1.6294 Y0.4590 
G01 X-1.6200 Y0.4684 
G01 X-1.6077 Y0.4735 
G01 X-1.5323 Y0.4735 
G01 X-1.5200 Y0.4684 
G01 X-1.5106 Y0.4590 
G01 X-1.5055 Y0.4467 
G01 X-1.5055 Y0.4333 
G01 X-1.5106 Y0.4210 
G01 X-1.5200 Y0.4116 
G01 X-1.5323 Y0.4065 
G01 X-1.6077 Y0.4065 
G01 X-1.6200 Y0.4116 
G01 X-1.6294 Y0.4210 
G01 X-1.6329 Y0.4295 
G01 X-1.6356 Y0.4295 
G01 X-1.7934 Y0.2718 
G01 X-1.7906 Y0.2690 
G01 X-1.7855 Y0.2567 
G01 X-1.7855 Y0.2433 
G01 X-1.7906 Y0.2310 
G01 X-1.8000 Y0.2216 
G01 X-1.8123 Y0.2165 
G01 X-1.8877 Y0.2165 
G01 X-1.9000 Y0.2216 
G01 X-1.9094 Y0.2310 
G01 X-1.9145 Y0.2433 
G01 X-1.9145 Y0.2567 
G01 X-1.9142 Y0.2573 
G01 X-1.9339 Y0.2745 
G01 X-1.9343 Y0.2745 
G01 X-1.9372 Y0.2773 
G01 X-1.9402 Y0.2800 
G01 X-1.9402 Y0.2804 
G01 X-1.9405 Y0.2806 
G01 X-1.9405 Y0.2846 
G01 X-1.9408 Y0.2886 
G01 X-1.9405 Y0.2889 
G01 X-1.9405 Y0.4531 
G01 X-1.9535 Y0.4661 
G00 Z0.1000 
G00 X-1.8335 Y0.4661 
G01 Z-0.0070 F10.00 
G01 X-1.8335 Y0.4939 F20.00 
G01 X-1.8139 Y0.5135 
G01 X-1.7861 Y0.5135 
G01 X-1.7665 Y0.4939 
G01 X-1.7665 Y0.4905 
G01 X-1.6843 Y0.4905 
G01 X-1.6345 Y0.5403 
G01 X-1.6345 Y0.5467 
G01 X-1.6294 Y0.5590 
G01 X-1.6200 Y0.5684 
G01 X-1.6077 Y0.5735 
G01 X-1.5323 Y0.5735 
G01 X-1.5200 Y0.5684 
G01 X-1.5106 Y0.5590 
G01 X-1.5055 Y0.5467 
G01 X-1.5055 Y0.5333 
G01 X-1.5106 Y0.5210 
G01 X-1.5200 Y0.5116 
G01 X-1.5323 Y0.5065 
G01 X-1.6077 Y0.5065 
G01 X-1.6200 Y0.5116 
G01 X-1.6268 Y0.5184 
G01 X-1.6695 Y0.4757 
G01 X-1.6756 Y0.4695 
G01 X-1.7665 Y0.4695 
G01 X-1.7665 Y0.4661 
G01 X-1.7861 Y0.4465 
G01 X-1.8087 Y0.4465 
G01 X-1.8395 Y0.4156 
G01 X-1.8395 Y0.3835 
G01 X-1.8123 Y0.3835 
G01 X-1.8000 Y0.3784 
G01 X-1.7906 Y0.3690 
G01 X-1.7855 Y0.3567 
G01 X-1.7855 Y0.3433 
G01 X-1.7906 Y0.3310 
G01 X-1.8000 Y0.3216 
G01 X-1.8123 Y0.3165 
G01 X-1.8877 Y0.3165 
G01 X-1.9000 Y0.3216 
G01 X-1.9094 Y0.3310 
G01 X-1.9145 Y0.3433 
G01 X-1.9145 Y0.3567 
G01 X-1.9094 Y0.3690 
G01 X-1.9000 Y0.3784 
G01 X-1.8877 Y0.3835 
G01 X-1.8605 Y0.3835 
G01 X-1.8605 Y0.4243 
G01 X-1.8543 Y0.4305 
G01 X-1.8261 Y0.4587 
G01 X-1.8335 Y0.4661 
G00 Z0.1000 
G00 X-0.8377 Y0.4035 
G01 Z-0.0070 F10.00 
G01 X-0.7623 Y0.4035 F20.00 
G01 X-0.7500 Y0.3984 
G01 X-0.7457 Y0.3941 
G01 X-0.6993 Y0.4405 
G01 X-0.6906 Y0.4405 
G01 X-0.5593 Y0.4405 
G01 X-0.4905 Y0.5093 
G01 X-0.4905 Y0.5143 
G01 X-0.4843 Y0.5205 
G01 X-0.3443 Y0.6605 
G01 X-0.3356 Y0.6605 
G01 X-0.1735 Y0.6605 
G01 X-0.1405 Y0.6852 
G01 X-0.1405 Y0.8148 
G01 X-0.1735 Y0.8395 
G01 X-0.2356 Y0.8395 
G01 X-0.2443 Y0.8395 
G01 X-0.2709 Y0.8661 
G01 X-0.2745 Y0.8625 
G01 X-0.3055 Y0.8625 
G01 X-0.3275 Y0.8845 
G01 X-0.3275 Y0.9155 
G01 X-0.3055 Y0.9375 
G01 X-0.2745 Y0.9375 
G01 X-0.2525 Y0.9155 
G01 X-0.2525 Y0.8845 
G01 X-0.2561 Y0.8809 
G01 X-0.2356 Y0.8605 
G01 X-0.1707 Y0.8605 
G01 X-0.1672 Y0.8610 
G01 X-0.1665 Y0.8605 
G01 X-0.1656 Y0.8605 
G01 X-0.1631 Y0.8579 
G01 X-0.1265 Y0.8305 
G01 X-0.1256 Y0.8305 
G01 X-0.1231 Y0.8279 
G01 X-0.1202 Y0.8258 
G01 X-0.1201 Y0.8249 
G01 X-0.1195 Y0.8243 
G01 X-0.1195 Y0.8207 
G01 X-0.1190 Y0.8172 
G01 X-0.1195 Y0.8165 
G01 X-0.1195 Y0.6835 
G01 X-0.1190 Y0.6828 
G01 X-0.1195 Y0.6793 
G01 X-0.1195 Y0.6756 
G01 X-0.1201 Y0.6751 
G01 X-0.1202 Y0.6742 
G01 X-0.1231 Y0.6720 
G01 X-0.1256 Y0.6695 
G01 X-0.1265 Y0.6695 
G01 X-0.1631 Y0.6421 
G01 X-0.1656 Y0.6395 
G01 X-0.1665 Y0.6395 
G01 X-0.1672 Y0.6390 
G01 X-0.1707 Y0.6395 
G01 X-0.3356 Y0.6395 
G01 X-0.4695 Y0.5056 
G01 X-0.4695 Y0.5006 
G01 X-0.5445 Y0.4256 
G01 X-0.5506 Y0.4195 
G01 X-0.6906 Y0.4195 
G01 X-0.7355 Y0.3746 
G01 X-0.7355 Y0.3633 
G01 X-0.7406 Y0.3510 
G01 X-0.7500 Y0.3416 
G01 X-0.7623 Y0.3365 
G01 X-0.8377 Y0.3365 
G01 X-0.8500 Y0.3416 
G01 X-0.8594 Y0.3510 
G01 X-0.8645 Y0.3633 
G01 X-0.8645 Y0.3767 
G01 X-0.8594 Y0.3890 
G01 X-0.8500 Y0.3984 
G01 X-0.8377 Y0.4035 
G00 Z0.1000 
G00 X-0.2275 Y0.3845 
G01 Z-0.0070 F10.00 
G01 X-0.2275 Y0.4155 F20.00 
G01 X-0.2055 Y0.4375 
G01 X-0.1745 Y0.4375 
G01 X-0.1525 Y0.4155 
G01 X-0.1525 Y0.3845 
G01 X-0.1745 Y0.3625 
G01 X-0.1826 Y0.3625 
G01 X-0.4995 Y0.0456 
G01 X-0.5056 Y0.0395 
G01 X-2.0493 Y0.0395 
G01 X-2.0555 Y0.0456 
G01 X-2.0693 Y0.0595 
G01 X-2.0755 Y0.0656 
G01 X-2.0755 Y0.3746 
G01 X-2.1533 Y0.4295 
G01 X-2.1543 Y0.4295 
G01 X-2.1568 Y0.4319 
G01 X-2.1596 Y0.4339 
G01 X-2.1598 Y0.4349 
G01 X-2.1605 Y0.4356 
G01 X-2.1605 Y0.4391 
G01 X-2.1611 Y0.4425 
G01 X-2.1605 Y0.4433 
G01 X-2.1605 Y0.5256 
G01 X-2.1605 Y0.5343 
G01 X-2.0943 Y0.6005 
G01 X-2.0856 Y0.6005 
G01 X-1.7543 Y0.6005 
G01 X-1.7205 Y0.6343 
G01 X-1.7205 Y0.9143 
G01 X-1.7143 Y0.9205 
G01 X-1.6905 Y0.9443 
G01 X-1.6843 Y0.9505 
G01 X-1.6329 Y0.9505 
G01 X-1.6294 Y0.9590 
G01 X-1.6200 Y0.9684 
G01 X-1.6077 Y0.9735 
G01 X-1.5323 Y0.9735 
G01 X-1.5200 Y0.9684 
G01 X-1.5106 Y0.9590 
G01 X-1.5055 Y0.9467 
G01 X-1.5055 Y0.9333 
G01 X-1.5106 Y0.9210 
G01 X-1.5200 Y0.9116 
G01 X-1.5323 Y0.9065 
G01 X-1.6077 Y0.9065 
G01 X-1.6200 Y0.9116 
G01 X-1.6294 Y0.9210 
G01 X-1.6329 Y0.9295 
G01 X-1.6756 Y0.9295 
G01 X-1.6995 Y0.9056 
G01 X-1.6995 Y0.6343 
G01 X-1.6995 Y0.6256 
G01 X-1.7395 Y0.5856 
G01 X-1.7456 Y0.5795 
G01 X-2.0856 Y0.5795 
G01 X-2.1395 Y0.5256 
G01 X-2.1395 Y0.4454 
G01 X-2.0617 Y0.3905 
G01 X-2.0606 Y0.3905 
G01 X-2.0582 Y0.3881 
G01 X-2.0554 Y0.3861 
G01 X-2.0552 Y0.3851 
G01 X-2.0545 Y0.3843 
G01 X-2.0545 Y0.3809 
G01 X-2.0539 Y0.3775 
G01 X-2.0545 Y0.3767 
G01 X-2.0545 Y0.0743 
G01 X-2.0407 Y0.0605 
G01 X-0.5143 Y0.0605 
G01 X-0.2089 Y0.3659 
G01 X-0.2275 Y0.3845 
G00 Z0.1000 
G00 X-0.2275 Y0.5845 
G01 Z-0.0070 F10.00 
G01 X-0.2275 Y0.6155 F20.00 
G01 X-0.2055 Y0.6375 
G01 X-0.1745 Y0.6375 
G01 X-0.1525 Y0.6155 
G01 X-0.1525 Y0.5845 
G01 X-0.1745 Y0.5625 
G01 X-0.2055 Y0.5625 
G01 X-0.2275 Y0.5845 
G00 Z0.1000 
G00 X-0.2275 Y0.6845 
G01 Z-0.0070 F10.00 
G01 X-0.2275 Y0.7155 F20.00 
G01 X-0.2055 Y0.7375 
G01 X-0.1745 Y0.7375 
G01 X-0.1525 Y0.7155 
G01 X-0.1525 Y0.6845 
G01 X-0.1745 Y0.6625 
G01 X-0.2055 Y0.6625 
G01 X-0.2275 Y0.6845 
G00 Z0.1000 
G00 X-0.2275 Y0.8845 
G01 Z-0.0070 F10.00 
G01 X-0.2275 Y0.9155 F20.00 
G01 X-0.2239 Y0.9191 
G01 X-0.2443 Y0.9395 
G01 X-0.4343 Y0.9395 
G01 X-0.4405 Y0.9456 
G01 X-0.4705 Y0.9756 
G01 X-0.4705 Y0.9843 
G01 X-0.4705 Y1.0156 
G01 X-0.4943 Y1.0395 
G01 X-1.2055 Y1.0395 
G01 X-1.2055 Y1.0333 
G01 X-1.2106 Y1.0210 
G01 X-1.2200 Y1.0116 
G01 X-1.2323 Y1.0065 
G01 X-1.3077 Y1.0065 
G01 X-1.3200 Y1.0116 
G01 X-1.3294 Y1.0210 
G01 X-1.3345 Y1.0333 
G01 X-1.3345 Y1.0467 
G01 X-1.3294 Y1.0590 
G01 X-1.3200 Y1.0684 
G01 X-1.3077 Y1.0735 
G01 X-1.2323 Y1.0735 
G01 X-1.2200 Y1.0684 
G01 X-1.2121 Y1.0605 
G01 X-0.4943 Y1.0605 
G01 X-0.4856 Y1.0605 
G01 X-0.4556 Y1.0305 
G01 X-0.4495 Y1.0243 
G01 X-0.4495 Y0.9843 
G01 X-0.4256 Y0.9605 
G01 X-0.2443 Y0.9605 
G01 X-0.2356 Y0.9605 
G01 X-0.2091 Y0.9339 
G01 X-0.2055 Y0.9375 
G01 X-0.1745 Y0.9375 
G01 X-0.1525 Y0.9155 
G01 X-0.1525 Y0.8845 
G01 X-0.1745 Y0.8625 
G01 X-0.2055 Y0.8625 
G01 X-0.2275 Y0.8845 
G00 Z0.1000 
G00 X-0.3275 Y0.5845 
G01 Z-0.0070 F10.00 
G01 X-0.3275 Y0.6155 F20.00 
G01 X-0.3055 Y0.6375 
G01 X-0.2745 Y0.6375 
G01 X-0.2525 Y0.6155 
G01 X-0.2525 Y0.5845 
G01 X-0.2745 Y0.5625 
G01 X-0.3055 Y0.5625 
G01 X-0.3275 Y0.5845 
G00 Z0.1000 
G00 X-0.3275 Y0.6845 
G01 Z-0.0070 F10.00 
G01 X-0.3275 Y0.7155 F20.00 
G01 X-0.3055 Y0.7375 
G01 X-0.2745 Y0.7375 
G01 X-0.2525 Y0.7155 
G01 X-0.2525 Y0.6845 
G01 X-0.2745 Y0.6625 
G01 X-0.3055 Y0.6625 
G01 X-0.3275 Y0.6845 
G00 Z0.1000 
G00 X-0.3275 Y0.7845 
G01 Z-0.0070 F10.00 
G01 X-0.3275 Y0.7895 F20.00 
G01 X-0.3309 Y0.7895 
G01 X-0.3310 Y0.7893 
G01 X-0.3352 Y0.7895 
G01 X-0.3393 Y0.7895 
G01 X-0.3395 Y0.7897 
G01 X-0.3397 Y0.7897 
G01 X-0.3425 Y0.7927 
G01 X-0.3455 Y0.7956 
G01 X-0.3455 Y0.7959 
G01 X-0.4696 Y0.9295 
G01 X-1.2071 Y0.9295 
G01 X-1.2106 Y0.9210 
G01 X-1.2200 Y0.9116 
G01 X-1.2323 Y0.9065 
G01 X-1.3077 Y0.9065 
G01 X-1.3200 Y0.9116 
G01 X-1.3294 Y0.9210 
G01 X-1.3345 Y0.9333 
G01 X-1.3345 Y0.9467 
G01 X-1.3294 Y0.9590 
G01 X-1.3200 Y0.9684 
G01 X-1.3077 Y0.9735 
G01 X-1.2323 Y0.9735 
G01 X-1.2200 Y0.9684 
G01 X-1.2106 Y0.9590 
G01 X-1.2071 Y0.9505 
G01 X-0.4691 Y0.9505 
G01 X-0.4690 Y0.9506 
G01 X-0.4648 Y0.9505 
G01 X-0.4606 Y0.9505 
G01 X-0.4605 Y0.9503 
G01 X-0.4603 Y0.9503 
G01 X-0.4574 Y0.9473 
G01 X-0.4545 Y0.9443 
G01 X-0.4545 Y0.9441 
G01 X-0.3304 Y0.8105 
G01 X-0.3275 Y0.8105 
G01 X-0.3275 Y0.8155 
G01 X-0.3055 Y0.8375 
G01 X-0.2745 Y0.8375 
G01 X-0.2525 Y0.8155 
G01 X-0.2525 Y0.7845 
G01 X-0.2745 Y0.7625 
G01 X-0.3055 Y0.7625 
G01 X-0.3275 Y0.7845 
G00 Z0.1000 
G00 X-1.2323 Y0.7065 
G01 Z-0.0070 F10.00 
G01 X-1.3077 Y0.7065 F20.00 
G01 X-1.3200 Y0.7116 
G01 X-1.3294 Y0.7210 
G01 X-1.3329 Y0.7295 
G01 X-1.3396 Y0.7295 
G01 X-1.3435 Y0.7292 
G01 X-1.3439 Y0.7295 
G01 X-1.3443 Y0.7295 
G01 X-1.3471 Y0.7323 
G01 X-1.3789 Y0.7595 
G01 X-1.3793 Y0.7595 
G01 X-1.3821 Y0.7623 
G01 X-1.3851 Y0.7649 
G01 X-1.3852 Y0.7653 
G01 X-1.3855 Y0.7656 
G01 X-1.3855 Y0.7696 
G01 X-1.3858 Y0.7735 
G01 X-1.3855 Y0.7739 
G01 X-1.3855 Y0.9258 
G01 X-1.4875 Y1.0327 
G01 X-1.4905 Y1.0356 
G01 X-1.4905 Y1.0358 
G01 X-1.4906 Y1.0359 
G01 X-1.4905 Y1.0402 
G01 X-1.4905 Y1.0656 
G01 X-1.5143 Y1.0895 
G01 X-1.6356 Y1.0895 
G01 X-1.7095 Y1.0156 
G01 X-1.7156 Y1.0095 
G01 X-1.7756 Y1.0095 
G01 X-1.7843 Y1.0095 
G01 X-1.9243 Y1.1495 
G01 X-2.1056 Y1.1495 
G01 X-2.1495 Y1.1056 
G01 X-2.1556 Y1.0995 
G01 X-2.1657 Y1.0995 
G01 X-2.2395 Y1.0257 
G01 X-2.2456 Y1.0195 
G01 X-2.2475 Y1.0195 
G01 X-2.2475 Y1.0083 
G01 X-2.2783 Y0.9775 
G01 X-2.3217 Y0.9775 
G01 X-2.3525 Y1.0083 
G01 X-2.3525 Y1.0517 
G01 X-2.3217 Y1.0825 
G01 X-2.2783 Y1.0825 
G01 X-2.2475 Y1.0517 
G01 X-2.2475 Y1.0473 
G01 X-2.1805 Y1.1143 
G01 X-2.1743 Y1.1205 
G01 X-2.1643 Y1.1205 
G01 X-2.1205 Y1.1643 
G01 X-2.1143 Y1.1705 
G01 X-1.9243 Y1.1705 
G01 X-1.9156 Y1.1705 
G01 X-1.7756 Y1.0305 
G01 X-1.7243 Y1.0305 
G01 X-1.6443 Y1.1105 
G01 X-1.6356 Y1.1105 
G01 X-1.5056 Y1.1105 
G01 X-1.4995 Y1.1043 
G01 X-1.4695 Y1.0743 
G01 X-1.4695 Y1.0656 
G01 X-1.4695 Y1.0442 
G01 X-1.3675 Y0.9373 
G01 X-1.3645 Y0.9343 
G01 X-1.3645 Y0.9342 
G01 X-1.3644 Y0.9341 
G01 X-1.3645 Y0.9298 
G01 X-1.3645 Y0.7748 
G01 X-1.3361 Y0.7505 
G01 X-1.3329 Y0.7505 
G01 X-1.3294 Y0.7590 
G01 X-1.3200 Y0.7684 
G01 X-1.3077 Y0.7735 
G01 X-1.2323 Y0.7735 
G01 X-1.2200 Y0.7684 
G01 X-1.2106 Y0.7590 
G01 X-1.2055 Y0.7467 
G01 X-1.2055 Y0.7333 
G01 X-1.2106 Y0.7210 
G01 X-1.2200 Y0.7116 
G01 X-1.2323 Y0.7065 
G00 Z0.1000 
G00 X-1.2323 Y0.8065 
G01 Z-0.0070 F10.00 
G01 X-1.3077 Y0.8065 F20.00 
G01 X-1.3200 Y0.8116 
G01 X-1.3294 Y0.8210 
G01 X-1.3345 Y0.8333 
G01 X-1.3345 Y0.8467 
G01 X-1.3294 Y0.8590 
G01 X-1.3200 Y0.8684 
G01 X-1.3077 Y0.8735 
G01 X-1.2323 Y0.8735 
G01 X-1.2200 Y0.8684 
G01 X-1.2106 Y0.8590 
G01 X-1.2092 Y0.8556 
G01 X-1.1543 Y0.9105 
G01 X-1.1456 Y0.9105 
G01 X-0.4956 Y0.9105 
G01 X-0.4895 Y0.9043 
G01 X-0.3456 Y0.7605 
G01 X-0.2443 Y0.7605 
G01 X-0.2239 Y0.7809 
G01 X-0.2275 Y0.7845 
G01 X-0.2275 Y0.8155 
G01 X-0.2055 Y0.8375 
G01 X-0.1745 Y0.8375 
G01 X-0.1525 Y0.8155 
G01 X-0.1525 Y0.7845 
G01 X-0.1745 Y0.7625 
G01 X-0.2055 Y0.7625 
G01 X-0.2091 Y0.7661 
G01 X-0.2295 Y0.7456 
G01 X-0.2356 Y0.7395 
G01 X-0.3456 Y0.7395 
G01 X-0.3543 Y0.7395 
G01 X-0.5043 Y0.8895 
G01 X-1.1456 Y0.8895 
G01 X-1.1995 Y0.8356 
G01 X-1.2056 Y0.8295 
G01 X-1.2071 Y0.8295 
G01 X-1.2106 Y0.8210 
G01 X-1.2200 Y0.8116 
G01 X-1.2323 Y0.8065 
G00 Z0.1000 
G00 X-1.5323 Y0.8065 
G01 Z-0.0070 F10.00 
G01 X-1.6077 Y0.8065 F20.00 
G01 X-1.6200 Y0.8116 
G01 X-1.6294 Y0.8210 
G01 X-1.6345 Y0.8333 
G01 X-1.6345 Y0.8467 
G01 X-1.6294 Y0.8590 
G01 X-1.6200 Y0.8684 
G01 X-1.6077 Y0.8735 
G01 X-1.5323 Y0.8735 
G01 X-1.5200 Y0.8684 
G01 X-1.5106 Y0.8590 
G01 X-1.5071 Y0.8505 
G01 X-1.5039 Y0.8505 
G01 X-1.5036 Y0.8508 
G01 X-1.4996 Y0.8505 
G01 X-1.4956 Y0.8505 
G01 X-1.4954 Y0.8502 
G01 X-1.4950 Y0.8502 
G01 X-1.4923 Y0.8472 
G01 X-1.4895 Y0.8443 
G01 X-1.4895 Y0.8439 
G01 X-1.4573 Y0.8071 
G01 X-1.4545 Y0.8043 
G01 X-1.4545 Y0.8039 
G01 X-1.4542 Y0.8036 
G01 X-1.4545 Y0.7996 
G01 X-1.4545 Y0.6505 
G01 X-1.4541 Y0.6466 
G01 X-1.4545 Y0.6462 
G01 X-1.4545 Y0.6456 
G01 X-1.4572 Y0.6429 
G01 X-1.4795 Y0.6162 
G01 X-1.4795 Y0.1443 
G01 X-1.4556 Y0.1205 
G01 X-0.5843 Y0.1205 
G01 X-0.3239 Y0.3809 
G01 X-0.3275 Y0.3845 
G01 X-0.3275 Y0.4155 
G01 X-0.3055 Y0.4375 
G01 X-0.2745 Y0.4375 
G01 X-0.2525 Y0.4155 
G01 X-0.2525 Y0.3845 
G01 X-0.2745 Y0.3625 
G01 X-0.3055 Y0.3625 
G01 X-0.3091 Y0.3661 
G01 X-0.5695 Y0.1056 
G01 X-0.5756 Y0.0995 
G01 X-1.4556 Y0.0995 
G01 X-1.4643 Y0.0995 
G01 X-1.5005 Y0.1356 
G01 X-1.5005 Y0.1443 
G01 X-1.5005 Y0.6195 
G01 X-1.5008 Y0.6234 
G01 X-1.5005 Y0.6238 
G01 X-1.5005 Y0.6243 
G01 X-1.4978 Y0.6271 
G01 X-1.4755 Y0.6538 
G01 X-1.4755 Y0.7961 
G01 X-1.5048 Y0.8295 
G01 X-1.5071 Y0.8295 
G01 X-1.5106 Y0.8210 
G01 X-1.5200 Y0.8116 
G01 X-1.5323 Y0.8065 
G00 Z0.1000 
G00 X-1.5323 Y0.7065 
G01 Z-0.0070 F10.00 
G01 X-1.6077 Y0.7065 F20.00 
G01 X-1.6200 Y0.7116 
G01 X-1.6294 Y0.7210 
G01 X-1.6308 Y0.7245 
G01 X-1.6406 Y0.7245 
G01 X-1.6495 Y0.7156 
G01 X-1.6495 Y0.5756 
G01 X-1.6556 Y0.5695 
G01 X-1.6856 Y0.5395 
G01 X-1.6943 Y0.5395 
G01 X-2.0656 Y0.5395 
G01 X-2.0995 Y0.5057 
G01 X-2.0995 Y0.4693 
G01 X-2.0556 Y0.4255 
G01 X-2.0256 Y0.4255 
G01 X-2.0195 Y0.4193 
G01 X-1.9995 Y0.3993 
G01 X-1.9995 Y0.3906 
G01 X-1.9995 Y0.1843 
G01 X-1.9057 Y0.0905 
G01 X-0.5393 Y0.0905 
G01 X-0.2505 Y0.3793 
G01 X-0.2505 Y0.4456 
G01 X-0.2505 Y0.4543 
G01 X-0.2239 Y0.4809 
G01 X-0.2275 Y0.4845 
G01 X-0.2275 Y0.5155 
G01 X-0.2055 Y0.5375 
G01 X-0.1745 Y0.5375 
G01 X-0.1525 Y0.5155 
G01 X-0.1525 Y0.4845 
G01 X-0.1745 Y0.4625 
G01 X-0.2055 Y0.4625 
G01 X-0.2091 Y0.4661 
G01 X-0.2295 Y0.4456 
G01 X-0.2295 Y0.3793 
G01 X-0.2295 Y0.3706 
G01 X-0.5306 Y0.0695 
G01 X-0.5393 Y0.0695 
G01 X-1.9143 Y0.0695 
G01 X-1.9205 Y0.0756 
G01 X-2.0143 Y0.1695 
G01 X-2.0205 Y0.1756 
G01 X-2.0205 Y0.3906 
G01 X-2.0343 Y0.4045 
G01 X-2.0556 Y0.4045 
G01 X-2.0643 Y0.4045 
G01 X-2.1205 Y0.4606 
G01 X-2.1205 Y0.4693 
G01 X-2.1205 Y0.5143 
G01 X-2.1143 Y0.5205 
G01 X-2.0805 Y0.5543 
G01 X-2.0743 Y0.5605 
G01 X-1.6943 Y0.5605 
G01 X-1.6705 Y0.5843 
G01 X-1.6705 Y0.7156 
G01 X-1.6705 Y0.7243 
G01 X-1.6555 Y0.7393 
G01 X-1.6493 Y0.7455 
G01 X-1.6345 Y0.7455 
G01 X-1.6345 Y0.7467 
G01 X-1.6294 Y0.7590 
G01 X-1.6200 Y0.7684 
G01 X-1.6077 Y0.7735 
G01 X-1.5323 Y0.7735 
G01 X-1.5200 Y0.7684 
G01 X-1.5106 Y0.7590 
G01 X-1.5055 Y0.7467 
G01 X-1.5055 Y0.7333 
G01 X-1.5106 Y0.7210 
G01 X-1.5200 Y0.7116 
G01 X-1.5323 Y0.7065 
G00 Z0.1000 
G00 X-1.5323 Y0.6065 
G01 Z-0.0070 F10.00 
G01 X-1.6077 Y0.6065 F20.00 
G01 X-1.6200 Y0.6116 
G01 X-1.6294 Y0.6210 
G01 X-1.6345 Y0.6333 
G01 X-1.6345 Y0.6467 
G01 X-1.6294 Y0.6590 
G01 X-1.6200 Y0.6684 
G01 X-1.6077 Y0.6735 
G01 X-1.5323 Y0.6735 
G01 X-1.5200 Y0.6684 
G01 X-1.5146 Y0.6629 
G01 X-1.5055 Y0.6738 
G01 X-1.5055 Y0.7775 
G01 X-1.5065 Y0.7795 
G01 X-1.6256 Y0.7795 
G01 X-1.6343 Y0.7795 
G01 X-1.6543 Y0.7995 
G01 X-1.6605 Y0.8056 
G01 X-1.6605 Y0.8556 
G01 X-1.6605 Y0.8643 
G01 X-1.6305 Y0.8943 
G01 X-1.6243 Y0.9005 
G01 X-1.4941 Y0.9005 
G01 X-1.4939 Y0.9007 
G01 X-1.4898 Y0.9005 
G01 X-1.4856 Y0.9005 
G01 X-1.4855 Y0.9003 
G01 X-1.4852 Y0.9003 
G01 X-1.4824 Y0.8972 
G01 X-1.4795 Y0.8943 
G01 X-1.4795 Y0.8941 
G01 X-1.4274 Y0.8373 
G01 X-1.4245 Y0.8343 
G01 X-1.4245 Y0.8341 
G01 X-1.4243 Y0.8339 
G01 X-1.4245 Y0.8298 
G01 X-1.4245 Y0.6207 
G01 X-1.4240 Y0.6172 
G01 X-1.4245 Y0.6165 
G01 X-1.4245 Y0.6156 
G01 X-1.4271 Y0.6131 
G01 X-1.4395 Y0.5965 
G01 X-1.4395 Y0.1743 
G01 X-1.4156 Y0.1505 
G01 X-0.6143 Y0.1505 
G01 X-0.3905 Y0.3743 
G01 X-0.3905 Y0.4056 
G01 X-0.3905 Y0.4143 
G01 X-0.3239 Y0.4809 
G01 X-0.3275 Y0.4845 
G01 X-0.3275 Y0.5155 
G01 X-0.3055 Y0.5375 
G01 X-0.2745 Y0.5375 
G01 X-0.2525 Y0.5155 
G01 X-0.2525 Y0.4845 
G01 X-0.2745 Y0.4625 
G01 X-0.3055 Y0.4625 
G01 X-0.3091 Y0.4661 
G01 X-0.3695 Y0.4056 
G01 X-0.3695 Y0.3656 
G01 X-0.3756 Y0.3595 
G01 X-0.5995 Y0.1356 
G01 X-0.6056 Y0.1295 
G01 X-1.4243 Y0.1295 
G01 X-1.4305 Y0.1356 
G01 X-1.4605 Y0.1656 
G01 X-1.4605 Y0.1743 
G01 X-1.4605 Y0.5993 
G01 X-1.4610 Y0.6028 
G01 X-1.4605 Y0.6035 
G01 X-1.4605 Y0.6043 
G01 X-1.4579 Y0.6069 
G01 X-1.4455 Y0.6235 
G01 X-1.4455 Y0.8259 
G01 X-1.4946 Y0.8795 
G01 X-1.6156 Y0.8795 
G01 X-1.6395 Y0.8556 
G01 X-1.6395 Y0.8143 
G01 X-1.6256 Y0.8005 
G01 X-1.5025 Y0.8005 
G01 X-1.5008 Y0.8013 
G01 X-1.4983 Y0.8005 
G01 X-1.4956 Y0.8005 
G01 X-1.4943 Y0.7992 
G01 X-1.4926 Y0.7986 
G01 X-1.4914 Y0.7962 
G01 X-1.4895 Y0.7943 
G01 X-1.4895 Y0.7925 
G01 X-1.4864 Y0.7862 
G01 X-1.4845 Y0.7843 
G01 X-1.4845 Y0.7825 
G01 X-1.4837 Y0.7808 
G01 X-1.4845 Y0.7783 
G01 X-1.4845 Y0.6705 
G01 X-1.4841 Y0.6666 
G01 X-1.4845 Y0.6662 
G01 X-1.4845 Y0.6656 
G01 X-1.4872 Y0.6629 
G01 X-1.5055 Y0.6410 
G01 X-1.5055 Y0.6333 
G01 X-1.5106 Y0.6210 
G01 X-1.5200 Y0.6116 
G01 X-1.5323 Y0.6065 
G00 Z0.1000 
G00 X-0.9144 Y0.6023 
G01 Z-0.0070 F10.00 
G01 X-0.9144 Y0.6195 F20.00 
G01 X-1.2121 Y0.6195 
G01 X-1.2200 Y0.6116 
G01 X-1.2323 Y0.6065 
G01 X-1.3077 Y0.6065 
G01 X-1.3200 Y0.6116 
G01 X-1.3294 Y0.6210 
G01 X-1.3345 Y0.6333 
G01 X-1.3345 Y0.6467 
G01 X-1.3294 Y0.6590 
G01 X-1.3200 Y0.6684 
G01 X-1.3077 Y0.6735 
G01 X-1.2323 Y0.6735 
G01 X-1.2200 Y0.6684 
G01 X-1.2106 Y0.6590 
G01 X-1.2055 Y0.6467 
G01 X-1.2055 Y0.6405 
G01 X-0.9144 Y0.6405 
G01 X-0.9144 Y0.6776 
G01 X-0.9093 Y0.6899 
G01 X-0.8998 Y0.6993 
G01 X-0.8875 Y0.7044 
G01 X-0.8742 Y0.7044 
G01 X-0.8619 Y0.6993 
G01 X-0.8525 Y0.6899 
G01 X-0.8474 Y0.6776 
G01 X-0.8474 Y0.6023 
G01 X-0.8525 Y0.5900 
G01 X-0.8619 Y0.5805 
G01 X-0.8742 Y0.5754 
G01 X-0.8875 Y0.5754 
G01 X-0.8998 Y0.5805 
G01 X-0.9093 Y0.5900 
G01 X-0.9144 Y0.6023 
G00 Z0.1000 
G00 X-0.7569 Y0.6023 
G01 Z-0.0070 F10.00 
G01 X-0.7569 Y0.6776 F20.00 
G01 X-0.7518 Y0.6899 
G01 X-0.7424 Y0.6993 
G01 X-0.7300 Y0.7044 
G01 X-0.7167 Y0.7044 
G01 X-0.7044 Y0.6993 
G01 X-0.6950 Y0.6899 
G01 X-0.6899 Y0.6776 
G01 X-0.6899 Y0.6023 
G01 X-0.6950 Y0.5900 
G01 X-0.7044 Y0.5805 
G01 X-0.7095 Y0.5784 
G01 X-0.7095 Y0.5706 
G01 X-0.7156 Y0.5645 
G01 X-0.8406 Y0.4395 
G01 X-0.8493 Y0.4395 
G01 X-1.2055 Y0.4395 
G01 X-1.2055 Y0.4333 
G01 X-1.2106 Y0.4210 
G01 X-1.2200 Y0.4116 
G01 X-1.2323 Y0.4065 
G01 X-1.3077 Y0.4065 
G01 X-1.3200 Y0.4116 
G01 X-1.3294 Y0.4210 
G01 X-1.3345 Y0.4333 
G01 X-1.3345 Y0.4467 
G01 X-1.3294 Y0.4590 
G01 X-1.3200 Y0.4684 
G01 X-1.3077 Y0.4735 
G01 X-1.2323 Y0.4735 
G01 X-1.2200 Y0.4684 
G01 X-1.2121 Y0.4605 
G01 X-0.8493 Y0.4605 
G01 X-0.7331 Y0.5767 
G01 X-0.7424 Y0.5805 
G01 X-0.7518 Y0.5900 
G01 X-0.7569 Y0.6023 
G00 Z0.1000 
G00 X-0.8080 Y0.8577 
G01 Z-0.0070 F10.00 
G01 X-0.8080 Y0.7824 F20.00 
G01 X-0.8131 Y0.7701 
G01 X-0.8225 Y0.7607 
G01 X-0.8345 Y0.7557 
G01 X-0.8345 Y0.7506 
G01 X-0.8406 Y0.7445 
G01 X-0.8706 Y0.7145 
G01 X-0.8793 Y0.7145 
G01 X-0.9106 Y0.7145 
G01 X-0.9456 Y0.6795 
G01 X-0.9543 Y0.6795 
G01 X-1.3256 Y0.6795 
G01 X-1.3495 Y0.6556 
G01 X-1.3495 Y0.6143 
G01 X-1.3084 Y0.5732 
G01 X-1.3077 Y0.5735 
G01 X-1.2323 Y0.5735 
G01 X-1.2200 Y0.5684 
G01 X-1.2106 Y0.5590 
G01 X-1.2055 Y0.5467 
G01 X-1.2055 Y0.5333 
G01 X-1.2106 Y0.5210 
G01 X-1.2200 Y0.5116 
G01 X-1.2323 Y0.5065 
G01 X-1.3077 Y0.5065 
G01 X-1.3200 Y0.5116 
G01 X-1.3294 Y0.5210 
G01 X-1.3345 Y0.5333 
G01 X-1.3345 Y0.5467 
G01 X-1.3294 Y0.5590 
G01 X-1.3266 Y0.5618 
G01 X-1.3705 Y0.6056 
G01 X-1.3705 Y0.6143 
G01 X-1.3705 Y0.6643 
G01 X-1.3643 Y0.6705 
G01 X-1.3343 Y0.7005 
G01 X-1.3256 Y0.7005 
G01 X-0.9543 Y0.7005 
G01 X-0.9255 Y0.7293 
G01 X-0.9193 Y0.7355 
G01 X-0.8793 Y0.7355 
G01 X-0.8560 Y0.7588 
G01 X-0.8605 Y0.7607 
G01 X-0.8699 Y0.7701 
G01 X-0.8750 Y0.7824 
G01 X-0.8750 Y0.8577 
G01 X-0.8699 Y0.8700 
G01 X-0.8605 Y0.8795 
G01 X-0.8482 Y0.8846 
G01 X-0.8348 Y0.8846 
G01 X-0.8225 Y0.8795 
G01 X-0.8131 Y0.8700 
G01 X-0.8080 Y0.8577 
G00 Z0.1000 
G00 X-0.8356 Y0.6023 
G01 Z-0.0070 F10.00 
G01 X-0.8356 Y0.6776 F20.00 
G01 X-0.8305 Y0.6899 
G01 X-0.8211 Y0.6993 
G01 X-0.8088 Y0.7044 
G01 X-0.7955 Y0.7044 
G01 X-0.7831 Y0.6993 
G01 X-0.7737 Y0.6899 
G01 X-0.7686 Y0.6776 
G01 X-0.7686 Y0.6023 
G01 X-0.7737 Y0.5900 
G01 X-0.7831 Y0.5805 
G01 X-0.7895 Y0.5779 
G01 X-0.7895 Y0.5706 
G01 X-0.8806 Y0.4795 
G01 X-0.8893 Y0.4795 
G01 X-1.3945 Y0.4795 
G01 X-1.3945 Y0.3543 
G01 X-1.3656 Y0.3255 
G01 X-1.3595 Y0.3193 
G01 X-1.3595 Y0.2635 
G01 X-1.3561 Y0.2635 
G01 X-1.3365 Y0.2439 
G01 X-1.3365 Y0.2213 
G01 X-1.3056 Y0.1905 
G01 X-1.0343 Y0.1905 
G01 X-0.9543 Y0.2705 
G01 X-0.9456 Y0.2705 
G01 X-0.6645 Y0.2705 
G01 X-0.6645 Y0.2767 
G01 X-0.6594 Y0.2890 
G01 X-0.6500 Y0.2984 
G01 X-0.6377 Y0.3035 
G01 X-0.5623 Y0.3035 
G01 X-0.5500 Y0.2984 
G01 X-0.5406 Y0.2890 
G01 X-0.5355 Y0.2767 
G01 X-0.5355 Y0.2633 
G01 X-0.5406 Y0.2510 
G01 X-0.5500 Y0.2416 
G01 X-0.5623 Y0.2365 
G01 X-0.6377 Y0.2365 
G01 X-0.6500 Y0.2416 
G01 X-0.6579 Y0.2495 
G01 X-0.9456 Y0.2495 
G01 X-1.0195 Y0.1756 
G01 X-1.0256 Y0.1695 
G01 X-1.3056 Y0.1695 
G01 X-1.3143 Y0.1695 
G01 X-1.3487 Y0.2039 
G01 X-1.3561 Y0.1965 
G01 X-1.3839 Y0.1965 
G01 X-1.4035 Y0.2161 
G01 X-1.4035 Y0.2439 
G01 X-1.3839 Y0.2635 
G01 X-1.3805 Y0.2635 
G01 X-1.3805 Y0.3106 
G01 X-1.4155 Y0.3456 
G01 X-1.4155 Y0.3543 
G01 X-1.4155 Y0.4943 
G01 X-1.4155 Y0.5306 
G01 X-1.4155 Y0.5356 
G01 X-1.4155 Y0.9058 
G01 X-1.5145 Y1.0095 
G01 X-1.5251 Y1.0095 
G01 X-1.5323 Y1.0065 
G01 X-1.6077 Y1.0065 
G01 X-1.6149 Y1.0095 
G01 X-1.6606 Y1.0095 
G01 X-1.7195 Y0.9506 
G01 X-1.7256 Y0.9445 
G01 X-1.7895 Y0.9445 
G01 X-1.7895 Y0.7135 
G01 X-1.7861 Y0.7135 
G01 X-1.7665 Y0.6939 
G01 X-1.7665 Y0.6661 
G01 X-1.7861 Y0.6465 
G01 X-1.8139 Y0.6465 
G01 X-1.8269 Y0.6595 
G01 X-1.8931 Y0.6595 
G01 X-1.9061 Y0.6465 
G01 X-1.9339 Y0.6465 
G01 X-1.9469 Y0.6595 
G01 X-2.0131 Y0.6595 
G01 X-2.0261 Y0.6465 
G01 X-2.0539 Y0.6465 
G01 X-2.0735 Y0.6661 
G01 X-2.0735 Y0.6939 
G01 X-2.0539 Y0.7135 
G01 X-2.0261 Y0.7135 
G01 X-2.0065 Y0.6939 
G01 X-2.0065 Y0.6805 
G01 X-1.9535 Y0.6805 
G01 X-1.9535 Y0.6939 
G01 X-1.9339 Y0.7135 
G01 X-1.9061 Y0.7135 
G01 X-1.8865 Y0.6939 
G01 X-1.8865 Y0.6805 
G01 X-1.8335 Y0.6805 
G01 X-1.8335 Y0.6939 
G01 X-1.8139 Y0.7135 
G01 X-1.8105 Y0.7135 
G01 X-1.8105 Y0.9445 
G01 X-1.8856 Y0.9445 
G01 X-1.8943 Y0.9445 
G01 X-1.9305 Y0.9806 
G01 X-1.9305 Y0.9893 
G01 X-1.9305 Y1.0656 
G01 X-1.9743 Y1.1095 
G01 X-2.0356 Y1.1095 
G01 X-2.0895 Y1.0556 
G01 X-2.0895 Y1.0343 
G01 X-2.0895 Y1.0256 
G01 X-2.1795 Y0.9356 
G01 X-2.1856 Y0.9295 
G01 X-2.3556 Y0.9295 
G01 X-2.3643 Y0.9295 
G01 X-2.4143 Y0.9795 
G01 X-2.4205 Y0.9856 
G01 X-2.4205 Y1.0756 
G01 X-2.4205 Y1.0843 
G01 X-2.3105 Y1.1943 
G01 X-2.3043 Y1.2005 
G01 X-1.8305 Y1.2005 
G01 X-1.8305 Y1.2356 
G01 X-1.8305 Y1.2443 
G01 X-1.7805 Y1.2943 
G01 X-1.7743 Y1.3005 
G01 X-1.4806 Y1.3005 
G01 X-1.4745 Y1.2943 
G01 X-1.4563 Y1.2761 
G01 X-1.4539 Y1.2785 
G01 X-1.4261 Y1.2785 
G01 X-1.4065 Y1.2589 
G01 X-1.4065 Y1.2311 
G01 X-1.4261 Y1.2115 
G01 X-1.4295 Y1.2115 
G01 X-1.4295 Y1.1443 
G01 X-1.4156 Y1.1305 
G01 X-1.3143 Y1.1305 
G01 X-1.2792 Y1.1657 
G01 X-1.2786 Y1.1674 
G01 X-1.2762 Y1.1686 
G01 X-1.2755 Y1.1693 
G01 X-1.2755 Y1.1988 
G01 X-1.2488 Y1.2255 
G01 X-1.2112 Y1.2255 
G01 X-1.1845 Y1.1988 
G01 X-1.1845 Y1.1612 
G01 X-1.1904 Y1.1552 
G01 X-1.1556 Y1.1205 
G01 X-0.4956 Y1.1205 
G01 X-0.4895 Y1.1143 
G01 X-0.4087 Y1.0335 
G01 X-0.3961 Y1.0335 
G01 X-0.3765 Y1.0139 
G01 X-0.3765 Y1.0005 
G01 X-0.3275 Y1.0005 
G01 X-0.3275 Y1.0155 
G01 X-0.3055 Y1.0375 
G01 X-0.2745 Y1.0375 
G01 X-0.2525 Y1.0155 
G01 X-0.2525 Y0.9845 
G01 X-0.2745 Y0.9625 
G01 X-0.3055 Y0.9625 
G01 X-0.3225 Y0.9795 
G01 X-0.3831 Y0.9795 
G01 X-0.3961 Y0.9665 
G01 X-0.4239 Y0.9665 
G01 X-0.4435 Y0.9861 
G01 X-0.4435 Y1.0139 
G01 X-0.4311 Y1.0263 
G01 X-0.5043 Y1.0995 
G01 X-1.1556 Y1.0995 
G01 X-1.1643 Y1.0995 
G01 X-1.2052 Y1.1404 
G01 X-1.2112 Y1.1345 
G01 X-1.2488 Y1.1345 
G01 X-1.2647 Y1.1504 
G01 X-1.2995 Y1.1157 
G01 X-1.3056 Y1.1095 
G01 X-1.4156 Y1.1095 
G01 X-1.4243 Y1.1095 
G01 X-1.4443 Y1.1295 
G01 X-1.4505 Y1.1356 
G01 X-1.4505 Y1.2115 
G01 X-1.4539 Y1.2115 
G01 X-1.4735 Y1.2311 
G01 X-1.4735 Y1.2589 
G01 X-1.4711 Y1.2613 
G01 X-1.4893 Y1.2795 
G01 X-1.7656 Y1.2795 
G01 X-1.8095 Y1.2356 
G01 X-1.8095 Y1.1943 
G01 X-1.7747 Y1.1596 
G01 X-1.7688 Y1.1655 
G01 X-1.7312 Y1.1655 
G01 X-1.7045 Y1.1388 
G01 X-1.7045 Y1.1012 
G01 X-1.7312 Y1.0745 
G01 X-1.7688 Y1.0745 
G01 X-1.7955 Y1.1012 
G01 X-1.7955 Y1.1388 
G01 X-1.7896 Y1.1447 
G01 X-1.8243 Y1.1795 
G01 X-2.2956 Y1.1795 
G01 X-2.3995 Y1.0756 
G01 X-2.3995 Y0.9943 
G01 X-2.3556 Y0.9505 
G01 X-2.1943 Y0.9505 
G01 X-2.1105 Y1.0343 
G01 X-2.1105 Y1.0643 
G01 X-2.1043 Y1.0705 
G01 X-2.0443 Y1.1305 
G01 X-2.0356 Y1.1305 
G01 X-1.9656 Y1.1305 
G01 X-1.9595 Y1.1243 
G01 X-1.9095 Y1.0743 
G01 X-1.9095 Y1.0656 
G01 X-1.9095 Y0.9893 
G01 X-1.8856 Y0.9655 
G01 X-1.7956 Y0.9655 
G01 X-1.7343 Y0.9655 
G01 X-1.6693 Y1.0305 
G01 X-1.6606 Y1.0305 
G01 X-1.6333 Y1.0305 
G01 X-1.6345 Y1.0333 
G01 X-1.6345 Y1.0467 
G01 X-1.6294 Y1.0590 
G01 X-1.6200 Y1.0684 
G01 X-1.6077 Y1.0735 
G01 X-1.5323 Y1.0735 
G01 X-1.5200 Y1.0684 
G01 X-1.5106 Y1.0590 
G01 X-1.5055 Y1.0467 
G01 X-1.5055 Y1.0333 
G01 X-1.5067 Y1.0305 
G01 X-1.5056 Y1.0305 
G01 X-1.5054 Y1.0304 
G01 X-1.5024 Y1.0273 
G01 X-1.4995 Y1.0243 
G01 X-1.4995 Y1.0242 
G01 X-1.3975 Y0.9173 
G01 X-1.3945 Y0.9143 
G01 X-1.3945 Y0.9142 
G01 X-1.3944 Y0.9141 
G01 X-1.3945 Y0.9098 
G01 X-1.3945 Y0.5493 
G01 X-1.3895 Y0.5443 
G01 X-1.3895 Y0.5356 
G01 X-1.3945 Y0.5306 
G01 X-1.3945 Y0.5005 
G01 X-0.8893 Y0.5005 
G01 X-0.8128 Y0.5771 
G01 X-0.8211 Y0.5805 
G01 X-0.8305 Y0.5900 
G01 X-0.8356 Y0.6023 
G00 Z0.1000 
G00 X-0.1500 Y1.1900 
G01 Z-0.0110 F10.00 
G00 Z0.1000 
G00 X-0.1500 Y0.1300 
G01 Z-0.0110 F10.00 
G00 Z0.1000 
G00 X-1.2700 Y0.2300 
G01 Z-0.0110 F10.00 
G00 Z0.1000 
G00 X-1.3700 Y0.2300 
G01 Z-0.0110 F10.00 
G00 Z0.1000 
G00 X-0.5100 Y1.0000 
G01 Z-0.0110 F10.00 
G00 Z0.1000 
G00 X-0.4100 Y1.0000 
G01 Z-0.0110 F10.00 
G00 Z0.1000 
G00 X-1.1300 Y1.1800 
G01 Z-0.0110 F10.00 
G00 Z0.1000 
G00 X-1.2300 Y1.1800 
G01 Z-0.0110 F10.00 
G00 Z0.1000 
G00 X-1.7500 Y1.2200 
G01 Z-0.0110 F10.00 
G00 Z0.1000 
G00 X-1.7500 Y1.1200 
G01 Z-0.0110 F10.00 
G00 Z0.1000 
G00 X-1.5700 Y0.3400 
G01 Z-0.0110 F10.00 
G00 Z0.1000 
G00 X-1.5700 Y0.4400 
G01 Z-0.0110 F10.00 
G00 Z0.1000 
G00 X-1.5700 Y0.5400 
G01 Z-0.0110 F10.00 
G00 Z0.1000 
G00 X-1.5700 Y0.6400 
G01 Z-0.0110 F10.00 
G00 Z0.1000 
G00 X-1.5700 Y0.7400 
G01 Z-0.0110 F10.00 
G00 Z0.1000 
G00 X-1.5700 Y0.8400 
G01 Z-0.0110 F10.00 
G00 Z0.1000 
G00 X-1.5700 Y0.9400 
G01 Z-0.0110 F10.00 
G00 Z0.1000 
G00 X-1.5700 Y1.0400 
G01 Z-0.0110 F10.00 
G00 Z0.1000 
G00 X-1.2700 Y1.0400 
G01 Z-0.0110 F10.00 
G00 Z0.1000 
G00 X-1.2700 Y0.9400 
G01 Z-0.0110 F10.00 
G00 Z0.1000 
G00 X-1.2700 Y0.8400 
G01 Z-0.0110 F10.00 
G00 Z0.1000 
G00 X-1.2700 Y0.7400 
G01 Z-0.0110 F10.00 
G00 Z0.1000 
G00 X-1.2700 Y0.6400 
G01 Z-0.0110 F10.00 
G00 Z0.1000 
G00 X-1.2700 Y0.5400 
G01 Z-0.0110 F10.00 
G00 Z0.1000 
G00 X-1.2700 Y0.4400 
G01 Z-0.0110 F10.00 
G00 Z0.1000 
G00 X-1.2700 Y0.3400 
G01 Z-0.0110 F10.00 
G00 Z0.1000 
G00 X-1.3900 Y1.1700 
G01 Z-0.0110 F10.00 
G00 Z0.1000 
G00 X-1.4400 Y1.2450 
G01 Z-0.0110 F10.00 
G00 Z0.1000 
G00 X-1.4900 Y1.1700 
G01 Z-0.0110 F10.00 
G00 Z0.1000 
G00 X-0.6000 Y0.2700 
G01 Z-0.0110 F10.00 
G00 Z0.1000 
G00 X-1.1000 Y0.2700 
G01 Z-0.0110 F10.00 
G00 Z0.1000 
G00 X-0.8000 Y0.3700 
G01 Z-0.0110 F10.00 
G00 Z0.1000 
G00 X-1.8000 Y0.6800 
G01 Z-0.0110 F10.00 
G00 Z0.1000 
G00 X-1.8000 Y0.4800 
G01 Z-0.0110 F10.00 
G00 Z0.1000 
G00 X-1.9200 Y0.6800 
G01 Z-0.0110 F10.00 
G00 Z0.1000 
G00 X-1.9200 Y0.4800 
G01 Z-0.0110 F10.00 
G00 Z0.1000 
G00 X-2.0400 Y0.6800 
G01 Z-0.0110 F10.00 
G00 Z0.1000 
G00 X-2.0400 Y0.4800 
G01 Z-0.0110 F10.00 
G00 Z0.1000 
G00 X-2.1500 Y0.1500 
G01 Z-0.0110 F10.00 
G00 Z0.1000 
G00 X-2.1500 Y0.2500 
G01 Z-0.0110 F10.00 
G00 Z0.1000 
G00 X-2.1500 Y0.3500 
G01 Z-0.0110 F10.00 
G00 Z0.1000 
G00 X-1.8500 Y0.3500 
G01 Z-0.0110 F10.00 
G00 Z0.1000 
G00 X-1.8500 Y0.2500 
G01 Z-0.0110 F10.00 
G00 Z0.1000 
G00 X-1.8500 Y0.1500 
G01 Z-0.0110 F10.00 
G00 Z0.1000 
G00 X-2.0000 Y1.0300 
G01 Z-0.0110 F10.00 
G00 Z0.1000 
G00 X-2.3000 Y1.0300 
G01 Z-0.0110 F10.00 
G00 Z0.1000 
G00 X-0.7234 Y0.6709 
G01 Z-0.0110 F10.00 
G00 Z0.1000 
G00 X-0.7628 Y0.7891 
G01 Z-0.0110 F10.00 
G00 Z0.1000 
G00 X-0.8021 Y0.6709 
G01 Z-0.0110 F10.00 
G00 Z0.1000 
G00 X-0.8415 Y0.7891 
G01 Z-0.0110 F10.00 
G00 Z0.1000 
G00 X-0.8809 Y0.6709 
G01 Z-0.0110 F10.00 
G00 Z0.1000 
G00 X-0.9202 Y0.7891 
G01 Z-0.0110 F10.00 
G00 Z0.1000 
G00 X-1.1171 Y0.7576 
G01 Z-0.0110 F10.00 
G00 Z0.1000 
G00 X-0.5029 Y0.7576 
G01 Z-0.0110 F10.00 
G00 Z0.1000 
G00 X-0.2900 Y1.0000 
G01 Z-0.0110 F10.00 
G00 Z0.1000 
G00 X-0.1900 Y1.0000 
G01 Z-0.0110 F10.00 
G00 Z0.1000 
G00 X-0.2900 Y0.9000 
G01 Z-0.0110 F10.00 
G00 Z0.1000 
G00 X-0.1900 Y0.9000 
G01 Z-0.0110 F10.00 
G00 Z0.1000 
G00 X-0.2900 Y0.8000 
G01 Z-0.0110 F10.00 
G00 Z0.1000 
G00 X-0.1900 Y0.8000 
G01 Z-0.0110 F10.00 
G00 Z0.1000 
G00 X-0.2900 Y0.7000 
G01 Z-0.0110 F10.00 
G00 Z0.1000 
G00 X-0.1900 Y0.7000 
G01 Z-0.0110 F10.00 
G00 Z0.1000 
G00 X-0.2900 Y0.6000 
G01 Z-0.0110 F10.00 
G00 Z0.1000 
G00 X-0.1900 Y0.6000 
G01 Z-0.0110 F10.00 
G00 Z0.1000 
G00 X-0.2900 Y0.5000 
G01 Z-0.0110 F10.00 
G00 Z0.1000 
G00 X-0.1900 Y0.5000 
G01 Z-0.0110 F10.00 
G00 Z0.1000 
G00 X-0.2900 Y0.4000 
G01 Z-0.0110 F10.00 
G00 Z0.1000 
G00 X-0.1900 Y0.4000 
G01 Z-0.0110 F10.00 
G00 Z0.1000 
G00 Z0.5000 
M05
M02
