(.../src/pcbgcode-work/pcb-gcode.ulp)
(Copyright 2005 - 2009 by John Johnson)
(See readme.txt for licensing terms.)
(This file generated from the board:)
(.../docs/examples/04151_lcdi2c.brd)
(Current profile is .../pcbgcode-work/profiles/mach.pp  )
(This file generated 12/16/12 4:41 PM)
(Settings from pcb-machine.h)
(  Tool Size)
(0.0030  )
(Z Axis Settings)
(  High     Up        Down     Drill)
(0.5000  	0.1000  	-0.0070 	-0.0320 )
(spindle on time = 3.0000)
(milling depth = -0.0100)
(text depth = -0.0050)
(tool change at 0.5000  0.6000  1.0000  )
(feed rate xy = F20    )
(feed rate z  = F10    )
(Settings from pcb-defaults.h)
(isolate min = 0.0010)
(isolate max = 0.0200)
(isolate step = 0.0050)
(Generated top outlines, bottom outlines, )
(Unit of measure: inch)
(Inch Mode)
G20
(Absolute Coordinates)
G90
G00 X0.0000  Y0.0000  
M03
G04 P3.000000
G00 Z0.1000  
G00 X-0.1701 Y0.5386  
G01 Z-0.0070 F10    
G01 X-0.1721 Y0.5395  F20    
G01 X-0.3306 Y0.5395  
G01 X-0.5145 Y0.3556  
G01 X-0.5206 Y0.3495  
G01 X-0.6506 Y0.3495  
G01 X-0.6945 Y0.3056  
G01 X-0.7006 Y0.2995  
G01 X-0.9256 Y0.2995  
G01 X-0.9343 Y0.2995  
G01 X-0.9756 Y0.2995  
G01 X-1.0056 Y0.2695  
G01 X-1.0143 Y0.2695  
G01 X-1.0355 Y0.2695  
G01 X-1.0355 Y0.2633  
G01 X-1.0406 Y0.2510  
G01 X-1.0500 Y0.2416  
G01 X-1.0623 Y0.2365  
G01 X-1.1377 Y0.2365  
G01 X-1.1500 Y0.2416  
G01 X-1.1594 Y0.2510  
G01 X-1.1645 Y0.2633  
G01 X-1.1645 Y0.2767  
G01 X-1.1636 Y0.2788  
G01 X-1.2092 Y0.3244  
G01 X-1.2106 Y0.3210  
G01 X-1.2200 Y0.3116  
G01 X-1.2323 Y0.3065  
G01 X-1.2495 Y0.3065  
G01 X-1.2495 Y0.2569  
G01 X-1.2365 Y0.2439  
G01 X-1.2365 Y0.2161  
G01 X-1.2561 Y0.1965  
G01 X-1.2839 Y0.1965  
G01 X-1.3035 Y0.2161  
G01 X-1.3035 Y0.2439  
G01 X-1.2839 Y0.2635  
G01 X-1.2705 Y0.2635  
G01 X-1.2705 Y0.3065  
G01 X-1.3077 Y0.3065  
G01 X-1.3200 Y0.3116  
G01 X-1.3294 Y0.3210  
G01 X-1.3345 Y0.3333  
G01 X-1.3345 Y0.3467  
G01 X-1.3294 Y0.3590  
G01 X-1.3200 Y0.3684  
G01 X-1.3077 Y0.3735  
G01 X-1.2323 Y0.3735  
G01 X-1.2200 Y0.3684  
G01 X-1.2106 Y0.3590  
G01 X-1.2081 Y0.3529  
G01 X-1.1518 Y0.2966  
G01 X-1.1500 Y0.2984  
G01 X-1.1377 Y0.3035  
G01 X-1.0623 Y0.3035  
G01 X-1.0500 Y0.2984  
G01 X-1.0421 Y0.2905  
G01 X-1.0143 Y0.2905  
G01 X-0.9843 Y0.3205  
G01 X-0.9756 Y0.3205  
G01 X-0.9355 Y0.3205  
G01 X-0.9355 Y0.4243  
G01 X-0.9293 Y0.4305  
G01 X-0.9206 Y0.4305  
G01 X-0.8193 Y0.4305  
G01 X-0.6805 Y0.5693  
G01 X-0.6805 Y0.6856  
G01 X-0.7521 Y0.7572  
G01 X-0.7561 Y0.7556  
G01 X-0.7694 Y0.7556  
G01 X-0.7817 Y0.7607  
G01 X-0.7912 Y0.7701  
G01 X-0.7963 Y0.7824  
G01 X-0.7963 Y0.8577  
G01 X-0.7912 Y0.8700  
G01 X-0.7817 Y0.8795  
G01 X-0.7694 Y0.8846  
G01 X-0.7561 Y0.8846  
G01 X-0.7438 Y0.8795  
G01 X-0.7344 Y0.8700  
G01 X-0.7293 Y0.8577  
G01 X-0.7293 Y0.7824  
G01 X-0.7344 Y0.7701  
G01 X-0.7348 Y0.7696  
G01 X-0.6595 Y0.6943  
G01 X-0.6595 Y0.6856  
G01 X-0.6595 Y0.5693  
G01 X-0.6595 Y0.5606  
G01 X-0.8045 Y0.4156  
G01 X-0.8106 Y0.4095  
G01 X-0.9145 Y0.4095  
G01 X-0.9145 Y0.3205  
G01 X-0.7093 Y0.3205  
G01 X-0.6593 Y0.3705  
G01 X-0.6506 Y0.3705  
G01 X-0.5293 Y0.3705  
G01 X-0.3393 Y0.5605  
G01 X-0.3306 Y0.5605  
G01 X-0.1720 Y0.5605  
G01 X-0.1509 Y0.5689  
G01 X-0.1493 Y0.5705  
G01 X-0.1105 Y0.6093  
G01 X-0.1105 Y0.9105  
G01 X-0.1702 Y0.9668  
G01 X-0.1745 Y0.9625  
G01 X-0.2055 Y0.9625  
G01 X-0.2275 Y0.9845  
G01 X-0.2275 Y1.0155  
G01 X-0.2214 Y1.0216  
G01 X-0.3493 Y1.1495  
G01 X-1.0883 Y1.1495  
G01 X-1.0908 Y1.1487  
G01 X-1.0925 Y1.1495  
G01 X-1.0943 Y1.1495  
G01 X-1.0952 Y1.1504  
G01 X-1.1042 Y1.1414  
G01 X-1.1209 Y1.1345  
G01 X-1.1391 Y1.1345  
G01 X-1.1558 Y1.1414  
G01 X-1.1686 Y1.1542  
G01 X-1.1755 Y1.1709  
G01 X-1.1755 Y1.1891  
G01 X-1.1692 Y1.2043  
G01 X-1.2043 Y1.2395  
G01 X-1.2456 Y1.2395  
G01 X-1.3156 Y1.1695  
G01 X-1.3243 Y1.1695  
G01 X-1.3565 Y1.1695  
G01 X-1.3565 Y1.1561  
G01 X-1.3761 Y1.1365  
G01 X-1.4039 Y1.1365  
G01 X-1.4235 Y1.1561  
G01 X-1.4235 Y1.1839  
G01 X-1.4039 Y1.2035  
G01 X-1.3761 Y1.2035  
G01 X-1.3631 Y1.1905  
G01 X-1.3243 Y1.1905  
G01 X-1.2605 Y1.2543  
G01 X-1.2543 Y1.2605  
G01 X-1.2043 Y1.2605  
G01 X-1.1956 Y1.2605  
G01 X-1.1543 Y1.2192  
G01 X-1.1391 Y1.2255  
G01 X-1.1209 Y1.2255  
G01 X-1.1042 Y1.2186  
G01 X-1.0914 Y1.2058  
G01 X-1.0845 Y1.1891  
G01 X-1.0845 Y1.1709  
G01 X-1.0847 Y1.1705  
G01 X-0.3493 Y1.1705  
G01 X-0.3406 Y1.1705  
G01 X-0.2066 Y1.0364  
G01 X-0.2055 Y1.0375  
G01 X-0.1745 Y1.0375  
G01 X-0.1525 Y1.0155  
G01 X-0.1525 Y0.9845  
G01 X-0.1553 Y0.9817  
G01 X-0.0958 Y0.9255  
G01 X-0.0956 Y0.9255  
G01 X-0.0927 Y0.9225  
G01 X-0.0896 Y0.9196  
G01 X-0.0896 Y0.9195  
G01 X-0.0895 Y0.9193  
G01 X-0.0895 Y0.9151  
G01 X-0.0894 Y0.9109  
G01 X-0.0895 Y0.9108  
G01 X-0.0895 Y0.6006  
G01 X-0.0956 Y0.5945  
G01 X-0.1302 Y0.5600  
G01 X-0.1295 Y0.5593  
G01 X-0.1295 Y0.3643  
G01 X-0.1295 Y0.3556  
G01 X-0.4756 Y0.0095  
G01 X-0.4843 Y0.0095  
G01 X-2.2343 Y0.0095  
G01 X-2.2405 Y0.0156  
G01 X-2.3343 Y0.1095  
G01 X-2.3405 Y0.1156  
G01 X-2.3405 Y0.3456  
G01 X-2.3405 Y0.3543  
G01 X-2.3405 Y0.7756  
G01 X-2.3405 Y0.7843  
G01 X-2.2793 Y0.8455  
G01 X-2.2706 Y0.8455  
G01 X-2.1893 Y0.8455  
G01 X-2.0395 Y0.9953  
G01 X-2.0525 Y1.0083  
G01 X-2.0525 Y1.0517  
G01 X-2.0217 Y1.0825  
G01 X-1.9783 Y1.0825  
G01 X-1.9475 Y1.0517  
G01 X-1.9475 Y1.0083  
G01 X-1.9783 Y0.9775  
G01 X-2.0217 Y0.9775  
G01 X-2.0244 Y0.9802  
G01 X-2.0251 Y0.9801  
G01 X-2.1745 Y0.8306  
G01 X-2.1806 Y0.8245  
G01 X-2.2706 Y0.8245  
G01 X-2.3195 Y0.7756  
G01 X-2.3195 Y0.3605  
G01 X-2.2129 Y0.3605  
G01 X-2.2094 Y0.3690  
G01 X-2.2000 Y0.3784  
G01 X-2.1877 Y0.3835  
G01 X-2.1123 Y0.3835  
G01 X-2.1000 Y0.3784  
G01 X-2.0906 Y0.3690  
G01 X-2.0855 Y0.3567  
G01 X-2.0855 Y0.3433  
G01 X-2.0906 Y0.3310  
G01 X-2.1000 Y0.3216  
G01 X-2.1048 Y0.3196  
G01 X-2.0995 Y0.3143  
G01 X-2.0995 Y0.3056  
G01 X-2.0995 Y0.2779  
G01 X-2.0906 Y0.2690  
G01 X-2.0855 Y0.2567  
G01 X-2.0855 Y0.2433  
G01 X-2.0906 Y0.2310  
G01 X-2.1000 Y0.2216  
G01 X-2.1048 Y0.2196  
G01 X-2.0995 Y0.2143  
G01 X-2.0995 Y0.2056  
G01 X-2.0995 Y0.1779  
G01 X-2.0906 Y0.1690  
G01 X-2.0855 Y0.1567  
G01 X-2.0855 Y0.1433  
G01 X-2.0906 Y0.1310  
G01 X-2.1000 Y0.1216  
G01 X-2.1123 Y0.1165  
G01 X-2.1877 Y0.1165  
G01 X-2.2000 Y0.1216  
G01 X-2.2094 Y0.1310  
G01 X-2.2145 Y0.1433  
G01 X-2.2145 Y0.1567  
G01 X-2.2094 Y0.1690  
G01 X-2.2000 Y0.1784  
G01 X-2.1877 Y0.1835  
G01 X-2.1205 Y0.1835  
G01 X-2.1205 Y0.2056  
G01 X-2.1313 Y0.2165  
G01 X-2.1877 Y0.2165  
G01 X-2.2000 Y0.2216  
G01 X-2.2094 Y0.2310  
G01 X-2.2145 Y0.2433  
G01 X-2.2145 Y0.2567  
G01 X-2.2094 Y0.2690  
G01 X-2.2000 Y0.2784  
G01 X-2.1877 Y0.2835  
G01 X-2.1205 Y0.2835  
G01 X-2.1205 Y0.3056  
G01 X-2.1313 Y0.3165  
G01 X-2.1877 Y0.3165  
G01 X-2.2000 Y0.3216  
G01 X-2.2094 Y0.3310  
G01 X-2.2129 Y0.3395  
G01 X-2.3195 Y0.3395  
G01 X-2.3195 Y0.1243  
G01 X-2.2257 Y0.0305  
G01 X-0.4843 Y0.0305  
G01 X-0.1505 Y0.3643  
G01 X-0.1505 Y0.5465  
G01 X-0.1641 Y0.5411  
G01 X-0.1656 Y0.5395  
G01 X-0.1680 Y0.5395  
G01 X-0.1701 Y0.5386  
G00 Z0.1000  
G00 X-1.5235 Y1.1561  
G01 Z-0.0070 F10    
G01 X-1.5235 Y1.1839  F20    
G01 X-1.5211 Y1.1863  
G01 X-1.5243 Y1.1895  
G01 X-1.7083 Y1.1895  
G01 X-1.7108 Y1.1887  
G01 X-1.7125 Y1.1895  
G01 X-1.7143 Y1.1895  
G01 X-1.7152 Y1.1904  
G01 X-1.7242 Y1.1814  
G01 X-1.7409 Y1.1745  
G01 X-1.7591 Y1.1745  
G01 X-1.7758 Y1.1814  
G01 X-1.7886 Y1.1942  
G01 X-1.7955 Y1.2109  
G01 X-1.7955 Y1.2291  
G01 X-1.7886 Y1.2458  
G01 X-1.7758 Y1.2586  
G01 X-1.7591 Y1.2655  
G01 X-1.7409 Y1.2655  
G01 X-1.7242 Y1.2586  
G01 X-1.7114 Y1.2458  
G01 X-1.7045 Y1.2291  
G01 X-1.7045 Y1.2109  
G01 X-1.7047 Y1.2105  
G01 X-1.5156 Y1.2105  
G01 X-1.5095 Y1.2043  
G01 X-1.5063 Y1.2011  
G01 X-1.5039 Y1.2035  
G01 X-1.4761 Y1.2035  
G01 X-1.4565 Y1.1839  
G01 X-1.4565 Y1.1561  
G01 X-1.4761 Y1.1365  
G01 X-1.4795 Y1.1365  
G01 X-1.4795 Y1.1343  
G01 X-1.3450 Y0.9998  
G01 X-1.3443 Y1.0005  
G01 X-1.3356 Y1.0005  
G01 X-0.5435 Y1.0005  
G01 X-0.5435 Y1.0139  
G01 X-0.5239 Y1.0335  
G01 X-0.4961 Y1.0335  
G01 X-0.4765 Y1.0139  
G01 X-0.4765 Y0.9861  
G01 X-0.4961 Y0.9665  
G01 X-0.5239 Y0.9665  
G01 X-0.5369 Y0.9795  
G01 X-1.3345 Y0.9795  
G01 X-1.3345 Y0.8093  
G01 X-1.3256 Y0.8005  
G01 X-1.1993 Y0.8005  
G01 X-1.1755 Y0.8243  
G01 X-1.1693 Y0.8305  
G01 X-0.9537 Y0.8305  
G01 X-0.9537 Y0.8577  
G01 X-0.9486 Y0.8700  
G01 X-0.9392 Y0.8795  
G01 X-0.9269 Y0.8846  
G01 X-0.9136 Y0.8846  
G01 X-0.9013 Y0.8795  
G01 X-0.8918 Y0.8700  
G01 X-0.8867 Y0.8577  
G01 X-0.8867 Y0.7824  
G01 X-0.8918 Y0.7701  
G01 X-0.9013 Y0.7607  
G01 X-0.9136 Y0.7556  
G01 X-0.9269 Y0.7556  
G01 X-0.9392 Y0.7607  
G01 X-0.9486 Y0.7701  
G01 X-0.9537 Y0.7824  
G01 X-0.9537 Y0.8095  
G01 X-1.1606 Y0.8095  
G01 X-1.1906 Y0.7795  
G01 X-1.1993 Y0.7795  
G01 X-1.3343 Y0.7795  
G01 X-1.3405 Y0.7856  
G01 X-1.3555 Y0.8006  
G01 X-1.3555 Y0.8093  
G01 X-1.3555 Y0.9806  
G01 X-1.5005 Y1.1256  
G01 X-1.5005 Y1.1343  
G01 X-1.5005 Y1.1365  
G01 X-1.5039 Y1.1365  
G01 X-1.5235 Y1.1561  
G00 Z0.1000  
G00 X-2.0735 Y0.4661  
G01 Z-0.0070 F10    
G01 X-2.0735 Y0.4939  F20    
G01 X-2.0539 Y0.5135  
G01 X-2.0261 Y0.5135  
G01 X-2.0065 Y0.4939  
G01 X-2.0065 Y0.4661  
G01 X-2.0105 Y0.4622  
G01 X-1.9623 Y0.4071  
G01 X-1.9595 Y0.4043  
G01 X-1.9595 Y0.4039  
G01 X-1.9592 Y0.4036  
G01 X-1.9595 Y0.3996  
G01 X-1.9595 Y0.2248  
G01 X-1.9024 Y0.1759  
G01 X-1.9000 Y0.1784  
G01 X-1.8877 Y0.1835  
G01 X-1.8123 Y0.1835  
G01 X-1.8000 Y0.1784  
G01 X-1.7906 Y0.1690  
G01 X-1.7896 Y0.1666  
G01 X-1.7548 Y0.1701  
G01 X-1.6152 Y0.3096  
G01 X-1.6200 Y0.3116  
G01 X-1.6294 Y0.3210  
G01 X-1.6345 Y0.3333  
G01 X-1.6345 Y0.3467  
G01 X-1.6294 Y0.3590  
G01 X-1.6200 Y0.3684  
G01 X-1.6077 Y0.3735  
G01 X-1.5323 Y0.3735  
G01 X-1.5200 Y0.3684  
G01 X-1.5106 Y0.3590  
G01 X-1.5055 Y0.3467  
G01 X-1.5055 Y0.3333  
G01 X-1.5106 Y0.3210  
G01 X-1.5200 Y0.3116  
G01 X-1.5323 Y0.3065  
G01 X-1.5886 Y0.3065  
G01 X-1.7422 Y0.1530  
G01 X-1.7446 Y0.1500  
G01 X-1.7452 Y0.1499  
G01 X-1.7456 Y0.1495  
G01 X-1.7495 Y0.1495  
G01 X-1.7855 Y0.1459  
G01 X-1.7855 Y0.1433  
G01 X-1.7906 Y0.1310  
G01 X-1.8000 Y0.1216  
G01 X-1.8123 Y0.1165  
G01 X-1.8877 Y0.1165  
G01 X-1.9000 Y0.1216  
G01 X-1.9094 Y0.1310  
G01 X-1.9145 Y0.1433  
G01 X-1.9145 Y0.1567  
G01 X-1.9139 Y0.1581  
G01 X-1.9739 Y0.2095  
G01 X-1.9743 Y0.2095  
G01 X-1.9771 Y0.2123  
G01 X-1.9801 Y0.2149  
G01 X-1.9802 Y0.2153  
G01 X-1.9805 Y0.2156  
G01 X-1.9805 Y0.2196  
G01 X-1.9808 Y0.2235  
G01 X-1.9805 Y0.2239  
G01 X-1.9805 Y0.3961  
G01 X-2.0253 Y0.4473  
G01 X-2.0261 Y0.4465  
G01 X-2.0539 Y0.4465  
G01 X-2.0735 Y0.4661  
G00 Z0.1000  
G00 X-1.9535 Y0.4661  
G01 Z-0.0070 F10    
G01 X-1.9535 Y0.4939  F20    
G01 X-1.9339 Y0.5135  
G01 X-1.9061 Y0.5135  
G01 X-1.8865 Y0.4939  
G01 X-1.8865 Y0.4661  
G01 X-1.9061 Y0.4465  
G01 X-1.9195 Y0.4465  
G01 X-1.9195 Y0.2898  
G01 X-1.9030 Y0.2753  
G01 X-1.9000 Y0.2784  
G01 X-1.8877 Y0.2835  
G01 X-1.8123 Y0.2835  
G01 X-1.8116 Y0.2832  
G01 X-1.6443 Y0.4505  
G01 X-1.6356 Y0.4505  
G01 X-1.6329 Y0.4505  
G01 X-1.6294 Y0.4590  
G01 X-1.6200 Y0.4684  
G01 X-1.6077 Y0.4735  
G01 X-1.5323 Y0.4735  
G01 X-1.5200 Y0.4684  
G01 X-1.5106 Y0.4590  
G01 X-1.5055 Y0.4467  
G01 X-1.5055 Y0.4333  
G01 X-1.5106 Y0.4210  
G01 X-1.5200 Y0.4116  
G01 X-1.5323 Y0.4065  
G01 X-1.6077 Y0.4065  
G01 X-1.6200 Y0.4116  
G01 X-1.6294 Y0.4210  
G01 X-1.6329 Y0.4295  
G01 X-1.6356 Y0.4295  
G01 X-1.7934 Y0.2718  
G01 X-1.7906 Y0.2690  
G01 X-1.7855 Y0.2567  
G01 X-1.7855 Y0.2433  
G01 X-1.7906 Y0.2310  
G01 X-1.8000 Y0.2216  
G01 X-1.8123 Y0.2165  
G01 X-1.8877 Y0.2165  
G01 X-1.9000 Y0.2216  
G01 X-1.9094 Y0.2310  
G01 X-1.9145 Y0.2433  
G01 X-1.9145 Y0.2567  
G01 X-1.9142 Y0.2573  
G01 X-1.9339 Y0.2745  
G01 X-1.9343 Y0.2745  
G01 X-1.9372 Y0.2773  
G01 X-1.9402 Y0.2800  
G01 X-1.9402 Y0.2804  
G01 X-1.9405 Y0.2806  
G01 X-1.9405 Y0.2846  
G01 X-1.9408 Y0.2886  
G01 X-1.9405 Y0.2889  
G01 X-1.9405 Y0.4531  
G01 X-1.9535 Y0.4661  
G00 Z0.1000  
G00 X-1.8335 Y0.4661  
G01 Z-0.0070 F10    
G01 X-1.8335 Y0.4939  F20    
G01 X-1.8139 Y0.5135  
G01 X-1.7861 Y0.5135  
G01 X-1.7665 Y0.4939  
G01 X-1.7665 Y0.4905  
G01 X-1.6843 Y0.4905  
G01 X-1.6345 Y0.5403  
G01 X-1.6345 Y0.5467  
G01 X-1.6294 Y0.5590  
G01 X-1.6200 Y0.5684  
G01 X-1.6077 Y0.5735  
G01 X-1.5323 Y0.5735  
G01 X-1.5200 Y0.5684  
G01 X-1.5106 Y0.5590  
G01 X-1.5055 Y0.5467  
G01 X-1.5055 Y0.5333  
G01 X-1.5106 Y0.5210  
G01 X-1.5200 Y0.5116  
G01 X-1.5323 Y0.5065  
G01 X-1.6077 Y0.5065  
G01 X-1.6200 Y0.5116  
G01 X-1.6268 Y0.5184  
G01 X-1.6695 Y0.4757  
G01 X-1.6756 Y0.4695  
G01 X-1.7665 Y0.4695  
G01 X-1.7665 Y0.4661  
G01 X-1.7861 Y0.4465  
G01 X-1.8087 Y0.4465  
G01 X-1.8395 Y0.4156  
G01 X-1.8395 Y0.3835  
G01 X-1.8123 Y0.3835  
G01 X-1.8000 Y0.3784  
G01 X-1.7906 Y0.3690  
G01 X-1.7855 Y0.3567  
G01 X-1.7855 Y0.3433  
G01 X-1.7906 Y0.3310  
G01 X-1.8000 Y0.3216  
G01 X-1.8123 Y0.3165  
G01 X-1.8877 Y0.3165  
G01 X-1.9000 Y0.3216  
G01 X-1.9094 Y0.3310  
G01 X-1.9145 Y0.3433  
G01 X-1.9145 Y0.3567  
G01 X-1.9094 Y0.3690  
G01 X-1.9000 Y0.3784  
G01 X-1.8877 Y0.3835  
G01 X-1.8605 Y0.3835  
G01 X-1.8605 Y0.4243  
G01 X-1.8543 Y0.4305  
G01 X-1.8261 Y0.4587  
G01 X-1.8335 Y0.4661  
G00 Z0.1000  
G00 X-0.8377 Y0.4035  
G01 Z-0.0070 F10    
G01 X-0.7623 Y0.4035  F20    
G01 X-0.7500 Y0.3984  
G01 X-0.7457 Y0.3941  
G01 X-0.6993 Y0.4405  
G01 X-0.6906 Y0.4405  
G01 X-0.5593 Y0.4405  
G01 X-0.4905 Y0.5093  
G01 X-0.4905 Y0.5143  
G01 X-0.4843 Y0.5205  
G01 X-0.3443 Y0.6605  
G01 X-0.3356 Y0.6605  
G01 X-0.1735 Y0.6605  
G01 X-0.1405 Y0.6852  
G01 X-0.1405 Y0.8148  
G01 X-0.1735 Y0.8395  
G01 X-0.2356 Y0.8395  
G01 X-0.2443 Y0.8395  
G01 X-0.2709 Y0.8661  
G01 X-0.2745 Y0.8625  
G01 X-0.3055 Y0.8625  
G01 X-0.3275 Y0.8845  
G01 X-0.3275 Y0.9155  
G01 X-0.3055 Y0.9375  
G01 X-0.2745 Y0.9375  
G01 X-0.2525 Y0.9155  
G01 X-0.2525 Y0.8845  
G01 X-0.2561 Y0.8809  
G01 X-0.2356 Y0.8605  
G01 X-0.1707 Y0.8605  
G01 X-0.1672 Y0.8610  
G01 X-0.1665 Y0.8605  
G01 X-0.1656 Y0.8605  
G01 X-0.1631 Y0.8579  
G01 X-0.1265 Y0.8305  
G01 X-0.1256 Y0.8305  
G01 X-0.1231 Y0.8279  
G01 X-0.1202 Y0.8258  
G01 X-0.1201 Y0.8249  
G01 X-0.1195 Y0.8243  
G01 X-0.1195 Y0.8207  
G01 X-0.1190 Y0.8172  
G01 X-0.1195 Y0.8165  
G01 X-0.1195 Y0.6835  
G01 X-0.1190 Y0.6828  
G01 X-0.1195 Y0.6793  
G01 X-0.1195 Y0.6756  
G01 X-0.1201 Y0.6751  
G01 X-0.1202 Y0.6742  
G01 X-0.1231 Y0.6720  
G01 X-0.1256 Y0.6695  
G01 X-0.1265 Y0.6695  
G01 X-0.1631 Y0.6421  
G01 X-0.1656 Y0.6395  
G01 X-0.1665 Y0.6395  
G01 X-0.1672 Y0.6390  
G01 X-0.1707 Y0.6395  
G01 X-0.3356 Y0.6395  
G01 X-0.4695 Y0.5056  
G01 X-0.4695 Y0.5006  
G01 X-0.5445 Y0.4256  
G01 X-0.5506 Y0.4195  
G01 X-0.6906 Y0.4195  
G01 X-0.7355 Y0.3746  
G01 X-0.7355 Y0.3633  
G01 X-0.7406 Y0.3510  
G01 X-0.7500 Y0.3416  
G01 X-0.7623 Y0.3365  
G01 X-0.8377 Y0.3365  
G01 X-0.8500 Y0.3416  
G01 X-0.8594 Y0.3510  
G01 X-0.8645 Y0.3633  
G01 X-0.8645 Y0.3767  
G01 X-0.8594 Y0.3890  
G01 X-0.8500 Y0.3984  
G01 X-0.8377 Y0.4035  
G00 Z0.1000  
G00 X-0.2275 Y0.3845  
G01 Z-0.0070 F10    
G01 X-0.2275 Y0.4155  F20    
G01 X-0.2055 Y0.4375  
G01 X-0.1745 Y0.4375  
G01 X-0.1525 Y0.4155  
G01 X-0.1525 Y0.3845  
G01 X-0.1745 Y0.3625  
G01 X-0.1826 Y0.3625  
G01 X-0.4995 Y0.0456  
G01 X-0.5056 Y0.0395  
G01 X-2.0493 Y0.0395  
G01 X-2.0555 Y0.0456  
G01 X-2.0693 Y0.0595  
G01 X-2.0755 Y0.0656  
G01 X-2.0755 Y0.3746  
G01 X-2.1533 Y0.4295  
G01 X-2.1543 Y0.4295  
G01 X-2.1568 Y0.4319  
G01 X-2.1596 Y0.4339  
G01 X-2.1598 Y0.4349  
G01 X-2.1605 Y0.4356  
G01 X-2.1605 Y0.4391  
G01 X-2.1611 Y0.4425  
G01 X-2.1605 Y0.4433  
G01 X-2.1605 Y0.5256  
G01 X-2.1605 Y0.5343  
G01 X-2.0943 Y0.6005  
G01 X-2.0856 Y0.6005  
G01 X-1.7543 Y0.6005  
G01 X-1.7205 Y0.6343  
G01 X-1.7205 Y0.9143  
G01 X-1.7143 Y0.9205  
G01 X-1.6905 Y0.9443  
G01 X-1.6843 Y0.9505  
G01 X-1.6329 Y0.9505  
G01 X-1.6294 Y0.9590  
G01 X-1.6200 Y0.9684  
G01 X-1.6077 Y0.9735  
G01 X-1.5323 Y0.9735  
G01 X-1.5200 Y0.9684  
G01 X-1.5106 Y0.9590  
G01 X-1.5055 Y0.9467  
G01 X-1.5055 Y0.9333  
G01 X-1.5106 Y0.9210  
G01 X-1.5200 Y0.9116  
G01 X-1.5323 Y0.9065  
G01 X-1.6077 Y0.9065  
G01 X-1.6200 Y0.9116  
G01 X-1.6294 Y0.9210  
G01 X-1.6329 Y0.9295  
G01 X-1.6756 Y0.9295  
G01 X-1.6995 Y0.9056  
G01 X-1.6995 Y0.6343  
G01 X-1.6995 Y0.6256  
G01 X-1.7395 Y0.5856  
G01 X-1.7456 Y0.5795  
G01 X-2.0856 Y0.5795  
G01 X-2.1395 Y0.5256  
G01 X-2.1395 Y0.4454  
G01 X-2.0617 Y0.3905  
G01 X-2.0606 Y0.3905  
G01 X-2.0582 Y0.3881  
G01 X-2.0554 Y0.3861  
G01 X-2.0552 Y0.3851  
G01 X-2.0545 Y0.3843  
G01 X-2.0545 Y0.3809  
G01 X-2.0539 Y0.3775  
G01 X-2.0545 Y0.3767  
G01 X-2.0545 Y0.0743  
G01 X-2.0407 Y0.0605  
G01 X-0.5143 Y0.0605  
G01 X-0.2089 Y0.3659  
G01 X-0.2275 Y0.3845  
G00 Z0.1000  
G00 X-0.2275 Y0.5845  
G01 Z-0.0070 F10    
G01 X-0.2275 Y0.6155  F20    
G01 X-0.2055 Y0.6375  
G01 X-0.1745 Y0.6375  
G01 X-0.1525 Y0.6155  
G01 X-0.1525 Y0.5845  
G01 X-0.1745 Y0.5625  
G01 X-0.2055 Y0.5625  
G01 X-0.2275 Y0.5845  
G00 Z0.1000  
G00 X-0.2275 Y0.6845  
G01 Z-0.0070 F10    
G01 X-0.2275 Y0.7155  F20    
G01 X-0.2055 Y0.7375  
G01 X-0.1745 Y0.7375  
G01 X-0.1525 Y0.7155  
G01 X-0.1525 Y0.6845  
G01 X-0.1745 Y0.6625  
G01 X-0.2055 Y0.6625  
G01 X-0.2275 Y0.6845  
G00 Z0.1000  
G00 X-0.2275 Y0.8845  
G01 Z-0.0070 F10    
G01 X-0.2275 Y0.9155  F20    
G01 X-0.2239 Y0.9191  
G01 X-0.2443 Y0.9395  
G01 X-0.4343 Y0.9395  
G01 X-0.4405 Y0.9456  
G01 X-0.4705 Y0.9756  
G01 X-0.4705 Y0.9843  
G01 X-0.4705 Y1.0156  
G01 X-0.4943 Y1.0395  
G01 X-1.2055 Y1.0395  
G01 X-1.2055 Y1.0333  
G01 X-1.2106 Y1.0210  
G01 X-1.2200 Y1.0116  
G01 X-1.2323 Y1.0065  
G01 X-1.3077 Y1.0065  
G01 X-1.3200 Y1.0116  
G01 X-1.3294 Y1.0210  
G01 X-1.3345 Y1.0333  
G01 X-1.3345 Y1.0467  
G01 X-1.3294 Y1.0590  
G01 X-1.3200 Y1.0684  
G01 X-1.3077 Y1.0735  
G01 X-1.2323 Y1.0735  
G01 X-1.2200 Y1.0684  
G01 X-1.2121 Y1.0605  
G01 X-0.4943 Y1.0605  
G01 X-0.4856 Y1.0605  
G01 X-0.4556 Y1.0305  
G01 X-0.4495 Y1.0243  
G01 X-0.4495 Y0.9843  
G01 X-0.4256 Y0.9605  
G01 X-0.2443 Y0.9605  
G01 X-0.2356 Y0.9605  
G01 X-0.2091 Y0.9339  
G01 X-0.2055 Y0.9375  
G01 X-0.1745 Y0.9375  
G01 X-0.1525 Y0.9155  
G01 X-0.1525 Y0.8845  
G01 X-0.1745 Y0.8625  
G01 X-0.2055 Y0.8625  
G01 X-0.2275 Y0.8845  
G00 Z0.1000  
G00 X-0.3275 Y0.5845  
G01 Z-0.0070 F10    
G01 X-0.3275 Y0.6155  F20    
G01 X-0.3055 Y0.6375  
G01 X-0.2745 Y0.6375  
G01 X-0.2525 Y0.6155  
G01 X-0.2525 Y0.5845  
G01 X-0.2745 Y0.5625  
G01 X-0.3055 Y0.5625  
G01 X-0.3275 Y0.5845  
G00 Z0.1000  
G00 X-0.3275 Y0.6845  
G01 Z-0.0070 F10    
G01 X-0.3275 Y0.7155  F20    
G01 X-0.3055 Y0.7375  
G01 X-0.2745 Y0.7375  
G01 X-0.2525 Y0.7155  
G01 X-0.2525 Y0.6845  
G01 X-0.2745 Y0.6625  
G01 X-0.3055 Y0.6625  
G01 X-0.3275 Y0.6845  
G00 Z0.1000  
G00 X-0.3275 Y0.7845  
G01 Z-0.0070 F10    
G01 X-0.3275 Y0.7895  F20    
G01 X-0.3309 Y0.7895  
G01 X-0.3310 Y0.7893  
G01 X-0.3352 Y0.7895  
G01 X-0.3393 Y0.7895  
G01 X-0.3395 Y0.7897  
G01 X-0.3397 Y0.7897  
G01 X-0.3425 Y0.7927  
G01 X-0.3455 Y0.7956  
G01 X-0.3455 Y0.7959  
G01 X-0.4696 Y0.9295  
G01 X-1.2071 Y0.9295  
G01 X-1.2106 Y0.9210  
G01 X-1.2200 Y0.9116  
G01 X-1.2323 Y0.9065  
G01 X-1.3077 Y0.9065  
G01 X-1.3200 Y0.9116  
G01 X-1.3294 Y0.9210  
G01 X-1.3345 Y0.9333  
G01 X-1.3345 Y0.9467  
G01 X-1.3294 Y0.9590  
G01 X-1.3200 Y0.9684  
G01 X-1.3077 Y0.9735  
G01 X-1.2323 Y0.9735  
G01 X-1.2200 Y0.9684  
G01 X-1.2106 Y0.9590  
G01 X-1.2071 Y0.9505  
G01 X-0.4691 Y0.9505  
G01 X-0.4690 Y0.9506  
G01 X-0.4648 Y0.9505  
G01 X-0.4606 Y0.9505  
G01 X-0.4605 Y0.9503  
G01 X-0.4603 Y0.9503  
G01 X-0.4574 Y0.9473  
G01 X-0.4545 Y0.9443  
G01 X-0.4545 Y0.9441  
G01 X-0.3304 Y0.8105  
G01 X-0.3275 Y0.8105  
G01 X-0.3275 Y0.8155  
G01 X-0.3055 Y0.8375  
G01 X-0.2745 Y0.8375  
G01 X-0.2525 Y0.8155  
G01 X-0.2525 Y0.7845  
G01 X-0.2745 Y0.7625  
G01 X-0.3055 Y0.7625  
G01 X-0.3275 Y0.7845  
G00 Z0.1000  
G00 X-1.2323 Y0.7065  
G01 Z-0.0070 F10    
G01 X-1.3077 Y0.7065  F20    
G01 X-1.3200 Y0.7116  
G01 X-1.3294 Y0.7210  
G01 X-1.3329 Y0.7295  
G01 X-1.3396 Y0.7295  
G01 X-1.3435 Y0.7292  
G01 X-1.3439 Y0.7295  
G01 X-1.3443 Y0.7295  
G01 X-1.3471 Y0.7323  
G01 X-1.3789 Y0.7595  
G01 X-1.3793 Y0.7595  
G01 X-1.3821 Y0.7623  
G01 X-1.3851 Y0.7649  
G01 X-1.3852 Y0.7653  
G01 X-1.3855 Y0.7656  
G01 X-1.3855 Y0.7696  
G01 X-1.3858 Y0.7735  
G01 X-1.3855 Y0.7739  
G01 X-1.3855 Y0.9258  
G01 X-1.4875 Y1.0327  
G01 X-1.4905 Y1.0356  
G01 X-1.4905 Y1.0358  
G01 X-1.4906 Y1.0359  
G01 X-1.4905 Y1.0402  
G01 X-1.4905 Y1.0656  
G01 X-1.5143 Y1.0895  
G01 X-1.6356 Y1.0895  
G01 X-1.7095 Y1.0156  
G01 X-1.7156 Y1.0095  
G01 X-1.7756 Y1.0095  
G01 X-1.7843 Y1.0095  
G01 X-1.9243 Y1.1495  
G01 X-2.1056 Y1.1495  
G01 X-2.1495 Y1.1056  
G01 X-2.1556 Y1.0995  
G01 X-2.1657 Y1.0995  
G01 X-2.2395 Y1.0257  
G01 X-2.2456 Y1.0195  
G01 X-2.2475 Y1.0195  
G01 X-2.2475 Y1.0083  
G01 X-2.2783 Y0.9775  
G01 X-2.3217 Y0.9775  
G01 X-2.3525 Y1.0083  
G01 X-2.3525 Y1.0517  
G01 X-2.3217 Y1.0825  
G01 X-2.2783 Y1.0825  
G01 X-2.2475 Y1.0517  
G01 X-2.2475 Y1.0473  
G01 X-2.1805 Y1.1143  
G01 X-2.1743 Y1.1205  
G01 X-2.1643 Y1.1205  
G01 X-2.1205 Y1.1643  
G01 X-2.1143 Y1.1705  
G01 X-1.9243 Y1.1705  
G01 X-1.9156 Y1.1705  
G01 X-1.7756 Y1.0305  
G01 X-1.7243 Y1.0305  
G01 X-1.6443 Y1.1105  
G01 X-1.6356 Y1.1105  
G01 X-1.5056 Y1.1105  
G01 X-1.4995 Y1.1043  
G01 X-1.4695 Y1.0743  
G01 X-1.4695 Y1.0656  
G01 X-1.4695 Y1.0442  
G01 X-1.3675 Y0.9373  
G01 X-1.3645 Y0.9343  
G01 X-1.3645 Y0.9342  
G01 X-1.3644 Y0.9341  
G01 X-1.3645 Y0.9298  
G01 X-1.3645 Y0.7748  
G01 X-1.3361 Y0.7505  
G01 X-1.3329 Y0.7505  
G01 X-1.3294 Y0.7590  
G01 X-1.3200 Y0.7684  
G01 X-1.3077 Y0.7735  
G01 X-1.2323 Y0.7735  
G01 X-1.2200 Y0.7684  
G01 X-1.2106 Y0.7590  
G01 X-1.2055 Y0.7467  
G01 X-1.2055 Y0.7333  
G01 X-1.2106 Y0.7210  
G01 X-1.2200 Y0.7116  
G01 X-1.2323 Y0.7065  
G00 Z0.1000  
G00 X-1.2323 Y0.8065  
G01 Z-0.0070 F10    
G01 X-1.3077 Y0.8065  F20    
G01 X-1.3200 Y0.8116  
G01 X-1.3294 Y0.8210  
G01 X-1.3345 Y0.8333  
G01 X-1.3345 Y0.8467  
G01 X-1.3294 Y0.8590  
G01 X-1.3200 Y0.8684  
G01 X-1.3077 Y0.8735  
G01 X-1.2323 Y0.8735  
G01 X-1.2200 Y0.8684  
G01 X-1.2106 Y0.8590  
G01 X-1.2092 Y0.8556  
G01 X-1.1543 Y0.9105  
G01 X-1.1456 Y0.9105  
G01 X-0.4956 Y0.9105  
G01 X-0.4895 Y0.9043  
G01 X-0.3456 Y0.7605  
G01 X-0.2443 Y0.7605  
G01 X-0.2239 Y0.7809  
G01 X-0.2275 Y0.7845  
G01 X-0.2275 Y0.8155  
G01 X-0.2055 Y0.8375  
G01 X-0.1745 Y0.8375  
G01 X-0.1525 Y0.8155  
G01 X-0.1525 Y0.7845  
G01 X-0.1745 Y0.7625  
G01 X-0.2055 Y0.7625  
G01 X-0.2091 Y0.7661  
G01 X-0.2295 Y0.7456  
G01 X-0.2356 Y0.7395  
G01 X-0.3456 Y0.7395  
G01 X-0.3543 Y0.7395  
G01 X-0.5043 Y0.8895  
G01 X-1.1456 Y0.8895  
G01 X-1.1995 Y0.8356  
G01 X-1.2056 Y0.8295  
G01 X-1.2071 Y0.8295  
G01 X-1.2106 Y0.8210  
G01 X-1.2200 Y0.8116  
G01 X-1.2323 Y0.8065  
G00 Z0.1000  
G00 X-1.5323 Y0.8065  
G01 Z-0.0070 F10    
G01 X-1.6077 Y0.8065  F20    
G01 X-1.6200 Y0.8116  
G01 X-1.6294 Y0.8210  
G01 X-1.6345 Y0.8333  
G01 X-1.6345 Y0.8467  
G01 X-1.6294 Y0.8590  
G01 X-1.6200 Y0.8684  
G01 X-1.6077 Y0.8735  
G01 X-1.5323 Y0.8735  
G01 X-1.5200 Y0.8684  
G01 X-1.5106 Y0.8590  
G01 X-1.5071 Y0.8505  
G01 X-1.5039 Y0.8505  
G01 X-1.5036 Y0.8508  
G01 X-1.4996 Y0.8505  
G01 X-1.4956 Y0.8505  
G01 X-1.4954 Y0.8502  
G01 X-1.4950 Y0.8502  
G01 X-1.4923 Y0.8472  
G01 X-1.4895 Y0.8443  
G01 X-1.4895 Y0.8439  
G01 X-1.4573 Y0.8071  
G01 X-1.4545 Y0.8043  
G01 X-1.4545 Y0.8039  
G01 X-1.4542 Y0.8036  
G01 X-1.4545 Y0.7996  
G01 X-1.4545 Y0.6505  
G01 X-1.4541 Y0.6466  
G01 X-1.4545 Y0.6462  
G01 X-1.4545 Y0.6456  
G01 X-1.4572 Y0.6429  
G01 X-1.4795 Y0.6162  
G01 X-1.4795 Y0.1443  
G01 X-1.4556 Y0.1205  
G01 X-0.5843 Y0.1205  
G01 X-0.3239 Y0.3809  
G01 X-0.3275 Y0.3845  
G01 X-0.3275 Y0.4155  
G01 X-0.3055 Y0.4375  
G01 X-0.2745 Y0.4375  
G01 X-0.2525 Y0.4155  
G01 X-0.2525 Y0.3845  
G01 X-0.2745 Y0.3625  
G01 X-0.3055 Y0.3625  
G01 X-0.3091 Y0.3661  
G01 X-0.5695 Y0.1056  
G01 X-0.5756 Y0.0995  
G01 X-1.4556 Y0.0995  
G01 X-1.4643 Y0.0995  
G01 X-1.5005 Y0.1356  
G01 X-1.5005 Y0.1443  
G01 X-1.5005 Y0.6195  
G01 X-1.5008 Y0.6234  
G01 X-1.5005 Y0.6238  
G01 X-1.5005 Y0.6243  
G01 X-1.4978 Y0.6271  
G01 X-1.4755 Y0.6538  
G01 X-1.4755 Y0.7961  
G01 X-1.5048 Y0.8295  
G01 X-1.5071 Y0.8295  
G01 X-1.5106 Y0.8210  
G01 X-1.5200 Y0.8116  
G01 X-1.5323 Y0.8065  
G00 Z0.1000  
G00 X-1.5323 Y0.7065  
G01 Z-0.0070 F10    
G01 X-1.6077 Y0.7065  F20    
G01 X-1.6200 Y0.7116  
G01 X-1.6294 Y0.7210  
G01 X-1.6308 Y0.7245  
G01 X-1.6406 Y0.7245  
G01 X-1.6495 Y0.7156  
G01 X-1.6495 Y0.5756  
G01 X-1.6556 Y0.5695  
G01 X-1.6856 Y0.5395  
G01 X-1.6943 Y0.5395  
G01 X-2.0656 Y0.5395  
G01 X-2.0995 Y0.5057  
G01 X-2.0995 Y0.4693  
G01 X-2.0556 Y0.4255  
G01 X-2.0256 Y0.4255  
G01 X-2.0195 Y0.4193  
G01 X-1.9995 Y0.3993  
G01 X-1.9995 Y0.3906  
G01 X-1.9995 Y0.1843  
G01 X-1.9057 Y0.0905  
G01 X-0.5393 Y0.0905  
G01 X-0.2505 Y0.3793  
G01 X-0.2505 Y0.4456  
G01 X-0.2505 Y0.4543  
G01 X-0.2239 Y0.4809  
G01 X-0.2275 Y0.4845  
G01 X-0.2275 Y0.5155  
G01 X-0.2055 Y0.5375  
G01 X-0.1745 Y0.5375  
G01 X-0.1525 Y0.5155  
G01 X-0.1525 Y0.4845  
G01 X-0.1745 Y0.4625  
G01 X-0.2055 Y0.4625  
G01 X-0.2091 Y0.4661  
G01 X-0.2295 Y0.4456  
G01 X-0.2295 Y0.3793  
G01 X-0.2295 Y0.3706  
G01 X-0.5306 Y0.0695  
G01 X-0.5393 Y0.0695  
G01 X-1.9143 Y0.0695  
G01 X-1.9205 Y0.0756  
G01 X-2.0143 Y0.1695  
G01 X-2.0205 Y0.1756  
G01 X-2.0205 Y0.3906  
G01 X-2.0343 Y0.4045  
G01 X-2.0556 Y0.4045  
G01 X-2.0643 Y0.4045  
G01 X-2.1205 Y0.4606  
G01 X-2.1205 Y0.4693  
G01 X-2.1205 Y0.5143  
G01 X-2.1143 Y0.5205  
G01 X-2.0805 Y0.5543  
G01 X-2.0743 Y0.5605  
G01 X-1.6943 Y0.5605  
G01 X-1.6705 Y0.5843  
G01 X-1.6705 Y0.7156  
G01 X-1.6705 Y0.7243  
G01 X-1.6555 Y0.7393  
G01 X-1.6493 Y0.7455  
G01 X-1.6345 Y0.7455  
G01 X-1.6345 Y0.7467  
G01 X-1.6294 Y0.7590  
G01 X-1.6200 Y0.7684  
G01 X-1.6077 Y0.7735  
G01 X-1.5323 Y0.7735  
G01 X-1.5200 Y0.7684  
G01 X-1.5106 Y0.7590  
G01 X-1.5055 Y0.7467  
G01 X-1.5055 Y0.7333  
G01 X-1.5106 Y0.7210  
G01 X-1.5200 Y0.7116  
G01 X-1.5323 Y0.7065  
G00 Z0.1000  
G00 X-1.5323 Y0.6065  
G01 Z-0.0070 F10    
G01 X-1.6077 Y0.6065  F20    
G01 X-1.6200 Y0.6116  
G01 X-1.6294 Y0.6210  
G01 X-1.6345 Y0.6333  
G01 X-1.6345 Y0.6467  
G01 X-1.6294 Y0.6590  
G01 X-1.6200 Y0.6684  
G01 X-1.6077 Y0.6735  
G01 X-1.5323 Y0.6735  
G01 X-1.5200 Y0.6684  
G01 X-1.5146 Y0.6629  
G01 X-1.5055 Y0.6738  
G01 X-1.5055 Y0.7775  
G01 X-1.5065 Y0.7795  
G01 X-1.6256 Y0.7795  
G01 X-1.6343 Y0.7795  
G01 X-1.6543 Y0.7995  
G01 X-1.6605 Y0.8056  
G01 X-1.6605 Y0.8556  
G01 X-1.6605 Y0.8643  
G01 X-1.6305 Y0.8943  
G01 X-1.6243 Y0.9005  
G01 X-1.4941 Y0.9005  
G01 X-1.4939 Y0.9007  
G01 X-1.4898 Y0.9005  
G01 X-1.4856 Y0.9005  
G01 X-1.4855 Y0.9003  
G01 X-1.4852 Y0.9003  
G01 X-1.4824 Y0.8972  
G01 X-1.4795 Y0.8943  
G01 X-1.4795 Y0.8941  
G01 X-1.4274 Y0.8373  
G01 X-1.4245 Y0.8343  
G01 X-1.4245 Y0.8341  
G01 X-1.4243 Y0.8339  
G01 X-1.4245 Y0.8298  
G01 X-1.4245 Y0.6207  
G01 X-1.4240 Y0.6172  
G01 X-1.4245 Y0.6165  
G01 X-1.4245 Y0.6156  
G01 X-1.4271 Y0.6131  
G01 X-1.4395 Y0.5965  
G01 X-1.4395 Y0.1743  
G01 X-1.4156 Y0.1505  
G01 X-0.6143 Y0.1505  
G01 X-0.3905 Y0.3743  
G01 X-0.3905 Y0.4056  
G01 X-0.3905 Y0.4143  
G01 X-0.3239 Y0.4809  
G01 X-0.3275 Y0.4845  
G01 X-0.3275 Y0.5155  
G01 X-0.3055 Y0.5375  
G01 X-0.2745 Y0.5375  
G01 X-0.2525 Y0.5155  
G01 X-0.2525 Y0.4845  
G01 X-0.2745 Y0.4625  
G01 X-0.3055 Y0.4625  
G01 X-0.3091 Y0.4661  
G01 X-0.3695 Y0.4056  
G01 X-0.3695 Y0.3656  
G01 X-0.3756 Y0.3595  
G01 X-0.5995 Y0.1356  
G01 X-0.6056 Y0.1295  
G01 X-1.4243 Y0.1295  
G01 X-1.4305 Y0.1356  
G01 X-1.4605 Y0.1656  
G01 X-1.4605 Y0.1743  
G01 X-1.4605 Y0.5993  
G01 X-1.4610 Y0.6028  
G01 X-1.4605 Y0.6035  
G01 X-1.4605 Y0.6043  
G01 X-1.4579 Y0.6069  
G01 X-1.4455 Y0.6235  
G01 X-1.4455 Y0.8259  
G01 X-1.4946 Y0.8795  
G01 X-1.6156 Y0.8795  
G01 X-1.6395 Y0.8556  
G01 X-1.6395 Y0.8143  
G01 X-1.6256 Y0.8005  
G01 X-1.5025 Y0.8005  
G01 X-1.5008 Y0.8013  
G01 X-1.4983 Y0.8005  
G01 X-1.4956 Y0.8005  
G01 X-1.4943 Y0.7992  
G01 X-1.4926 Y0.7986  
G01 X-1.4914 Y0.7962  
G01 X-1.4895 Y0.7943  
G01 X-1.4895 Y0.7925  
G01 X-1.4864 Y0.7862  
G01 X-1.4845 Y0.7843  
G01 X-1.4845 Y0.7825  
G01 X-1.4837 Y0.7808  
G01 X-1.4845 Y0.7783  
G01 X-1.4845 Y0.6705  
G01 X-1.4841 Y0.6666  
G01 X-1.4845 Y0.6662  
G01 X-1.4845 Y0.6656  
G01 X-1.4872 Y0.6629  
G01 X-1.5055 Y0.6410  
G01 X-1.5055 Y0.6333  
G01 X-1.5106 Y0.6210  
G01 X-1.5200 Y0.6116  
G01 X-1.5323 Y0.6065  
G00 Z0.1000  
G00 X-0.9144 Y0.6023  
G01 Z-0.0070 F10    
G01 X-0.9144 Y0.6195  F20    
G01 X-1.2121 Y0.6195  
G01 X-1.2200 Y0.6116  
G01 X-1.2323 Y0.6065  
G01 X-1.3077 Y0.6065  
G01 X-1.3200 Y0.6116  
G01 X-1.3294 Y0.6210  
G01 X-1.3345 Y0.6333  
G01 X-1.3345 Y0.6467  
G01 X-1.3294 Y0.6590  
G01 X-1.3200 Y0.6684  
G01 X-1.3077 Y0.6735  
G01 X-1.2323 Y0.6735  
G01 X-1.2200 Y0.6684  
G01 X-1.2106 Y0.6590  
G01 X-1.2055 Y0.6467  
G01 X-1.2055 Y0.6405  
G01 X-0.9144 Y0.6405  
G01 X-0.9144 Y0.6776  
G01 X-0.9093 Y0.6899  
G01 X-0.8998 Y0.6993  
G01 X-0.8875 Y0.7044  
G01 X-0.8742 Y0.7044  
G01 X-0.8619 Y0.6993  
G01 X-0.8525 Y0.6899  
G01 X-0.8474 Y0.6776  
G01 X-0.8474 Y0.6023  
G01 X-0.8525 Y0.5900  
G01 X-0.8619 Y0.5805  
G01 X-0.8742 Y0.5754  
G01 X-0.8875 Y0.5754  
G01 X-0.8998 Y0.5805  
G01 X-0.9093 Y0.5900  
G01 X-0.9144 Y0.6023  
G00 Z0.1000  
G00 X-0.7569 Y0.6023  
G01 Z-0.0070 F10    
G01 X-0.7569 Y0.6776  F20    
G01 X-0.7518 Y0.6899  
G01 X-0.7424 Y0.6993  
G01 X-0.7300 Y0.7044  
G01 X-0.7167 Y0.7044  
G01 X-0.7044 Y0.6993  
G01 X-0.6950 Y0.6899  
G01 X-0.6899 Y0.6776  
G01 X-0.6899 Y0.6023  
G01 X-0.6950 Y0.5900  
G01 X-0.7044 Y0.5805  
G01 X-0.7095 Y0.5784  
G01 X-0.7095 Y0.5706  
G01 X-0.7156 Y0.5645  
G01 X-0.8406 Y0.4395  
G01 X-0.8493 Y0.4395  
G01 X-1.2055 Y0.4395  
G01 X-1.2055 Y0.4333  
G01 X-1.2106 Y0.4210  
G01 X-1.2200 Y0.4116  
G01 X-1.2323 Y0.4065  
G01 X-1.3077 Y0.4065  
G01 X-1.3200 Y0.4116  
G01 X-1.3294 Y0.4210  
G01 X-1.3345 Y0.4333  
G01 X-1.3345 Y0.4467  
G01 X-1.3294 Y0.4590  
G01 X-1.3200 Y0.4684  
G01 X-1.3077 Y0.4735  
G01 X-1.2323 Y0.4735  
G01 X-1.2200 Y0.4684  
G01 X-1.2121 Y0.4605  
G01 X-0.8493 Y0.4605  
G01 X-0.7331 Y0.5767  
G01 X-0.7424 Y0.5805  
G01 X-0.7518 Y0.5900  
G01 X-0.7569 Y0.6023  
G00 Z0.1000  
G00 X-0.8080 Y0.8577  
G01 Z-0.0070 F10    
G01 X-0.8080 Y0.7824  F20    
G01 X-0.8131 Y0.7701  
G01 X-0.8225 Y0.7607  
G01 X-0.8345 Y0.7557  
G01 X-0.8345 Y0.7506  
G01 X-0.8406 Y0.7445  
G01 X-0.8706 Y0.7145  
G01 X-0.8793 Y0.7145  
G01 X-0.9106 Y0.7145  
G01 X-0.9456 Y0.6795  
G01 X-0.9543 Y0.6795  
G01 X-1.3256 Y0.6795  
G01 X-1.3495 Y0.6556  
G01 X-1.3495 Y0.6143  
G01 X-1.3084 Y0.5732  
G01 X-1.3077 Y0.5735  
G01 X-1.2323 Y0.5735  
G01 X-1.2200 Y0.5684  
G01 X-1.2106 Y0.5590  
G01 X-1.2055 Y0.5467  
G01 X-1.2055 Y0.5333  
G01 X-1.2106 Y0.5210  
G01 X-1.2200 Y0.5116  
G01 X-1.2323 Y0.5065  
G01 X-1.3077 Y0.5065  
G01 X-1.3200 Y0.5116  
G01 X-1.3294 Y0.5210  
G01 X-1.3345 Y0.5333  
G01 X-1.3345 Y0.5467  
G01 X-1.3294 Y0.5590  
G01 X-1.3266 Y0.5618  
G01 X-1.3705 Y0.6056  
G01 X-1.3705 Y0.6143  
G01 X-1.3705 Y0.6643  
G01 X-1.3643 Y0.6705  
G01 X-1.3343 Y0.7005  
G01 X-1.3256 Y0.7005  
G01 X-0.9543 Y0.7005  
G01 X-0.9255 Y0.7293  
G01 X-0.9193 Y0.7355  
G01 X-0.8793 Y0.7355  
G01 X-0.8560 Y0.7588  
G01 X-0.8605 Y0.7607  
G01 X-0.8699 Y0.7701  
G01 X-0.8750 Y0.7824  
G01 X-0.8750 Y0.8577  
G01 X-0.8699 Y0.8700  
G01 X-0.8605 Y0.8795  
G01 X-0.8482 Y0.8846  
G01 X-0.8348 Y0.8846  
G01 X-0.8225 Y0.8795  
G01 X-0.8131 Y0.8700  
G01 X-0.8080 Y0.8577  
G00 Z0.1000  
G00 X-0.8356 Y0.6023  
G01 Z-0.0070 F10    
G01 X-0.8356 Y0.6776  F20    
G01 X-0.8305 Y0.6899  
G01 X-0.8211 Y0.6993  
G01 X-0.8088 Y0.7044  
G01 X-0.7955 Y0.7044  
G01 X-0.7831 Y0.6993  
G01 X-0.7737 Y0.6899  
G01 X-0.7686 Y0.6776  
G01 X-0.7686 Y0.6023  
G01 X-0.7737 Y0.5900  
G01 X-0.7831 Y0.5805  
G01 X-0.7895 Y0.5779  
G01 X-0.7895 Y0.5706  
G01 X-0.8806 Y0.4795  
G01 X-0.8893 Y0.4795  
G01 X-1.3945 Y0.4795  
G01 X-1.3945 Y0.3543  
G01 X-1.3656 Y0.3255  
G01 X-1.3595 Y0.3193  
G01 X-1.3595 Y0.2635  
G01 X-1.3561 Y0.2635  
G01 X-1.3365 Y0.2439  
G01 X-1.3365 Y0.2213  
G01 X-1.3056 Y0.1905  
G01 X-1.0343 Y0.1905  
G01 X-0.9543 Y0.2705  
G01 X-0.9456 Y0.2705  
G01 X-0.6645 Y0.2705  
G01 X-0.6645 Y0.2767  
G01 X-0.6594 Y0.2890  
G01 X-0.6500 Y0.2984  
G01 X-0.6377 Y0.3035  
G01 X-0.5623 Y0.3035  
G01 X-0.5500 Y0.2984  
G01 X-0.5406 Y0.2890  
G01 X-0.5355 Y0.2767  
G01 X-0.5355 Y0.2633  
G01 X-0.5406 Y0.2510  
G01 X-0.5500 Y0.2416  
G01 X-0.5623 Y0.2365  
G01 X-0.6377 Y0.2365  
G01 X-0.6500 Y0.2416  
G01 X-0.6579 Y0.2495  
G01 X-0.9456 Y0.2495  
G01 X-1.0195 Y0.1756  
G01 X-1.0256 Y0.1695  
G01 X-1.3056 Y0.1695  
G01 X-1.3143 Y0.1695  
G01 X-1.3487 Y0.2039  
G01 X-1.3561 Y0.1965  
G01 X-1.3839 Y0.1965  
G01 X-1.4035 Y0.2161  
G01 X-1.4035 Y0.2439  
G01 X-1.3839 Y0.2635  
G01 X-1.3805 Y0.2635  
G01 X-1.3805 Y0.3106  
G01 X-1.4155 Y0.3456  
G01 X-1.4155 Y0.3543  
G01 X-1.4155 Y0.4943  
G01 X-1.4155 Y0.5306  
G01 X-1.4155 Y0.5356  
G01 X-1.4155 Y0.9058  
G01 X-1.5145 Y1.0095  
G01 X-1.5251 Y1.0095  
G01 X-1.5323 Y1.0065  
G01 X-1.6077 Y1.0065  
G01 X-1.6149 Y1.0095  
G01 X-1.6606 Y1.0095  
G01 X-1.7195 Y0.9506  
G01 X-1.7256 Y0.9445  
G01 X-1.7895 Y0.9445  
G01 X-1.7895 Y0.7135  
G01 X-1.7861 Y0.7135  
G01 X-1.7665 Y0.6939  
G01 X-1.7665 Y0.6661  
G01 X-1.7861 Y0.6465  
G01 X-1.8139 Y0.6465  
G01 X-1.8269 Y0.6595  
G01 X-1.8931 Y0.6595  
G01 X-1.9061 Y0.6465  
G01 X-1.9339 Y0.6465  
G01 X-1.9469 Y0.6595  
G01 X-2.0131 Y0.6595  
G01 X-2.0261 Y0.6465  
G01 X-2.0539 Y0.6465  
G01 X-2.0735 Y0.6661  
G01 X-2.0735 Y0.6939  
G01 X-2.0539 Y0.7135  
G01 X-2.0261 Y0.7135  
G01 X-2.0065 Y0.6939  
G01 X-2.0065 Y0.6805  
G01 X-1.9535 Y0.6805  
G01 X-1.9535 Y0.6939  
G01 X-1.9339 Y0.7135  
G01 X-1.9061 Y0.7135  
G01 X-1.8865 Y0.6939  
G01 X-1.8865 Y0.6805  
G01 X-1.8335 Y0.6805  
G01 X-1.8335 Y0.6939  
G01 X-1.8139 Y0.7135  
G01 X-1.8105 Y0.7135  
G01 X-1.8105 Y0.9445  
G01 X-1.8856 Y0.9445  
G01 X-1.8943 Y0.9445  
G01 X-1.9305 Y0.9806  
G01 X-1.9305 Y0.9893  
G01 X-1.9305 Y1.0656  
G01 X-1.9743 Y1.1095  
G01 X-2.0356 Y1.1095  
G01 X-2.0895 Y1.0556  
G01 X-2.0895 Y1.0343  
G01 X-2.0895 Y1.0256  
G01 X-2.1795 Y0.9356  
G01 X-2.1856 Y0.9295  
G01 X-2.3556 Y0.9295  
G01 X-2.3643 Y0.9295  
G01 X-2.4143 Y0.9795  
G01 X-2.4205 Y0.9856  
G01 X-2.4205 Y1.0756  
G01 X-2.4205 Y1.0843  
G01 X-2.3105 Y1.1943  
G01 X-2.3043 Y1.2005  
G01 X-1.8305 Y1.2005  
G01 X-1.8305 Y1.2356  
G01 X-1.8305 Y1.2443  
G01 X-1.7805 Y1.2943  
G01 X-1.7743 Y1.3005  
G01 X-1.4806 Y1.3005  
G01 X-1.4745 Y1.2943  
G01 X-1.4563 Y1.2761  
G01 X-1.4539 Y1.2785  
G01 X-1.4261 Y1.2785  
G01 X-1.4065 Y1.2589  
G01 X-1.4065 Y1.2311  
G01 X-1.4261 Y1.2115  
G01 X-1.4295 Y1.2115  
G01 X-1.4295 Y1.1443  
G01 X-1.4156 Y1.1305  
G01 X-1.3143 Y1.1305  
G01 X-1.2792 Y1.1657  
G01 X-1.2786 Y1.1674  
G01 X-1.2762 Y1.1686  
G01 X-1.2755 Y1.1693  
G01 X-1.2755 Y1.1988  
G01 X-1.2488 Y1.2255  
G01 X-1.2112 Y1.2255  
G01 X-1.1845 Y1.1988  
G01 X-1.1845 Y1.1612  
G01 X-1.1904 Y1.1552  
G01 X-1.1556 Y1.1205  
G01 X-0.4956 Y1.1205  
G01 X-0.4895 Y1.1143  
G01 X-0.4087 Y1.0335  
G01 X-0.3961 Y1.0335  
G01 X-0.3765 Y1.0139  
G01 X-0.3765 Y1.0005  
G01 X-0.3275 Y1.0005  
G01 X-0.3275 Y1.0155  
G01 X-0.3055 Y1.0375  
G01 X-0.2745 Y1.0375  
G01 X-0.2525 Y1.0155  
G01 X-0.2525 Y0.9845  
G01 X-0.2745 Y0.9625  
G01 X-0.3055 Y0.9625  
G01 X-0.3225 Y0.9795  
G01 X-0.3831 Y0.9795  
G01 X-0.3961 Y0.9665  
G01 X-0.4239 Y0.9665  
G01 X-0.4435 Y0.9861  
G01 X-0.4435 Y1.0139  
G01 X-0.4311 Y1.0263  
G01 X-0.5043 Y1.0995  
G01 X-1.1556 Y1.0995  
G01 X-1.1643 Y1.0995  
G01 X-1.2052 Y1.1404  
G01 X-1.2112 Y1.1345  
G01 X-1.2488 Y1.1345  
G01 X-1.2647 Y1.1504  
G01 X-1.2995 Y1.1157  
G01 X-1.3056 Y1.1095  
G01 X-1.4156 Y1.1095  
G01 X-1.4243 Y1.1095  
G01 X-1.4443 Y1.1295  
G01 X-1.4505 Y1.1356  
G01 X-1.4505 Y1.2115  
G01 X-1.4539 Y1.2115  
G01 X-1.4735 Y1.2311  
G01 X-1.4735 Y1.2589  
G01 X-1.4711 Y1.2613  
G01 X-1.4893 Y1.2795  
G01 X-1.7656 Y1.2795  
G01 X-1.8095 Y1.2356  
G01 X-1.8095 Y1.1943  
G01 X-1.7747 Y1.1596  
G01 X-1.7688 Y1.1655  
G01 X-1.7312 Y1.1655  
G01 X-1.7045 Y1.1388  
G01 X-1.7045 Y1.1012  
G01 X-1.7312 Y1.0745  
G01 X-1.7688 Y1.0745  
G01 X-1.7955 Y1.1012  
G01 X-1.7955 Y1.1388  
G01 X-1.7896 Y1.1447  
G01 X-1.8243 Y1.1795  
G01 X-2.2956 Y1.1795  
G01 X-2.3995 Y1.0756  
G01 X-2.3995 Y0.9943  
G01 X-2.3556 Y0.9505  
G01 X-2.1943 Y0.9505  
G01 X-2.1105 Y1.0343  
G01 X-2.1105 Y1.0643  
G01 X-2.1043 Y1.0705  
G01 X-2.0443 Y1.1305  
G01 X-2.0356 Y1.1305  
G01 X-1.9656 Y1.1305  
G01 X-1.9595 Y1.1243  
G01 X-1.9095 Y1.0743  
G01 X-1.9095 Y1.0656  
G01 X-1.9095 Y0.9893  
G01 X-1.8856 Y0.9655  
G01 X-1.7956 Y0.9655  
G01 X-1.7343 Y0.9655  
G01 X-1.6693 Y1.0305  
G01 X-1.6606 Y1.0305  
G01 X-1.6333 Y1.0305  
G01 X-1.6345 Y1.0333  
G01 X-1.6345 Y1.0467  
G01 X-1.6294 Y1.0590  
G01 X-1.6200 Y1.0684  
G01 X-1.6077 Y1.0735  
G01 X-1.5323 Y1.0735  
G01 X-1.5200 Y1.0684  
G01 X-1.5106 Y1.0590  
G01 X-1.5055 Y1.0467  
G01 X-1.5055 Y1.0333  
G01 X-1.5067 Y1.0305  
G01 X-1.5056 Y1.0305  
G01 X-1.5054 Y1.0304  
G01 X-1.5024 Y1.0273  
G01 X-1.4995 Y1.0243  
G01 X-1.4995 Y1.0242  
G01 X-1.3975 Y0.9173  
G01 X-1.3945 Y0.9143  
G01 X-1.3945 Y0.9142  
G01 X-1.3944 Y0.9141  
G01 X-1.3945 Y0.9098  
G01 X-1.3945 Y0.5493  
G01 X-1.3895 Y0.5443  
G01 X-1.3895 Y0.5356  
G01 X-1.3945 Y0.5306  
G01 X-1.3945 Y0.5005  
G01 X-0.8893 Y0.5005  
G01 X-0.8128 Y0.5771  
G01 X-0.8211 Y0.5805  
G01 X-0.8305 Y0.5900  
G01 X-0.8356 Y0.6023  
G00 Z0.1000  
G00 X-2.1255 Y0.4586  
G01 Z-0.0070 F10    
G01 X-2.1255 Y0.4714  F20    
G01 X-2.1255 Y0.5164  
G01 X-2.1164 Y0.5255  
G01 X-2.0855 Y0.5564  
G01 X-2.0764 Y0.5655  
G01 X-1.6964 Y0.5655  
G01 X-1.6755 Y0.5864  
G01 X-1.6755 Y0.7136  
G01 X-1.6755 Y0.7264  
G01 X-1.6605 Y0.7414  
G01 X-1.6514 Y0.7505  
G01 X-1.6383 Y0.7505  
G01 X-1.6336 Y0.7618  
G01 X-1.6228 Y0.7726  
G01 X-1.6183 Y0.7745  
G01 X-1.6236 Y0.7745  
G01 X-1.6364 Y0.7745  
G01 X-1.6564 Y0.7945  
G01 X-1.6655 Y0.8036  
G01 X-1.6655 Y0.8536  
G01 X-1.6655 Y0.8664  
G01 X-1.6355 Y0.8964  
G01 X-1.6264 Y0.9055  
G01 X-1.6183 Y0.9055  
G01 X-1.6228 Y0.9074  
G01 X-1.6336 Y0.9182  
G01 X-1.6362 Y0.9245  
G01 X-1.6736 Y0.9245  
G01 X-1.6945 Y0.9036  
G01 X-1.6945 Y0.6364  
G01 X-1.6945 Y0.6236  
G01 X-1.7345 Y0.5836  
G01 X-1.7436 Y0.5745  
G01 X-2.0836 Y0.5745  
G01 X-2.1345 Y0.5236  
G01 X-2.1345 Y0.4480  
G01 X-2.0680 Y0.4011  
G01 X-2.1255 Y0.4586  
G00 Z0.1000  
G00 X-2.0586 Y0.3955  
G01 Z-0.0070 F10    
G01 X-2.0550 Y0.3919  F20    
G01 X-2.0508 Y0.3890  
G01 X-2.0506 Y0.3875  
G01 X-2.0495 Y0.3864  
G01 X-2.0495 Y0.3813  
G01 X-2.0486 Y0.3763  
G01 X-2.0495 Y0.3751  
G01 X-2.0495 Y0.0764  
G01 X-2.0386 Y0.0655  
G01 X-1.9174 Y0.0655  
G01 X-1.9255 Y0.0736  
G01 X-2.0164 Y0.1645  
G01 X-2.0255 Y0.1736  
G01 X-2.0255 Y0.3886  
G01 X-2.0364 Y0.3995  
G01 X-2.0536 Y0.3995  
G01 X-2.0658 Y0.3995  
G01 X-2.0601 Y0.3955  
G01 X-2.0586 Y0.3955  
G00 Z0.1000  
G00 X-1.7709 Y1.1705  
G01 Z-0.0070 F10    
G01 X-1.7624 Y1.1705  F20    
G01 X-1.7786 Y1.1772  
G01 X-1.7928 Y1.1914  
G01 X-1.8005 Y1.2100  
G01 X-1.8005 Y1.2300  
G01 X-1.7952 Y1.2429  
G01 X-1.8045 Y1.2336  
G01 X-1.8045 Y1.1964  
G01 X-1.7747 Y1.1667  
G01 X-1.7709 Y1.1705  
G00 Z0.1000  
G00 X-1.4136 Y1.1355  
G01 Z-0.0070 F10    
G01 X-1.4099 Y1.1355  F20    
G01 X-1.4245 Y1.1501  
G01 X-1.4245 Y1.1464  
G01 X-1.4136 Y1.1355  
G00 Z0.1000  
G00 X-2.3575 Y1.0062  
G01 Z-0.0070 F10    
G01 X-2.3575 Y1.0538  F20    
G01 X-2.3238 Y1.0875  
G01 X-2.2762 Y1.0875  
G01 X-2.2453 Y1.0566  
G01 X-2.1855 Y1.1164  
G01 X-2.1764 Y1.1255  
G01 X-2.1664 Y1.1255  
G01 X-2.1255 Y1.1664  
G01 X-2.1174 Y1.1745  
G01 X-2.2936 Y1.1745  
G01 X-2.3945 Y1.0736  
G01 X-2.3945 Y0.9964  
G01 X-2.3536 Y0.9555  
G01 X-2.1964 Y0.9555  
G01 X-2.1155 Y1.0364  
G01 X-2.1155 Y1.0664  
G01 X-2.1064 Y1.0755  
G01 X-2.0464 Y1.1355  
G01 X-2.0336 Y1.1355  
G01 X-1.9636 Y1.1355  
G01 X-1.9545 Y1.1264  
G01 X-1.9045 Y1.0764  
G01 X-1.9045 Y1.0636  
G01 X-1.9045 Y0.9914  
G01 X-1.8836 Y0.9705  
G01 X-1.7936 Y0.9705  
G01 X-1.7364 Y0.9705  
G01 X-1.6714 Y1.0355  
G01 X-1.6586 Y1.0355  
G01 X-1.6395 Y1.0355  
G01 X-1.6395 Y1.0477  
G01 X-1.6336 Y1.0618  
G01 X-1.6228 Y1.0726  
G01 X-1.6087 Y1.0785  
G01 X-1.5313 Y1.0785  
G01 X-1.5172 Y1.0726  
G01 X-1.5064 Y1.0618  
G01 X-1.5005 Y1.0477  
G01 X-1.5005 Y1.0325  
G01 X-1.4989 Y1.0309  
G01 X-1.4945 Y1.0264  
G01 X-1.4945 Y1.0262  
G01 X-1.3939 Y0.9208  
G01 X-1.3905 Y0.9174  
G01 X-1.3905 Y0.9238  
G01 X-1.4911 Y1.0292  
G01 X-1.4955 Y1.0336  
G01 X-1.4955 Y1.0338  
G01 X-1.4956 Y1.0339  
G01 X-1.4955 Y1.0402  
G01 X-1.4955 Y1.0636  
G01 X-1.5164 Y1.0845  
G01 X-1.6336 Y1.0845  
G01 X-1.7045 Y1.0136  
G01 X-1.7136 Y1.0045  
G01 X-1.7736 Y1.0045  
G01 X-1.7864 Y1.0045  
G01 X-1.9264 Y1.1445  
G01 X-2.1036 Y1.1445  
G01 X-2.1445 Y1.1036  
G01 X-2.1536 Y1.0945  
G01 X-2.1636 Y1.0945  
G01 X-2.2345 Y1.0236  
G01 X-2.2425 Y1.0156  
G01 X-2.2425 Y1.0062  
G01 X-2.2762 Y0.9725  
G01 X-2.3238 Y0.9725  
G01 X-2.3575 Y1.0062  
G00 Z0.1000  
G00 X-0.6855 Y0.5714  
G01 Z-0.0070 F10    
G01 X-0.6855 Y0.5998  F20    
G01 X-0.6907 Y0.5871  
G01 X-0.7016 Y0.5763  
G01 X-0.7045 Y0.5751  
G01 X-0.7045 Y0.5686  
G01 X-0.7136 Y0.5595  
G01 X-0.8376 Y0.4355  
G01 X-0.8214 Y0.4355  
G01 X-0.6855 Y0.5714  
G00 Z0.1000  
G00 X-1.2005 Y0.4323  
G01 Z-0.0070 F10    
G01 X-1.2064 Y0.4182  F20    
G01 X-1.2172 Y0.4074  
G01 X-1.2313 Y0.4015  
G01 X-1.3087 Y0.4015  
G01 X-1.3228 Y0.4074  
G01 X-1.3336 Y0.4182  
G01 X-1.3395 Y0.4323  
G01 X-1.3395 Y0.4477  
G01 X-1.3336 Y0.4618  
G01 X-1.3228 Y0.4726  
G01 X-1.3183 Y0.4745  
G01 X-1.3895 Y0.4745  
G01 X-1.3895 Y0.3564  
G01 X-1.3636 Y0.3305  
G01 X-1.3545 Y0.3214  
G01 X-1.3545 Y0.2685  
G01 X-1.3541 Y0.2685  
G01 X-1.3315 Y0.2459  
G01 X-1.3315 Y0.2234  
G01 X-1.3036 Y0.1955  
G01 X-1.2899 Y0.1955  
G01 X-1.3085 Y0.2141  
G01 X-1.3085 Y0.2459  
G01 X-1.2859 Y0.2685  
G01 X-1.2755 Y0.2685  
G01 X-1.2755 Y0.3015  
G01 X-1.3087 Y0.3015  
G01 X-1.3228 Y0.3074  
G01 X-1.3336 Y0.3182  
G01 X-1.3395 Y0.3323  
G01 X-1.3395 Y0.3477  
G01 X-1.3336 Y0.3618  
G01 X-1.3228 Y0.3726  
G01 X-1.3087 Y0.3785  
G01 X-1.2313 Y0.3785  
G01 X-1.2172 Y0.3726  
G01 X-1.2064 Y0.3618  
G01 X-1.2039 Y0.3558  
G01 X-1.1513 Y0.3032  
G01 X-1.1387 Y0.3085  
G01 X-1.0613 Y0.3085  
G01 X-1.0472 Y0.3026  
G01 X-1.0401 Y0.2955  
G01 X-1.0164 Y0.2955  
G01 X-0.9864 Y0.3255  
G01 X-0.9736 Y0.3255  
G01 X-0.9405 Y0.3255  
G01 X-0.9405 Y0.4264  
G01 X-0.9324 Y0.4345  
G01 X-1.2005 Y0.4345  
G01 X-1.2005 Y0.4323  
G00 Z0.1000  
G00 X-0.2325 Y0.6824  
G01 Z-0.0070 F10    
G01 X-0.2325 Y0.7176  F20    
G01 X-0.2076 Y0.7425  
G01 X-0.1724 Y0.7425  
G01 X-0.1475 Y0.7176  
G01 X-0.1475 Y0.6862  
G01 X-0.1455 Y0.6877  
G01 X-0.1455 Y0.8122  
G01 X-0.1475 Y0.8138  
G01 X-0.1475 Y0.7824  
G01 X-0.1724 Y0.7575  
G01 X-0.2076 Y0.7575  
G01 X-0.2091 Y0.7590  
G01 X-0.2245 Y0.7436  
G01 X-0.2336 Y0.7345  
G01 X-0.2644 Y0.7345  
G01 X-0.2475 Y0.7176  
G01 X-0.2475 Y0.6824  
G01 X-0.2644 Y0.6655  
G01 X-0.2156 Y0.6655  
G01 X-0.2325 Y0.6824  
G00 Z0.1000  
G00 X-0.3325 Y0.6824  
G01 Z-0.0070 F10    
G01 X-0.3325 Y0.7176  F20    
G01 X-0.3156 Y0.7345  
G01 X-0.3436 Y0.7345  
G01 X-0.3564 Y0.7345  
G01 X-0.5064 Y0.8845  
G01 X-0.7429 Y0.8845  
G01 X-0.7409 Y0.8837  
G01 X-0.7301 Y0.8729  
G01 X-0.7243 Y0.8587  
G01 X-0.7243 Y0.7814  
G01 X-0.7287 Y0.7706  
G01 X-0.6545 Y0.6964  
G01 X-0.6545 Y0.6836  
G01 X-0.6545 Y0.5714  
G01 X-0.6545 Y0.5586  
G01 X-0.7995 Y0.4136  
G01 X-0.8046 Y0.4085  
G01 X-0.7613 Y0.4085  
G01 X-0.7472 Y0.4026  
G01 X-0.7457 Y0.4012  
G01 X-0.7014 Y0.4455  
G01 X-0.6886 Y0.4455  
G01 X-0.5614 Y0.4455  
G01 X-0.4955 Y0.5114  
G01 X-0.4955 Y0.5164  
G01 X-0.4864 Y0.5255  
G01 X-0.3464 Y0.6655  
G01 X-0.3336 Y0.6655  
G01 X-0.3156 Y0.6655  
G01 X-0.3325 Y0.6824  
G00 Z0.1000  
G00 X-0.7305 Y0.3623  
G01 Z-0.0070 F10    
G01 X-0.7364 Y0.3482  F20    
G01 X-0.7472 Y0.3374  
G01 X-0.7613 Y0.3315  
G01 X-0.8387 Y0.3315  
G01 X-0.8528 Y0.3374  
G01 X-0.8636 Y0.3482  
G01 X-0.8695 Y0.3623  
G01 X-0.8695 Y0.3777  
G01 X-0.8636 Y0.3918  
G01 X-0.8528 Y0.4026  
G01 X-0.8483 Y0.4045  
G01 X-0.9095 Y0.4045  
G01 X-0.9095 Y0.3255  
G01 X-0.7114 Y0.3255  
G01 X-0.6614 Y0.3755  
G01 X-0.6486 Y0.3755  
G01 X-0.5314 Y0.3755  
G01 X-0.3414 Y0.5655  
G01 X-0.3286 Y0.5655  
G01 X-0.3156 Y0.5655  
G01 X-0.3325 Y0.5824  
G01 X-0.3325 Y0.6176  
G01 X-0.3156 Y0.6345  
G01 X-0.3336 Y0.6345  
G01 X-0.4645 Y0.5036  
G01 X-0.4645 Y0.4986  
G01 X-0.5395 Y0.4236  
G01 X-0.5486 Y0.4145  
G01 X-0.6886 Y0.4145  
G01 X-0.7305 Y0.3726  
G01 X-0.7305 Y0.3623  
G00 Z0.1000  
G00 X-0.2475 Y0.6176  
G01 Z-0.0070 F10    
G01 X-0.2475 Y0.5824  F20    
G01 X-0.2644 Y0.5655  
G01 X-0.2156 Y0.5655  
G01 X-0.2325 Y0.5824  
G01 X-0.2325 Y0.6176  
G01 X-0.2156 Y0.6345  
G01 X-0.2644 Y0.6345  
G01 X-0.2475 Y0.6176  
G00 Z0.1000  
G00 X-0.1236 Y0.8355  
G01 Z-0.0070 F10    
G01 X-0.1198 Y0.8317  F20    
G01 X-0.1156 Y0.8285  
G01 X-0.1155 Y0.8281  
G01 X-0.1155 Y0.9083  
G01 X-0.1701 Y0.9598  
G01 X-0.1724 Y0.9575  
G01 X-0.2076 Y0.9575  
G01 X-0.2325 Y0.9824  
G01 X-0.2325 Y1.0176  
G01 X-0.2285 Y1.0216  
G01 X-0.3514 Y1.1445  
G01 X-1.0875 Y1.1445  
G01 X-1.0912 Y1.1433  
G01 X-1.0937 Y1.1445  
G01 X-1.0941 Y1.1445  
G01 X-1.1014 Y1.1372  
G01 X-1.1200 Y1.1295  
G01 X-1.1400 Y1.1295  
G01 X-1.1586 Y1.1372  
G01 X-1.1728 Y1.1514  
G01 X-1.1795 Y1.1676  
G01 X-1.1795 Y1.1591  
G01 X-1.1833 Y1.1552  
G01 X-1.1536 Y1.1255  
G01 X-0.4936 Y1.1255  
G01 X-0.4845 Y1.1164  
G01 X-0.4066 Y1.0385  
G01 X-0.3941 Y1.0385  
G01 X-0.3715 Y1.0159  
G01 X-0.3715 Y1.0055  
G01 X-0.3325 Y1.0055  
G01 X-0.3325 Y1.0176  
G01 X-0.3076 Y1.0425  
G01 X-0.2724 Y1.0425  
G01 X-0.2475 Y1.0176  
G01 X-0.2475 Y0.9824  
G01 X-0.2644 Y0.9655  
G01 X-0.2464 Y0.9655  
G01 X-0.2336 Y0.9655  
G01 X-0.2091 Y0.9410  
G01 X-0.2076 Y0.9425  
G01 X-0.1724 Y0.9425  
G01 X-0.1475 Y0.9176  
G01 X-0.1475 Y0.8824  
G01 X-0.1644 Y0.8655  
G01 X-0.1636 Y0.8655  
G01 X-0.1598 Y0.8617  
G01 X-0.1248 Y0.8355  
G01 X-0.1236 Y0.8355  
G00 Z0.1000  
G00 X-0.2724 Y0.8575  
G01 Z-0.0070 F10    
G01 X-0.3076 Y0.8575  F20    
G01 X-0.3325 Y0.8824  
G01 X-0.3325 Y0.9176  
G01 X-0.3156 Y0.9345  
G01 X-0.4364 Y0.9345  
G01 X-0.4455 Y0.9436  
G01 X-0.4755 Y0.9736  
G01 X-0.4755 Y0.9801  
G01 X-0.4941 Y0.9615  
G01 X-0.5259 Y0.9615  
G01 X-0.5389 Y0.9745  
G01 X-1.2217 Y0.9745  
G01 X-1.2172 Y0.9726  
G01 X-1.2064 Y0.9618  
G01 X-1.2037 Y0.9555  
G01 X-0.4711 Y0.9555  
G01 X-0.4708 Y0.9557  
G01 X-0.4647 Y0.9555  
G01 X-0.4586 Y0.9555  
G01 X-0.4583 Y0.9553  
G01 X-0.4580 Y0.9552  
G01 X-0.4538 Y0.9507  
G01 X-0.4495 Y0.9464  
G01 X-0.4495 Y0.9461  
G01 X-0.3313 Y0.8188  
G01 X-0.3076 Y0.8425  
G01 X-0.2724 Y0.8425  
G01 X-0.2475 Y0.8176  
G01 X-0.2475 Y0.7824  
G01 X-0.2644 Y0.7655  
G01 X-0.2464 Y0.7655  
G01 X-0.2310 Y0.7809  
G01 X-0.2325 Y0.7824  
G01 X-0.2325 Y0.8176  
G01 X-0.2156 Y0.8345  
G01 X-0.2336 Y0.8345  
G01 X-0.2464 Y0.8345  
G01 X-0.2709 Y0.8590  
G01 X-0.2724 Y0.8575  
G00 Z0.1000  
G00 X-0.5485 Y1.0159  
G01 Z-0.0070 F10    
G01 X-0.5299 Y1.0345  F20    
G01 X-1.2005 Y1.0345  
G01 X-1.2005 Y1.0323  
G01 X-1.2064 Y1.0182  
G01 X-1.2172 Y1.0074  
G01 X-1.2217 Y1.0055  
G01 X-0.5485 Y1.0055  
G01 X-0.5485 Y1.0159  
G00 Z0.1000  
G00 X-1.3228 Y0.9726  
G01 Z-0.0070 F10    
G01 X-1.3183 Y0.9745  F20    
G01 X-1.3295 Y0.9745  
G01 X-1.3295 Y0.9659  
G01 X-1.3228 Y0.9726  
G00 Z0.1000  
G00 X-1.3228 Y0.8726  
G01 Z-0.0070 F10    
G01 X-1.3087 Y0.8785  F20    
G01 X-1.2313 Y0.8785  
G01 X-1.2172 Y0.8726  
G01 X-1.2082 Y0.8637  
G01 X-1.1564 Y0.9155  
G01 X-1.1436 Y0.9155  
G01 X-0.4936 Y0.9155  
G01 X-0.4845 Y0.9064  
G01 X-0.3436 Y0.7655  
G01 X-0.3156 Y0.7655  
G01 X-0.3325 Y0.7824  
G01 X-0.3325 Y0.7844  
G01 X-0.3353 Y0.7845  
G01 X-0.3414 Y0.7845  
G01 X-0.3416 Y0.7847  
G01 X-0.3420 Y0.7847  
G01 X-0.3462 Y0.7893  
G01 X-0.3505 Y0.7936  
G01 X-0.3505 Y0.7939  
G01 X-0.4718 Y0.9245  
G01 X-1.2037 Y0.9245  
G01 X-1.2064 Y0.9182  
G01 X-1.2172 Y0.9074  
G01 X-1.2313 Y0.9015  
G01 X-1.3087 Y0.9015  
G01 X-1.3228 Y0.9074  
G01 X-1.3295 Y0.9141  
G01 X-1.3295 Y0.8659  
G01 X-1.3228 Y0.8726  
G00 Z0.1000  
G00 X-1.3228 Y0.8074  
G01 Z-0.0070 F10    
G01 X-1.3295 Y0.8141  F20    
G01 X-1.3295 Y0.8114  
G01 X-1.3236 Y0.8055  
G01 X-1.3183 Y0.8055  
G01 X-1.3228 Y0.8074  
G00 Z0.1000  
G00 X-0.9587 Y0.8587  
G01 Z-0.0070 F10    
G01 X-0.9529 Y0.8729  F20    
G01 X-0.9420 Y0.8837  
G01 X-0.9401 Y0.8845  
G01 X-1.1436 Y0.8845  
G01 X-1.1945 Y0.8336  
G01 X-1.2036 Y0.8245  
G01 X-1.2037 Y0.8245  
G01 X-1.2064 Y0.8182  
G01 X-1.2172 Y0.8074  
G01 X-1.2217 Y0.8055  
G01 X-1.2014 Y0.8055  
G01 X-1.1805 Y0.8264  
G01 X-1.1714 Y0.8355  
G01 X-0.9587 Y0.8355  
G01 X-0.9587 Y0.8587  
G00 Z0.1000  
G00 X-1.2172 Y0.7726  
G01 Z-0.0070 F10    
G01 X-1.2064 Y0.7618  F20    
G01 X-1.2005 Y0.7477  
G01 X-1.2005 Y0.7323  
G01 X-1.2064 Y0.7182  
G01 X-1.2172 Y0.7074  
G01 X-1.2217 Y0.7055  
G01 X-0.9564 Y0.7055  
G01 X-0.9305 Y0.7314  
G01 X-0.9214 Y0.7405  
G01 X-0.8814 Y0.7405  
G01 X-0.8644 Y0.7575  
G01 X-0.8741 Y0.7672  
G01 X-0.8800 Y0.7814  
G01 X-0.8800 Y0.8587  
G01 X-0.8741 Y0.8729  
G01 X-0.8633 Y0.8837  
G01 X-0.8613 Y0.8845  
G01 X-0.9004 Y0.8845  
G01 X-0.8984 Y0.8837  
G01 X-0.8876 Y0.8729  
G01 X-0.8817 Y0.8587  
G01 X-0.8817 Y0.7814  
G01 X-0.8876 Y0.7672  
G01 X-0.8984 Y0.7564  
G01 X-0.9126 Y0.7506  
G01 X-0.9279 Y0.7506  
G01 X-0.9420 Y0.7564  
G01 X-0.9529 Y0.7672  
G01 X-0.9587 Y0.7814  
G01 X-0.9587 Y0.8045  
G01 X-1.1586 Y0.8045  
G01 X-1.1886 Y0.7745  
G01 X-1.2014 Y0.7745  
G01 X-1.2217 Y0.7745  
G01 X-1.2172 Y0.7726  
G00 Z0.1000  
G00 X-1.3595 Y0.7771  
G01 Z-0.0070 F10    
G01 X-1.3357 Y0.7567  F20    
G01 X-1.3336 Y0.7618  
G01 X-1.3228 Y0.7726  
G01 X-1.3183 Y0.7745  
G01 X-1.3364 Y0.7745  
G01 X-1.3455 Y0.7836  
G01 X-1.3595 Y0.7976  
G01 X-1.3595 Y0.7771  
G00 Z0.1000  
G00 X-1.5059 Y1.1315  
G01 Z-0.0070 F10    
G01 X-1.5285 Y1.1541  F20    
G01 X-1.5285 Y1.1845  
G01 X-1.7075 Y1.1845  
G01 X-1.7112 Y1.1833  
G01 X-1.7137 Y1.1845  
G01 X-1.7141 Y1.1845  
G01 X-1.7214 Y1.1772  
G01 X-1.7376 Y1.1705  
G01 X-1.7291 Y1.1705  
G01 X-1.6995 Y1.1409  
G01 X-1.6995 Y1.0991  
G01 X-1.7291 Y1.0695  
G01 X-1.7709 Y1.0695  
G01 X-1.8005 Y1.0991  
G01 X-1.8005 Y1.1409  
G01 X-1.7967 Y1.1447  
G01 X-1.8264 Y1.1745  
G01 X-1.9126 Y1.1745  
G01 X-1.7736 Y1.0355  
G01 X-1.7264 Y1.0355  
G01 X-1.6464 Y1.1155  
G01 X-1.6336 Y1.1155  
G01 X-1.5036 Y1.1155  
G01 X-1.4945 Y1.1064  
G01 X-1.4645 Y1.0764  
G01 X-1.4645 Y1.0636  
G01 X-1.4645 Y1.0462  
G01 X-1.3639 Y0.9408  
G01 X-1.3605 Y0.9374  
G01 X-1.3605 Y0.9786  
G01 X-1.5055 Y1.1236  
G01 X-1.5055 Y1.1315  
G01 X-1.5059 Y1.1315  
G00 Z0.1000  
G00 X-1.3228 Y1.0074  
G01 Z-0.0070 F10    
G01 X-1.3336 Y1.0182  F20    
G01 X-1.3395 Y1.0323  
G01 X-1.3395 Y1.0477  
G01 X-1.3336 Y1.0618  
G01 X-1.3228 Y1.0726  
G01 X-1.3087 Y1.0785  
G01 X-1.2313 Y1.0785  
G01 X-1.2172 Y1.0726  
G01 X-1.2101 Y1.0655  
G01 X-0.4964 Y1.0655  
G01 X-0.4836 Y1.0655  
G01 X-0.4536 Y1.0355  
G01 X-0.4445 Y1.0264  
G01 X-0.4445 Y1.0199  
G01 X-0.4382 Y1.0263  
G01 X-0.5064 Y1.0945  
G01 X-1.1536 Y1.0945  
G01 X-1.1664 Y1.0945  
G01 X-1.2052 Y1.1333  
G01 X-1.2091 Y1.1295  
G01 X-1.2509 Y1.1295  
G01 X-1.2647 Y1.1433  
G01 X-1.2945 Y1.1136  
G01 X-1.3036 Y1.1045  
G01 X-1.4136 Y1.1045  
G01 X-1.4264 Y1.1045  
G01 X-1.4464 Y1.1245  
G01 X-1.4555 Y1.1336  
G01 X-1.4555 Y1.1501  
G01 X-1.4718 Y1.1337  
G01 X-1.3436 Y1.0055  
G01 X-1.3336 Y1.0055  
G01 X-1.3183 Y1.0055  
G01 X-1.3228 Y1.0074  
G00 Z0.1000  
G00 X-1.5059 Y1.2085  
G01 Z-0.0070 F10    
G01 X-1.4741 Y1.2085  F20    
G01 X-1.4555 Y1.1899  
G01 X-1.4555 Y1.2065  
G01 X-1.4559 Y1.2065  
G01 X-1.4785 Y1.2291  
G01 X-1.4785 Y1.2609  
G01 X-1.4782 Y1.2613  
G01 X-1.4914 Y1.2745  
G01 X-1.7636 Y1.2745  
G01 X-1.7729 Y1.2652  
G01 X-1.7600 Y1.2705  
G01 X-1.7400 Y1.2705  
G01 X-1.7214 Y1.2628  
G01 X-1.7072 Y1.2486  
G01 X-1.6995 Y1.2300  
G01 X-1.6995 Y1.2155  
G01 X-1.5136 Y1.2155  
G01 X-1.5063 Y1.2082  
G01 X-1.5059 Y1.2085  
G00 Z0.1000  
G00 X-1.3895 Y0.5514  
G01 Z-0.0070 F10    
G01 X-1.3845 Y0.5464  F20    
G01 X-1.3845 Y0.5336  
G01 X-1.3895 Y0.5286  
G01 X-1.3895 Y0.5055  
G01 X-1.3183 Y0.5055  
G01 X-1.3228 Y0.5074  
G01 X-1.3336 Y0.5182  
G01 X-1.3395 Y0.5323  
G01 X-1.3395 Y0.5477  
G01 X-1.3337 Y0.5617  
G01 X-1.3755 Y0.6036  
G01 X-1.3755 Y0.6164  
G01 X-1.3755 Y0.6664  
G01 X-1.3664 Y0.6755  
G01 X-1.3364 Y0.7055  
G01 X-1.3236 Y0.7055  
G01 X-1.3183 Y0.7055  
G01 X-1.3228 Y0.7074  
G01 X-1.3336 Y0.7182  
G01 X-1.3362 Y0.7245  
G01 X-1.3394 Y0.7245  
G01 X-1.3452 Y0.7241  
G01 X-1.3457 Y0.7245  
G01 X-1.3464 Y0.7245  
G01 X-1.3505 Y0.7286  
G01 X-1.3807 Y0.7545  
G01 X-1.3814 Y0.7545  
G01 X-1.3855 Y0.7586  
G01 X-1.3895 Y0.7620  
G01 X-1.3895 Y0.5514  
G00 Z0.1000  
G00 X-0.2325 Y0.8824  
G01 Z-0.0070 F10    
G01 X-0.2325 Y0.9176  F20    
G01 X-0.2310 Y0.9191  
G01 X-0.2464 Y0.9345  
G01 X-0.2644 Y0.9345  
G01 X-0.2475 Y0.9176  
G01 X-0.2475 Y0.8824  
G01 X-0.2490 Y0.8809  
G01 X-0.2336 Y0.8655  
G01 X-0.2156 Y0.8655  
G01 X-0.2325 Y0.8824  
G00 Z0.1000  
G00 X-0.1475 Y0.6176  
G01 Z-0.0070 F10    
G01 X-0.1475 Y0.5824  F20    
G01 X-0.1587 Y0.5712  
G01 X-0.1537 Y0.5732  
G01 X-0.1514 Y0.5755  
G01 X-0.1155 Y0.6114  
G01 X-0.1155 Y0.6719  
G01 X-0.1156 Y0.6714  
G01 X-0.1198 Y0.6683  
G01 X-0.1236 Y0.6645  
G01 X-0.1248 Y0.6645  
G01 X-0.1598 Y0.6383  
G01 X-0.1636 Y0.6345  
G01 X-0.1644 Y0.6345  
G01 X-0.1475 Y0.6176  
G00 Z0.1000  
G00 X-0.8197 Y0.8837  
G01 Z-0.0070 F10    
G01 X-0.8089 Y0.8729  F20    
G01 X-0.8030 Y0.8587  
G01 X-0.8030 Y0.7814  
G01 X-0.8089 Y0.7672  
G01 X-0.8197 Y0.7564  
G01 X-0.8295 Y0.7524  
G01 X-0.8295 Y0.7486  
G01 X-0.8386 Y0.7395  
G01 X-0.8686 Y0.7095  
G01 X-0.8814 Y0.7095  
G01 X-0.9086 Y0.7095  
G01 X-0.9436 Y0.6745  
G01 X-0.9564 Y0.6745  
G01 X-1.2217 Y0.6745  
G01 X-1.2172 Y0.6726  
G01 X-1.2064 Y0.6618  
G01 X-1.2005 Y0.6477  
G01 X-1.2005 Y0.6455  
G01 X-0.9194 Y0.6455  
G01 X-0.9194 Y0.6786  
G01 X-0.9135 Y0.6928  
G01 X-0.9027 Y0.7036  
G01 X-0.8885 Y0.7094  
G01 X-0.8732 Y0.7094  
G01 X-0.8591 Y0.7036  
G01 X-0.8482 Y0.6928  
G01 X-0.8424 Y0.6786  
G01 X-0.8424 Y0.6013  
G01 X-0.8482 Y0.5871  
G01 X-0.8591 Y0.5763  
G01 X-0.8732 Y0.5704  
G01 X-0.8885 Y0.5704  
G01 X-0.9027 Y0.5763  
G01 X-0.9135 Y0.5871  
G01 X-0.9194 Y0.6013  
G01 X-0.9194 Y0.6145  
G01 X-1.2101 Y0.6145  
G01 X-1.2172 Y0.6074  
G01 X-1.2313 Y0.6015  
G01 X-1.3087 Y0.6015  
G01 X-1.3228 Y0.6074  
G01 X-1.3336 Y0.6182  
G01 X-1.3395 Y0.6323  
G01 X-1.3395 Y0.6477  
G01 X-1.3336 Y0.6618  
G01 X-1.3228 Y0.6726  
G01 X-1.3183 Y0.6745  
G01 X-1.3236 Y0.6745  
G01 X-1.3445 Y0.6536  
G01 X-1.3445 Y0.6164  
G01 X-1.3066 Y0.5785  
G01 X-1.2313 Y0.5785  
G01 X-1.2172 Y0.5726  
G01 X-1.2064 Y0.5618  
G01 X-1.2005 Y0.5477  
G01 X-1.2005 Y0.5323  
G01 X-1.2064 Y0.5182  
G01 X-1.2172 Y0.5074  
G01 X-1.2217 Y0.5055  
G01 X-0.8914 Y0.5055  
G01 X-0.8216 Y0.5753  
G01 X-0.8239 Y0.5763  
G01 X-0.8348 Y0.5871  
G01 X-0.8406 Y0.6013  
G01 X-0.8406 Y0.6786  
G01 X-0.8348 Y0.6928  
G01 X-0.8239 Y0.7036  
G01 X-0.8098 Y0.7094  
G01 X-0.7945 Y0.7094  
G01 X-0.7803 Y0.7036  
G01 X-0.7695 Y0.6928  
G01 X-0.7636 Y0.6786  
G01 X-0.7636 Y0.6013  
G01 X-0.7695 Y0.5871  
G01 X-0.7803 Y0.5763  
G01 X-0.7845 Y0.5746  
G01 X-0.7845 Y0.5686  
G01 X-0.8786 Y0.4745  
G01 X-0.8914 Y0.4745  
G01 X-1.2217 Y0.4745  
G01 X-1.2172 Y0.4726  
G01 X-1.2101 Y0.4655  
G01 X-0.8514 Y0.4655  
G01 X-0.7419 Y0.5750  
G01 X-0.7452 Y0.5763  
G01 X-0.7560 Y0.5871  
G01 X-0.7619 Y0.6013  
G01 X-0.7619 Y0.6786  
G01 X-0.7560 Y0.6928  
G01 X-0.7452 Y0.7036  
G01 X-0.7310 Y0.7094  
G01 X-0.7157 Y0.7094  
G01 X-0.7083 Y0.7063  
G01 X-0.7532 Y0.7513  
G01 X-0.7551 Y0.7506  
G01 X-0.7704 Y0.7506  
G01 X-0.7846 Y0.7564  
G01 X-0.7954 Y0.7672  
G01 X-0.8013 Y0.7814  
G01 X-0.8013 Y0.8587  
G01 X-0.7954 Y0.8729  
G01 X-0.7846 Y0.8837  
G01 X-0.7826 Y0.8845  
G01 X-0.8217 Y0.8845  
G01 X-0.8197 Y0.8837  
G00 Z0.1000  
G00 X-0.3246 Y0.9745  
G01 Z-0.0070 F10    
G01 X-0.3811 Y0.9745  F20    
G01 X-0.3901 Y0.9655  
G01 X-0.3156 Y0.9655  
G01 X-0.3246 Y0.9745  
G00 Z0.1000  
G00 X-1.2436 Y1.2345  
G01 Z-0.0070 F10    
G01 X-1.2476 Y1.2305  F20    
G01 X-1.2091 Y1.2305  
G01 X-1.1795 Y1.2009  
G01 X-1.1795 Y1.1924  
G01 X-1.1751 Y1.2031  
G01 X-1.2064 Y1.2345  
G01 X-1.2436 Y1.2345  
G00 Z0.1000  
G00 X-1.3515 Y1.1541  
G01 Z-0.0070 F10    
G01 X-1.3701 Y1.1355  F20    
G01 X-1.3164 Y1.1355  
G01 X-1.2835 Y1.1684  
G01 X-1.2827 Y1.1710  
G01 X-1.2805 Y1.1721  
G01 X-1.2805 Y1.1976  
G01 X-1.3136 Y1.1645  
G01 X-1.3264 Y1.1645  
G01 X-1.3515 Y1.1645  
G01 X-1.3515 Y1.1541  
G00 Z0.1000  
G00 X-0.2076 Y0.4425  
G01 Z-0.0070 F10    
G01 X-0.1724 Y0.4425  F20    
G01 X-0.1555 Y0.4256  
G01 X-0.1555 Y0.4744  
G01 X-0.1724 Y0.4575  
G01 X-0.2076 Y0.4575  
G01 X-0.2091 Y0.4590  
G01 X-0.2245 Y0.4436  
G01 X-0.2245 Y0.4256  
G01 X-0.2076 Y0.4425  
G00 Z0.1000  
G00 X-0.4864 Y0.0355  
G01 Z-0.0070 F10    
G01 X-0.1555 Y0.3664  F20    
G01 X-0.1555 Y0.3744  
G01 X-0.1724 Y0.3575  
G01 X-0.1806 Y0.3575  
G01 X-0.4945 Y0.0436  
G01 X-0.5026 Y0.0355  
G01 X-0.4864 Y0.0355  
G00 Z0.1000  
G00 X-0.3310 Y0.3809  
G01 Z-0.0070 F10    
G01 X-0.3325 Y0.3824  F20    
G01 X-0.3325 Y0.4176  
G01 X-0.3076 Y0.4425  
G01 X-0.2724 Y0.4425  
G01 X-0.2555 Y0.4256  
G01 X-0.2555 Y0.4436  
G01 X-0.2555 Y0.4564  
G01 X-0.2310 Y0.4809  
G01 X-0.2325 Y0.4824  
G01 X-0.2325 Y0.5176  
G01 X-0.2156 Y0.5345  
G01 X-0.2644 Y0.5345  
G01 X-0.2475 Y0.5176  
G01 X-0.2475 Y0.4824  
G01 X-0.2724 Y0.4575  
G01 X-0.3076 Y0.4575  
G01 X-0.3091 Y0.4590  
G01 X-0.3645 Y0.4036  
G01 X-0.3645 Y0.3636  
G01 X-0.3736 Y0.3545  
G01 X-0.5945 Y0.1336  
G01 X-0.6026 Y0.1255  
G01 X-0.5864 Y0.1255  
G01 X-0.3310 Y0.3809  
G00 Z0.1000  
G00 X-1.5172 Y0.8726  
G01 Z-0.0070 F10    
G01 X-1.5064 Y0.8618  F20    
G01 X-1.5039 Y0.8558  
G01 X-1.4995 Y0.8555  
G01 X-1.4936 Y0.8555  
G01 X-1.4932 Y0.8551  
G01 X-1.4926 Y0.8550  
G01 X-1.4886 Y0.8506  
G01 X-1.4845 Y0.8464  
G01 X-1.4845 Y0.8458  
G01 X-1.4537 Y0.8106  
G01 X-1.4505 Y0.8074  
G01 X-1.4505 Y0.8240  
G01 X-1.4968 Y0.8745  
G01 X-1.5217 Y0.8745  
G01 X-1.5172 Y0.8726  
G00 Z0.1000  
G00 X-1.5064 Y0.8182  
G01 Z-0.0070 F10    
G01 X-1.5172 Y0.8074  F20    
G01 X-1.5217 Y0.8055  
G01 X-1.5037 Y0.8055  
G01 X-1.5012 Y0.8067  
G01 X-1.4975 Y0.8055  
G01 X-1.4936 Y0.8055  
G01 X-1.4916 Y0.8035  
G01 X-1.4890 Y0.8027  
G01 X-1.4873 Y0.7992  
G01 X-1.4845 Y0.7964  
G01 X-1.4845 Y0.7937  
G01 X-1.4823 Y0.7892  
G01 X-1.4805 Y0.7874  
G01 X-1.4805 Y0.7942  
G01 X-1.5048 Y0.8220  
G01 X-1.5064 Y0.8182  
G00 Z0.1000  
G00 X-1.4274 Y0.1255  
G01 Z-0.0070 F10    
G01 X-1.4355 Y0.1336  F20    
G01 X-1.4655 Y0.1636  
G01 X-1.4655 Y0.1764  
G01 X-1.4655 Y0.5989  
G01 X-1.4662 Y0.6042  
G01 X-1.4655 Y0.6052  
G01 X-1.4655 Y0.6064  
G01 X-1.4617 Y0.6102  
G01 X-1.4505 Y0.6252  
G01 X-1.4505 Y0.6426  
G01 X-1.4536 Y0.6395  
G01 X-1.4745 Y0.6144  
G01 X-1.4745 Y0.1464  
G01 X-1.4536 Y0.1255  
G01 X-1.4274 Y0.1255  
G00 Z0.1000  
G00 X-1.9033 Y0.2822  
G01 Z-0.0070 F10    
G01 X-1.9028 Y0.2826  F20    
G01 X-1.8887 Y0.2885  
G01 X-1.8134 Y0.2885  
G01 X-1.6464 Y0.4555  
G01 X-1.6362 Y0.4555  
G01 X-1.6336 Y0.4618  
G01 X-1.6228 Y0.4726  
G01 X-1.6087 Y0.4785  
G01 X-1.5313 Y0.4785  
G01 X-1.5172 Y0.4726  
G01 X-1.5064 Y0.4618  
G01 X-1.5055 Y0.4597  
G01 X-1.5055 Y0.5203  
G01 X-1.5064 Y0.5182  
G01 X-1.5172 Y0.5074  
G01 X-1.5313 Y0.5015  
G01 X-1.6087 Y0.5015  
G01 X-1.6228 Y0.5074  
G01 X-1.6268 Y0.5113  
G01 X-1.6645 Y0.4736  
G01 X-1.6736 Y0.4645  
G01 X-1.7615 Y0.4645  
G01 X-1.7615 Y0.4641  
G01 X-1.7841 Y0.4415  
G01 X-1.8066 Y0.4415  
G01 X-1.8345 Y0.4136  
G01 X-1.8345 Y0.3885  
G01 X-1.8113 Y0.3885  
G01 X-1.7972 Y0.3826  
G01 X-1.7864 Y0.3718  
G01 X-1.7805 Y0.3577  
G01 X-1.7805 Y0.3423  
G01 X-1.7864 Y0.3282  
G01 X-1.7972 Y0.3174  
G01 X-1.8113 Y0.3115  
G01 X-1.8887 Y0.3115  
G01 X-1.9028 Y0.3174  
G01 X-1.9136 Y0.3282  
G01 X-1.9145 Y0.3303  
G01 X-1.9145 Y0.2920  
G01 X-1.9033 Y0.2822  
G00 Z0.1000  
G00 X-1.5064 Y0.6182  
G01 Z-0.0070 F10    
G01 X-1.5172 Y0.6074  F20    
G01 X-1.5313 Y0.6015  
G01 X-1.6087 Y0.6015  
G01 X-1.6228 Y0.6074  
G01 X-1.6336 Y0.6182  
G01 X-1.6395 Y0.6323  
G01 X-1.6395 Y0.6477  
G01 X-1.6336 Y0.6618  
G01 X-1.6228 Y0.6726  
G01 X-1.6087 Y0.6785  
G01 X-1.5313 Y0.6785  
G01 X-1.5172 Y0.6726  
G01 X-1.5149 Y0.6703  
G01 X-1.5105 Y0.6756  
G01 X-1.5105 Y0.7141  
G01 X-1.5172 Y0.7074  
G01 X-1.5313 Y0.7015  
G01 X-1.6087 Y0.7015  
G01 X-1.6228 Y0.7074  
G01 X-1.6336 Y0.7182  
G01 X-1.6342 Y0.7195  
G01 X-1.6386 Y0.7195  
G01 X-1.6445 Y0.7136  
G01 X-1.6445 Y0.5736  
G01 X-1.6536 Y0.5645  
G01 X-1.6836 Y0.5345  
G01 X-1.6964 Y0.5345  
G01 X-2.0636 Y0.5345  
G01 X-2.0945 Y0.5036  
G01 X-2.0945 Y0.4714  
G01 X-2.0536 Y0.4305  
G01 X-2.0236 Y0.4305  
G01 X-2.0145 Y0.4214  
G01 X-1.9945 Y0.4014  
G01 X-1.9945 Y0.3886  
G01 X-1.9945 Y0.1864  
G01 X-1.9036 Y0.0955  
G01 X-1.4674 Y0.0955  
G01 X-1.5055 Y0.1336  
G01 X-1.5055 Y0.1464  
G01 X-1.5055 Y0.3203  
G01 X-1.5064 Y0.3182  
G01 X-1.5172 Y0.3074  
G01 X-1.5313 Y0.3015  
G01 X-1.5866 Y0.3015  
G01 X-1.7385 Y0.1496  
G01 X-1.7421 Y0.1452  
G01 X-1.7430 Y0.1451  
G01 X-1.7436 Y0.1445  
G01 X-1.7492 Y0.1445  
G01 X-1.7809 Y0.1413  
G01 X-1.7864 Y0.1282  
G01 X-1.7972 Y0.1174  
G01 X-1.8113 Y0.1115  
G01 X-1.8887 Y0.1115  
G01 X-1.9028 Y0.1174  
G01 X-1.9136 Y0.1282  
G01 X-1.9195 Y0.1423  
G01 X-1.9195 Y0.1563  
G01 X-1.9757 Y0.2045  
G01 X-1.9764 Y0.2045  
G01 X-1.9805 Y0.2086  
G01 X-1.9850 Y0.2124  
G01 X-1.9850 Y0.2131  
G01 X-1.9855 Y0.2136  
G01 X-1.9855 Y0.2194  
G01 X-1.9859 Y0.2252  
G01 X-1.9855 Y0.2257  
G01 X-1.9855 Y0.3942  
G01 X-2.0269 Y0.4415  
G01 X-2.0559 Y0.4415  
G01 X-2.0785 Y0.4641  
G01 X-2.0785 Y0.4959  
G01 X-2.0559 Y0.5185  
G01 X-2.0241 Y0.5185  
G01 X-2.0015 Y0.4959  
G01 X-2.0015 Y0.4641  
G01 X-2.0036 Y0.4619  
G01 X-1.9587 Y0.4106  
G01 X-1.9545 Y0.4064  
G01 X-1.9545 Y0.4058  
G01 X-1.9541 Y0.4054  
G01 X-1.9545 Y0.3995  
G01 X-1.9545 Y0.2271  
G01 X-1.9027 Y0.1827  
G01 X-1.8887 Y0.1885  
G01 X-1.8113 Y0.1885  
G01 X-1.7972 Y0.1826  
G01 X-1.7865 Y0.1719  
G01 X-1.7570 Y0.1749  
G01 X-1.6237 Y0.3082  
G01 X-1.6336 Y0.3182  
G01 X-1.6395 Y0.3323  
G01 X-1.6395 Y0.3477  
G01 X-1.6336 Y0.3618  
G01 X-1.6228 Y0.3726  
G01 X-1.6087 Y0.3785  
G01 X-1.5313 Y0.3785  
G01 X-1.5172 Y0.3726  
G01 X-1.5064 Y0.3618  
G01 X-1.5055 Y0.3597  
G01 X-1.5055 Y0.4203  
G01 X-1.5064 Y0.4182  
G01 X-1.5172 Y0.4074  
G01 X-1.5313 Y0.4015  
G01 X-1.6087 Y0.4015  
G01 X-1.6228 Y0.4074  
G01 X-1.6336 Y0.4182  
G01 X-1.6355 Y0.4226  
G01 X-1.7863 Y0.2717  
G01 X-1.7805 Y0.2577  
G01 X-1.7805 Y0.2423  
G01 X-1.7864 Y0.2282  
G01 X-1.7972 Y0.2174  
G01 X-1.8113 Y0.2115  
G01 X-1.8887 Y0.2115  
G01 X-1.9028 Y0.2174  
G01 X-1.9136 Y0.2282  
G01 X-1.9195 Y0.2423  
G01 X-1.9195 Y0.2552  
G01 X-1.9358 Y0.2695  
G01 X-1.9364 Y0.2695  
G01 X-1.9406 Y0.2736  
G01 X-1.9450 Y0.2776  
G01 X-1.9451 Y0.2782  
G01 X-1.9455 Y0.2786  
G01 X-1.9455 Y0.2845  
G01 X-1.9459 Y0.2904  
G01 X-1.9455 Y0.2908  
G01 X-1.9455 Y0.4511  
G01 X-1.9585 Y0.4641  
G01 X-1.9585 Y0.4959  
G01 X-1.9359 Y0.5185  
G01 X-1.9041 Y0.5185  
G01 X-1.8815 Y0.4959  
G01 X-1.8815 Y0.4641  
G01 X-1.9041 Y0.4415  
G01 X-1.9145 Y0.4415  
G01 X-1.9145 Y0.3697  
G01 X-1.9136 Y0.3718  
G01 X-1.9028 Y0.3826  
G01 X-1.8887 Y0.3885  
G01 X-1.8655 Y0.3885  
G01 X-1.8655 Y0.4264  
G01 X-1.8564 Y0.4355  
G01 X-1.8332 Y0.4587  
G01 X-1.8385 Y0.4641  
G01 X-1.8385 Y0.4959  
G01 X-1.8159 Y0.5185  
G01 X-1.7841 Y0.5185  
G01 X-1.7615 Y0.4959  
G01 X-1.7615 Y0.4955  
G01 X-1.6864 Y0.4955  
G01 X-1.6395 Y0.5424  
G01 X-1.6395 Y0.5477  
G01 X-1.6336 Y0.5618  
G01 X-1.6228 Y0.5726  
G01 X-1.6087 Y0.5785  
G01 X-1.5313 Y0.5785  
G01 X-1.5172 Y0.5726  
G01 X-1.5064 Y0.5618  
G01 X-1.5055 Y0.5597  
G01 X-1.5055 Y0.6193  
G01 X-1.5056 Y0.6201  
G01 X-1.5064 Y0.6182  
G00 Z0.1000  
G00 X-1.4836 Y0.6595  
G01 Z-0.0070 F10    
G01 X-1.5005 Y0.6392  F20    
G01 X-1.5005 Y0.6323  
G01 X-1.5011 Y0.6309  
G01 X-1.4805 Y0.6556  
G01 X-1.4805 Y0.6626  
G01 X-1.4836 Y0.6595  
G00 Z0.1000  
G00 X-0.5414 Y0.0955  
G01 Z-0.0070 F10    
G01 X-0.2794 Y0.3575  F20    
G01 X-0.3076 Y0.3575  
G01 X-0.3091 Y0.3590  
G01 X-0.5645 Y0.1036  
G01 X-0.5726 Y0.0955  
G01 X-0.5414 Y0.0955  
G00 Z0.1000  
G00 X-0.3955 Y0.3764  
G01 Z-0.0070 F10    
G01 X-0.3955 Y0.4036  F20    
G01 X-0.3955 Y0.4164  
G01 X-0.3310 Y0.4809  
G01 X-0.3325 Y0.4824  
G01 X-0.3325 Y0.5176  
G01 X-0.3156 Y0.5345  
G01 X-0.3286 Y0.5345  
G01 X-0.5095 Y0.3536  
G01 X-0.5186 Y0.3445  
G01 X-0.6486 Y0.3445  
G01 X-0.6895 Y0.3036  
G01 X-0.6986 Y0.2945  
G01 X-0.9236 Y0.2945  
G01 X-0.9364 Y0.2945  
G01 X-0.9736 Y0.2945  
G01 X-1.0036 Y0.2645  
G01 X-1.0164 Y0.2645  
G01 X-1.0305 Y0.2645  
G01 X-1.0305 Y0.2623  
G01 X-1.0364 Y0.2482  
G01 X-1.0472 Y0.2374  
G01 X-1.0613 Y0.2315  
G01 X-1.1387 Y0.2315  
G01 X-1.1528 Y0.2374  
G01 X-1.1636 Y0.2482  
G01 X-1.1695 Y0.2623  
G01 X-1.1695 Y0.2776  
G01 X-1.2082 Y0.3163  
G01 X-1.2172 Y0.3074  
G01 X-1.2313 Y0.3015  
G01 X-1.2445 Y0.3015  
G01 X-1.2445 Y0.2589  
G01 X-1.2315 Y0.2459  
G01 X-1.2315 Y0.2141  
G01 X-1.2501 Y0.1955  
G01 X-1.0364 Y0.1955  
G01 X-0.9564 Y0.2755  
G01 X-0.9436 Y0.2755  
G01 X-0.6695 Y0.2755  
G01 X-0.6695 Y0.2777  
G01 X-0.6636 Y0.2918  
G01 X-0.6528 Y0.3026  
G01 X-0.6387 Y0.3085  
G01 X-0.5613 Y0.3085  
G01 X-0.5472 Y0.3026  
G01 X-0.5364 Y0.2918  
G01 X-0.5305 Y0.2777  
G01 X-0.5305 Y0.2623  
G01 X-0.5364 Y0.2482  
G01 X-0.5472 Y0.2374  
G01 X-0.5613 Y0.2315  
G01 X-0.6387 Y0.2315  
G01 X-0.6528 Y0.2374  
G01 X-0.6599 Y0.2445  
G01 X-0.9436 Y0.2445  
G01 X-1.0145 Y0.1736  
G01 X-1.0236 Y0.1645  
G01 X-1.3036 Y0.1645  
G01 X-1.3164 Y0.1645  
G01 X-1.3487 Y0.1968  
G01 X-1.3541 Y0.1915  
G01 X-1.3859 Y0.1915  
G01 X-1.4085 Y0.2141  
G01 X-1.4085 Y0.2459  
G01 X-1.3859 Y0.2685  
G01 X-1.3855 Y0.2685  
G01 X-1.3855 Y0.3086  
G01 X-1.4205 Y0.3436  
G01 X-1.4205 Y0.3564  
G01 X-1.4205 Y0.4964  
G01 X-1.4205 Y0.5286  
G01 X-1.4205 Y0.5336  
G01 X-1.4205 Y0.6126  
G01 X-1.4233 Y0.6098  
G01 X-1.4345 Y0.5948  
G01 X-1.4345 Y0.1764  
G01 X-1.4136 Y0.1555  
G01 X-0.6164 Y0.1555  
G01 X-0.3955 Y0.3764  
G00 Z0.1000  
G00 X-1.5172 Y0.7726  
G01 Z-0.0070 F10    
G01 X-1.5105 Y0.7659  F20    
G01 X-1.5105 Y0.7745  
G01 X-1.5217 Y0.7745  
G01 X-1.5172 Y0.7726  
G00 Z0.1000  
G00 X-1.6236 Y0.8055  
G01 Z-0.0070 F10    
G01 X-1.6183 Y0.8055  F20    
G01 X-1.6228 Y0.8074  
G01 X-1.6336 Y0.8182  
G01 X-1.6345 Y0.8203  
G01 X-1.6345 Y0.8164  
G01 X-1.6236 Y0.8055  
G00 Z0.1000  
G00 X-0.6880 Y0.6861  
G01 Z-0.0070 F10    
G01 X-0.6855 Y0.6801  F20    
G01 X-0.6855 Y0.6836  
G01 X-0.6880 Y0.6861  
G00 Z0.1000  
G00 X-0.1555 Y0.5256  
G01 Z-0.0070 F10    
G01 X-0.1555 Y0.5391  F20    
G01 X-0.1613 Y0.5368  
G01 X-0.1636 Y0.5345  
G01 X-0.1644 Y0.5345  
G01 X-0.1555 Y0.5256  
G00 Z0.1000  
G00 X-0.2160 Y0.3659  
G01 Z-0.0070 F10    
G01 X-0.2245 Y0.3744  F20    
G01 X-0.2245 Y0.3686  
G01 X-0.5276 Y0.0655  
G01 X-0.5164 Y0.0655  
G01 X-0.2160 Y0.3659  
G00 Z0.1000  
G00 X-2.1564 Y0.4245  
G01 Z-0.0070 F10    
G01 X-2.1600 Y0.4281  F20    
G01 X-2.1642 Y0.4310  
G01 X-2.1644 Y0.4325  
G01 X-2.1655 Y0.4336  
G01 X-2.1655 Y0.4387  
G01 X-2.1664 Y0.4437  
G01 X-2.1655 Y0.4449  
G01 X-2.1655 Y0.5236  
G01 X-2.1655 Y0.5364  
G01 X-2.0964 Y0.6055  
G01 X-2.0836 Y0.6055  
G01 X-1.7564 Y0.6055  
G01 X-1.7255 Y0.6364  
G01 X-1.7255 Y0.9164  
G01 X-1.7164 Y0.9255  
G01 X-1.6955 Y0.9464  
G01 X-1.6864 Y0.9555  
G01 X-1.6362 Y0.9555  
G01 X-1.6336 Y0.9618  
G01 X-1.6228 Y0.9726  
G01 X-1.6087 Y0.9785  
G01 X-1.5313 Y0.9785  
G01 X-1.5172 Y0.9726  
G01 X-1.5064 Y0.9618  
G01 X-1.5005 Y0.9477  
G01 X-1.5005 Y0.9323  
G01 X-1.5064 Y0.9182  
G01 X-1.5172 Y0.9074  
G01 X-1.5217 Y0.9055  
G01 X-1.4960 Y0.9055  
G01 X-1.4957 Y0.9058  
G01 X-1.4897 Y0.9055  
G01 X-1.4836 Y0.9055  
G01 X-1.4833 Y0.9052  
G01 X-1.4829 Y0.9052  
G01 X-1.4788 Y0.9007  
G01 X-1.4745 Y0.8964  
G01 X-1.4745 Y0.8960  
G01 X-1.4238 Y0.8407  
G01 X-1.4205 Y0.8374  
G01 X-1.4205 Y0.9038  
G01 X-1.5166 Y1.0045  
G01 X-1.5241 Y1.0045  
G01 X-1.5313 Y1.0015  
G01 X-1.6087 Y1.0015  
G01 X-1.6159 Y1.0045  
G01 X-1.6586 Y1.0045  
G01 X-1.7145 Y0.9486  
G01 X-1.7236 Y0.9395  
G01 X-1.7845 Y0.9395  
G01 X-1.7845 Y0.7185  
G01 X-1.7841 Y0.7185  
G01 X-1.7615 Y0.6959  
G01 X-1.7615 Y0.6641  
G01 X-1.7841 Y0.6415  
G01 X-1.8159 Y0.6415  
G01 X-1.8289 Y0.6545  
G01 X-1.8911 Y0.6545  
G01 X-1.9041 Y0.6415  
G01 X-1.9359 Y0.6415  
G01 X-1.9489 Y0.6545  
G01 X-2.0111 Y0.6545  
G01 X-2.0241 Y0.6415  
G01 X-2.0559 Y0.6415  
G01 X-2.0785 Y0.6641  
G01 X-2.0785 Y0.6959  
G01 X-2.0559 Y0.7185  
G01 X-2.0241 Y0.7185  
G01 X-2.0015 Y0.6959  
G01 X-2.0015 Y0.6855  
G01 X-1.9585 Y0.6855  
G01 X-1.9585 Y0.6959  
G01 X-1.9359 Y0.7185  
G01 X-1.9041 Y0.7185  
G01 X-1.8815 Y0.6959  
G01 X-1.8815 Y0.6855  
G01 X-1.8385 Y0.6855  
G01 X-1.8385 Y0.6959  
G01 X-1.8159 Y0.7185  
G01 X-1.8155 Y0.7185  
G01 X-1.8155 Y0.9395  
G01 X-1.8836 Y0.9395  
G01 X-1.8964 Y0.9395  
G01 X-1.9355 Y0.9786  
G01 X-1.9355 Y0.9914  
G01 X-1.9355 Y1.0636  
G01 X-1.9764 Y1.1045  
G01 X-2.0336 Y1.1045  
G01 X-2.0845 Y1.0536  
G01 X-2.0845 Y1.0364  
G01 X-2.0845 Y1.0236  
G01 X-2.1745 Y0.9336  
G01 X-2.1836 Y0.9245  
G01 X-2.3536 Y0.9245  
G01 X-2.3664 Y0.9245  
G01 X-2.4164 Y0.9745  
G01 X-2.4255 Y0.9836  
G01 X-2.4255 Y1.0736  
G01 X-2.4255 Y1.0864  
G01 X-2.3155 Y1.1964  
G01 X-2.3064 Y1.2055  
G01 X-1.8355 Y1.2055  
G01 X-1.8355 Y1.2336  
G01 X-1.8355 Y1.2464  
G01 X-1.7855 Y1.2964  
G01 X-1.7764 Y1.3055  
G01 X-1.4786 Y1.3055  
G01 X-1.4695 Y1.2964  
G01 X-1.4563 Y1.2832  
G01 X-1.4559 Y1.2835  
G01 X-1.4241 Y1.2835  
G01 X-1.4015 Y1.2609  
G01 X-1.4015 Y1.2291  
G01 X-1.4241 Y1.2065  
G01 X-1.4245 Y1.2065  
G01 X-1.4245 Y1.1899  
G01 X-1.4059 Y1.2085  
G01 X-1.3741 Y1.2085  
G01 X-1.3611 Y1.1955  
G01 X-1.3264 Y1.1955  
G01 X-1.2655 Y1.2564  
G01 X-1.2564 Y1.2655  
G01 X-1.2064 Y1.2655  
G01 X-1.1936 Y1.2655  
G01 X-1.1531 Y1.2251  
G01 X-1.1400 Y1.2305  
G01 X-1.1200 Y1.2305  
G01 X-1.1014 Y1.2228  
G01 X-1.0872 Y1.2086  
G01 X-1.0795 Y1.1900  
G01 X-1.0795 Y1.1755  
G01 X-0.3514 Y1.1755  
G01 X-0.3386 Y1.1755  
G01 X-0.2056 Y1.0425  
G01 X-0.1724 Y1.0425  
G01 X-0.1475 Y1.0176  
G01 X-0.1475 Y0.9824  
G01 X-0.1481 Y0.9818  
G01 X-0.0938 Y0.9305  
G01 X-0.0936 Y0.9305  
G01 X-0.0892 Y0.9261  
G01 X-0.0847 Y0.9219  
G01 X-0.0847 Y0.9216  
G01 X-0.0845 Y0.9214  
G01 X-0.0845 Y0.9152  
G01 X-0.0843 Y0.9090  
G01 X-0.0845 Y0.9088  
G01 X-0.0845 Y0.5986  
G01 X-0.0936 Y0.5895  
G01 X-0.1245 Y0.5586  
G01 X-0.1245 Y0.3664  
G01 X-0.1245 Y0.3536  
G01 X-0.4736 Y0.0045  
G01 X-0.4864 Y0.0045  
G01 X-2.2364 Y0.0045  
G01 X-2.2455 Y0.0136  
G01 X-2.3364 Y0.1045  
G01 X-2.3455 Y0.1136  
G01 X-2.3455 Y0.3436  
G01 X-2.3455 Y0.3564  
G01 X-2.3455 Y0.7736  
G01 X-2.3455 Y0.7864  
G01 X-2.2814 Y0.8505  
G01 X-2.2686 Y0.8505  
G01 X-2.1914 Y0.8505  
G01 X-2.0466 Y0.9953  
G01 X-2.0575 Y1.0062  
G01 X-2.0575 Y1.0538  
G01 X-2.0238 Y1.0875  
G01 X-1.9762 Y1.0875  
G01 X-1.9425 Y1.0538  
G01 X-1.9425 Y1.0062  
G01 X-1.9762 Y0.9725  
G01 X-2.0238 Y0.9725  
G01 X-2.0247 Y0.9734  
G01 X-2.1695 Y0.8286  
G01 X-2.1786 Y0.8195  
G01 X-2.2686 Y0.8195  
G01 X-2.3145 Y0.7736  
G01 X-2.3145 Y0.3655  
G01 X-2.2162 Y0.3655  
G01 X-2.2136 Y0.3718  
G01 X-2.2028 Y0.3826  
G01 X-2.1887 Y0.3885  
G01 X-2.1113 Y0.3885  
G01 X-2.0972 Y0.3826  
G01 X-2.0864 Y0.3718  
G01 X-2.0805 Y0.3577  
G01 X-2.0805 Y0.3423  
G01 X-2.0864 Y0.3282  
G01 X-2.0963 Y0.3182  
G01 X-2.0945 Y0.3164  
G01 X-2.0945 Y0.3036  
G01 X-2.0945 Y0.2799  
G01 X-2.0864 Y0.2718  
G01 X-2.0805 Y0.2577  
G01 X-2.0805 Y0.2423  
G01 X-2.0864 Y0.2282  
G01 X-2.0963 Y0.2182  
G01 X-2.0945 Y0.2164  
G01 X-2.0945 Y0.2036  
G01 X-2.0945 Y0.1799  
G01 X-2.0864 Y0.1718  
G01 X-2.0805 Y0.1577  
G01 X-2.0805 Y0.1423  
G01 X-2.0864 Y0.1282  
G01 X-2.0972 Y0.1174  
G01 X-2.1113 Y0.1115  
G01 X-2.1887 Y0.1115  
G01 X-2.2028 Y0.1174  
G01 X-2.2136 Y0.1282  
G01 X-2.2195 Y0.1423  
G01 X-2.2195 Y0.1577  
G01 X-2.2136 Y0.1718  
G01 X-2.2028 Y0.1826  
G01 X-2.1887 Y0.1885  
G01 X-2.1255 Y0.1885  
G01 X-2.1255 Y0.2036  
G01 X-2.1334 Y0.2115  
G01 X-2.1887 Y0.2115  
G01 X-2.2028 Y0.2174  
G01 X-2.2136 Y0.2282  
G01 X-2.2195 Y0.2423  
G01 X-2.2195 Y0.2577  
G01 X-2.2136 Y0.2718  
G01 X-2.2028 Y0.2826  
G01 X-2.1887 Y0.2885  
G01 X-2.1255 Y0.2885  
G01 X-2.1255 Y0.3036  
G01 X-2.1334 Y0.3115  
G01 X-2.1887 Y0.3115  
G01 X-2.2028 Y0.3174  
G01 X-2.2136 Y0.3282  
G01 X-2.2162 Y0.3345  
G01 X-2.3145 Y0.3345  
G01 X-2.3145 Y0.1264  
G01 X-2.2236 Y0.0355  
G01 X-2.0524 Y0.0355  
G01 X-2.0605 Y0.0436  
G01 X-2.0714 Y0.0545  
G01 X-2.0805 Y0.0636  
G01 X-2.0805 Y0.3720  
G01 X-2.1549 Y0.4245  
G01 X-2.1564 Y0.4245  
G00 Z0.1000  
G00 X-2.3625 Y1.0041  
G01 Z-0.0070 F10    
G01 X-2.3625 Y1.0559  F20    
G01 X-2.3259 Y1.0925  
G01 X-2.2741 Y1.0925  
G01 X-2.2453 Y1.0637  
G01 X-2.1905 Y1.1185  
G01 X-2.1785 Y1.1305  
G01 X-2.1685 Y1.1305  
G01 X-2.1305 Y1.1685  
G01 X-2.1295 Y1.1695  
G01 X-2.2915 Y1.1695  
G01 X-2.3895 Y1.0715  
G01 X-2.3895 Y0.9985  
G01 X-2.3515 Y0.9605  
G01 X-2.1985 Y0.9605  
G01 X-2.1205 Y1.0385  
G01 X-2.1205 Y1.0685  
G01 X-2.1085 Y1.0805  
G01 X-2.0495 Y1.1395  
G01 X-2.1015 Y1.1395  
G01 X-2.1395 Y1.1015  
G01 X-2.1515 Y1.0895  
G01 X-2.1615 Y1.0895  
G01 X-2.2295 Y1.0215  
G01 X-2.2375 Y1.0135  
G01 X-2.2375 Y1.0041  
G01 X-2.2741 Y0.9675  
G01 X-2.3259 Y0.9675  
G01 X-2.3625 Y1.0041  
G00 Z0.1000  
G00 X-1.9025 Y0.2882  
G01 Z-0.0070 F10    
G01 X-1.8897 Y0.2935  F20    
G01 X-1.8155 Y0.2935  
G01 X-1.7969 Y0.3121  
G01 X-1.8103 Y0.3065  
G01 X-1.8897 Y0.3065  
G01 X-1.9056 Y0.3131  
G01 X-1.9095 Y0.3170  
G01 X-1.9095 Y0.2943  
G01 X-1.9025 Y0.2882  
G00 Z0.1000  
G00 X-1.6379 Y0.4646  
G01 Z-0.0070 F10    
G01 X-1.6256 Y0.4769  F20    
G01 X-1.6097 Y0.4835  
G01 X-1.5303 Y0.4835  
G01 X-1.5144 Y0.4769  
G01 X-1.5105 Y0.4730  
G01 X-1.5105 Y0.5070  
G01 X-1.5144 Y0.5031  
G01 X-1.5303 Y0.4965  
G01 X-1.6097 Y0.4965  
G01 X-1.6256 Y0.5031  
G01 X-1.6268 Y0.5042  
G01 X-1.6595 Y0.4715  
G01 X-1.6715 Y0.4595  
G01 X-1.7590 Y0.4595  
G01 X-1.7820 Y0.4365  
G01 X-1.8045 Y0.4365  
G01 X-1.8295 Y0.4115  
G01 X-1.8295 Y0.3935  
G01 X-1.8103 Y0.3935  
G01 X-1.7944 Y0.3869  
G01 X-1.7821 Y0.3746  
G01 X-1.7755 Y0.3587  
G01 X-1.7755 Y0.3413  
G01 X-1.7811 Y0.3279  
G01 X-1.6485 Y0.4605  
G01 X-1.6396 Y0.4605  
G01 X-1.6379 Y0.4646  
G00 Z0.1000  
G00 X-1.8897 Y0.1935  
G01 Z-0.0070 F10    
G01 X-1.8103 Y0.1935  F20    
G01 X-1.7944 Y0.1869  
G01 X-1.7846 Y0.1771  
G01 X-1.7593 Y0.1797  
G01 X-1.6307 Y0.3082  
G01 X-1.6379 Y0.3154  
G01 X-1.6445 Y0.3313  
G01 X-1.6445 Y0.3487  
G01 X-1.6379 Y0.3646  
G01 X-1.6256 Y0.3769  
G01 X-1.6097 Y0.3835  
G01 X-1.5303 Y0.3835  
G01 X-1.5144 Y0.3769  
G01 X-1.5105 Y0.3730  
G01 X-1.5105 Y0.4070  
G01 X-1.5144 Y0.4031  
G01 X-1.5303 Y0.3965  
G01 X-1.6097 Y0.3965  
G01 X-1.6256 Y0.4031  
G01 X-1.6368 Y0.4142  
G01 X-1.7804 Y0.2706  
G01 X-1.7755 Y0.2587  
G01 X-1.7755 Y0.2413  
G01 X-1.7821 Y0.2254  
G01 X-1.7944 Y0.2131  
G01 X-1.8103 Y0.2065  
G01 X-1.8897 Y0.2065  
G01 X-1.9056 Y0.2131  
G01 X-1.9179 Y0.2254  
G01 X-1.9245 Y0.2413  
G01 X-1.9245 Y0.2529  
G01 X-1.9377 Y0.2645  
G01 X-1.9385 Y0.2645  
G01 X-1.9440 Y0.2700  
G01 X-1.9495 Y0.2748  
G01 X-1.9495 Y0.2294  
G01 X-1.9017 Y0.1885  
G01 X-1.8897 Y0.1935  
G00 Z0.1000  
G00 X-2.0525 Y0.4365  
G01 Z-0.0070 F10    
G01 X-2.0515 Y0.4355  F20    
G01 X-2.0283 Y0.4355  
G01 X-2.0292 Y0.4365  
G01 X-2.0525 Y0.4365  
G00 Z0.1000  
G00 X-1.9505 Y0.4490  
G01 Z-0.0070 F10    
G01 X-1.9635 Y0.4620  F20    
G01 X-1.9635 Y0.4980  
G01 X-1.9380 Y0.5235  
G01 X-1.9020 Y0.5235  
G01 X-1.8765 Y0.4980  
G01 X-1.8765 Y0.4620  
G01 X-1.9020 Y0.4365  
G01 X-1.9095 Y0.4365  
G01 X-1.9095 Y0.3830  
G01 X-1.9056 Y0.3869  
G01 X-1.8897 Y0.3935  
G01 X-1.8705 Y0.3935  
G01 X-1.8705 Y0.4285  
G01 X-1.8585 Y0.4405  
G01 X-1.8402 Y0.4587  
G01 X-1.8435 Y0.4620  
G01 X-1.8435 Y0.4980  
G01 X-1.8180 Y0.5235  
G01 X-1.7820 Y0.5235  
G01 X-1.7590 Y0.5005  
G01 X-1.6885 Y0.5005  
G01 X-1.6445 Y0.5445  
G01 X-1.6445 Y0.5487  
G01 X-1.6379 Y0.5646  
G01 X-1.6256 Y0.5769  
G01 X-1.6097 Y0.5835  
G01 X-1.5303 Y0.5835  
G01 X-1.5144 Y0.5769  
G01 X-1.5105 Y0.5730  
G01 X-1.5105 Y0.6070  
G01 X-1.5144 Y0.6031  
G01 X-1.5303 Y0.5965  
G01 X-1.6097 Y0.5965  
G01 X-1.6256 Y0.6031  
G01 X-1.6379 Y0.6154  
G01 X-1.6395 Y0.6193  
G01 X-1.6395 Y0.5715  
G01 X-1.6515 Y0.5595  
G01 X-1.6815 Y0.5295  
G01 X-1.6985 Y0.5295  
G01 X-2.0615 Y0.5295  
G01 X-2.0895 Y0.5015  
G01 X-2.0895 Y0.4735  
G01 X-2.0835 Y0.4675  
G01 X-2.0835 Y0.4980  
G01 X-2.0580 Y0.5235  
G01 X-2.0220 Y0.5235  
G01 X-1.9965 Y0.4980  
G01 X-1.9965 Y0.4620  
G01 X-1.9968 Y0.4617  
G01 X-1.9550 Y0.4140  
G01 X-1.9505 Y0.4095  
G01 X-1.9505 Y0.4490  
G00 Z0.1000  
G00 X-1.8103 Y0.1065  
G01 Z-0.0070 F10    
G01 X-1.8897 Y0.1065  F20    
G01 X-1.9056 Y0.1131  
G01 X-1.9179 Y0.1254  
G01 X-1.9245 Y0.1413  
G01 X-1.9245 Y0.1540  
G01 X-1.9776 Y0.1995  
G01 X-1.9785 Y0.1995  
G01 X-1.9839 Y0.2050  
G01 X-1.9895 Y0.2097  
G01 X-1.9895 Y0.1885  
G01 X-1.9015 Y0.1005  
G01 X-1.4795 Y0.1005  
G01 X-1.5105 Y0.1315  
G01 X-1.5105 Y0.1485  
G01 X-1.5105 Y0.3070  
G01 X-1.5144 Y0.3031  
G01 X-1.5303 Y0.2965  
G01 X-1.5845 Y0.2965  
G01 X-1.7348 Y0.1462  
G01 X-1.7395 Y0.1404  
G01 X-1.7407 Y0.1403  
G01 X-1.7415 Y0.1395  
G01 X-1.7490 Y0.1395  
G01 X-1.7774 Y0.1367  
G01 X-1.7821 Y0.1254  
G01 X-1.7944 Y0.1131  
G01 X-1.8103 Y0.1065  
G00 Z0.1000  
G00 X-0.7603 Y0.5843  
G01 Z-0.0070 F10    
G01 X-0.7628 Y0.5903  F20    
G01 X-0.7652 Y0.5843  
G01 X-0.7775 Y0.5721  
G01 X-0.7795 Y0.5712  
G01 X-0.7795 Y0.5665  
G01 X-0.8755 Y0.4705  
G01 X-0.8535 Y0.4705  
G01 X-0.7500 Y0.5740  
G01 X-0.7603 Y0.5843  
G00 Z0.1000  
G00 X-0.6905 Y0.5735  
G01 Z-0.0070 F10    
G01 X-0.6905 Y0.5803  F20    
G01 X-0.6987 Y0.5721  
G01 X-0.6995 Y0.5718  
G01 X-0.6995 Y0.5665  
G01 X-0.7115 Y0.5545  
G01 X-0.8255 Y0.4405  
G01 X-0.8235 Y0.4405  
G01 X-0.6905 Y0.5735  
G00 Z0.1000  
G00 X-1.2021 Y0.4154  
G01 Z-0.0070 F10    
G01 X-1.2144 Y0.4031  F20    
G01 X-1.2303 Y0.3965  
G01 X-1.3097 Y0.3965  
G01 X-1.3256 Y0.4031  
G01 X-1.3379 Y0.4154  
G01 X-1.3445 Y0.4313  
G01 X-1.3445 Y0.4487  
G01 X-1.3379 Y0.4646  
G01 X-1.3330 Y0.4695  
G01 X-1.3845 Y0.4695  
G01 X-1.3845 Y0.3585  
G01 X-1.3615 Y0.3355  
G01 X-1.3495 Y0.3235  
G01 X-1.3495 Y0.2710  
G01 X-1.3265 Y0.2480  
G01 X-1.3265 Y0.2255  
G01 X-1.3135 Y0.2125  
G01 X-1.3135 Y0.2480  
G01 X-1.2880 Y0.2735  
G01 X-1.2805 Y0.2735  
G01 X-1.2805 Y0.2965  
G01 X-1.3097 Y0.2965  
G01 X-1.3256 Y0.3031  
G01 X-1.3379 Y0.3154  
G01 X-1.3445 Y0.3313  
G01 X-1.3445 Y0.3487  
G01 X-1.3379 Y0.3646  
G01 X-1.3256 Y0.3769  
G01 X-1.3097 Y0.3835  
G01 X-1.2303 Y0.3835  
G01 X-1.2144 Y0.3769  
G01 X-1.2021 Y0.3646  
G01 X-1.1996 Y0.3586  
G01 X-1.1502 Y0.3091  
G01 X-1.1397 Y0.3135  
G01 X-1.0603 Y0.3135  
G01 X-1.0444 Y0.3069  
G01 X-1.0380 Y0.3005  
G01 X-1.0185 Y0.3005  
G01 X-0.9885 Y0.3305  
G01 X-0.9715 Y0.3305  
G01 X-0.9455 Y0.3305  
G01 X-0.9455 Y0.4285  
G01 X-0.9445 Y0.4295  
G01 X-1.1963 Y0.4295  
G01 X-1.2021 Y0.4154  
G00 Z0.1000  
G00 X-0.8493 Y0.3305  
G01 Z-0.0070 F10    
G01 X-0.8556 Y0.3331  F20    
G01 X-0.8679 Y0.3454  
G01 X-0.8745 Y0.3613  
G01 X-0.8745 Y0.3787  
G01 X-0.8679 Y0.3946  
G01 X-0.8630 Y0.3995  
G01 X-0.9045 Y0.3995  
G01 X-0.9045 Y0.3305  
G01 X-0.8493 Y0.3305  
G00 Z0.1000  
G00 X-1.0263 Y0.2595  
G01 Z-0.0070 F10    
G01 X-1.0321 Y0.2454  F20    
G01 X-1.0444 Y0.2331  
G01 X-1.0603 Y0.2265  
G01 X-1.1397 Y0.2265  
G01 X-1.1556 Y0.2331  
G01 X-1.1679 Y0.2454  
G01 X-1.1745 Y0.2613  
G01 X-1.1745 Y0.2755  
G01 X-1.2082 Y0.3092  
G01 X-1.2144 Y0.3031  
G01 X-1.2303 Y0.2965  
G01 X-1.2395 Y0.2965  
G01 X-1.2395 Y0.2610  
G01 X-1.2265 Y0.2480  
G01 X-1.2265 Y0.2120  
G01 X-1.2380 Y0.2005  
G01 X-1.0385 Y0.2005  
G01 X-0.9585 Y0.2805  
G01 X-0.9415 Y0.2805  
G01 X-0.6737 Y0.2805  
G01 X-0.6679 Y0.2946  
G01 X-0.6556 Y0.3069  
G01 X-0.6397 Y0.3135  
G01 X-0.5603 Y0.3135  
G01 X-0.5444 Y0.3069  
G01 X-0.5321 Y0.2946  
G01 X-0.5255 Y0.2787  
G01 X-0.5255 Y0.2613  
G01 X-0.5311 Y0.2479  
G01 X-0.4005 Y0.3785  
G01 X-0.4005 Y0.4015  
G01 X-0.4005 Y0.4185  
G01 X-0.3375 Y0.4815  
G01 X-0.3375 Y0.5185  
G01 X-0.5045 Y0.3515  
G01 X-0.5165 Y0.3395  
G01 X-0.6465 Y0.3395  
G01 X-0.6845 Y0.3015  
G01 X-0.6965 Y0.2895  
G01 X-0.9215 Y0.2895  
G01 X-0.9385 Y0.2895  
G01 X-0.9715 Y0.2895  
G01 X-1.0015 Y0.2595  
G01 X-1.0185 Y0.2595  
G01 X-1.0263 Y0.2595  
G00 Z0.1000  
G00 X-1.2070 Y0.6695  
G01 Z-0.0070 F10    
G01 X-1.2021 Y0.6646  F20    
G01 X-1.1963 Y0.6505  
G01 X-0.9244 Y0.6505  
G01 X-0.9244 Y0.6796  
G01 X-0.9194 Y0.6916  
G01 X-0.9415 Y0.6695  
G01 X-0.9585 Y0.6695  
G01 X-1.2070 Y0.6695  
G00 Z0.1000  
G00 X-1.2144 Y0.6031  
G01 Z-0.0070 F10    
G01 X-1.2303 Y0.5965  F20    
G01 X-1.3097 Y0.5965  
G01 X-1.3231 Y0.6021  
G01 X-1.3045 Y0.5835  
G01 X-1.2303 Y0.5835  
G01 X-1.2144 Y0.5769  
G01 X-1.2021 Y0.5646  
G01 X-1.1955 Y0.5487  
G01 X-1.1955 Y0.5313  
G01 X-1.2021 Y0.5154  
G01 X-1.2070 Y0.5105  
G01 X-0.8935 Y0.5105  
G01 X-0.8293 Y0.5746  
G01 X-0.8390 Y0.5843  
G01 X-0.8415 Y0.5903  
G01 X-0.8440 Y0.5843  
G01 X-0.8562 Y0.5721  
G01 X-0.8722 Y0.5654  
G01 X-0.8895 Y0.5654  
G01 X-0.9055 Y0.5721  
G01 X-0.9177 Y0.5843  
G01 X-0.9244 Y0.6003  
G01 X-0.9244 Y0.6095  
G01 X-1.2080 Y0.6095  
G01 X-1.2144 Y0.6031  
G00 Z0.1000  
G00 X-0.8562 Y0.7078  
G01 Z-0.0070 F10    
G01 X-0.8440 Y0.6956  F20    
G01 X-0.8415 Y0.6896  
G01 X-0.8390 Y0.6956  
G01 X-0.8268 Y0.7078  
G01 X-0.8108 Y0.7144  
G01 X-0.7935 Y0.7144  
G01 X-0.7775 Y0.7078  
G01 X-0.7652 Y0.6956  
G01 X-0.7628 Y0.6896  
G01 X-0.7603 Y0.6956  
G01 X-0.7480 Y0.7078  
G01 X-0.7320 Y0.7144  
G01 X-0.7234 Y0.7144  
G01 X-0.7545 Y0.7456  
G01 X-0.7714 Y0.7456  
G01 X-0.7874 Y0.7522  
G01 X-0.7996 Y0.7644  
G01 X-0.8021 Y0.7704  
G01 X-0.8046 Y0.7644  
G01 X-0.8169 Y0.7522  
G01 X-0.8245 Y0.7490  
G01 X-0.8245 Y0.7465  
G01 X-0.8365 Y0.7345  
G01 X-0.8612 Y0.7099  
G01 X-0.8562 Y0.7078  
G00 Z0.1000  
G00 X-1.3395 Y0.6193  
G01 Z-0.0070 F10    
G01 X-1.3395 Y0.6185  F20    
G01 X-1.3389 Y0.6179  
G01 X-1.3395 Y0.6193  
G00 Z0.1000  
G00 X-1.3465 Y1.1520  
G01 Z-0.0070 F10    
G01 X-1.3580 Y1.1405  F20    
G01 X-1.3185 Y1.1405  
G01 X-1.2879 Y1.1711  
G01 X-1.2868 Y1.1745  
G01 X-1.2855 Y1.1752  
G01 X-1.2855 Y1.1855  
G01 X-1.3115 Y1.1595  
G01 X-1.3285 Y1.1595  
G01 X-1.3465 Y1.1595  
G01 X-1.3465 Y1.1520  
G00 Z0.1000  
G00 X-0.1425 Y0.6197  
G01 Z-0.0070 F10    
G01 X-0.1425 Y0.5915  F20    
G01 X-0.1205 Y0.6135  
G01 X-0.1205 Y0.6605  
G01 X-0.1215 Y0.6595  
G01 X-0.1232 Y0.6595  
G01 X-0.1565 Y0.6345  
G01 X-0.1569 Y0.6341  
G01 X-0.1425 Y0.6197  
G00 Z0.1000  
G00 X-0.1215 Y0.8405  
G01 Z-0.0070 F10    
G01 X-0.1205 Y0.8395  F20    
G01 X-0.1205 Y0.9062  
G01 X-0.1700 Y0.9529  
G01 X-0.1703 Y0.9525  
G01 X-0.2097 Y0.9525  
G01 X-0.2375 Y0.9803  
G01 X-0.2375 Y1.0197  
G01 X-0.2356 Y1.0216  
G01 X-0.3535 Y1.1395  
G01 X-1.0867 Y1.1395  
G01 X-1.0916 Y1.1379  
G01 X-1.0930 Y1.1386  
G01 X-1.0986 Y1.1329  
G01 X-1.1045 Y1.1305  
G01 X-0.4915 Y1.1305  
G01 X-0.4795 Y1.1185  
G01 X-0.4045 Y1.0435  
G01 X-0.3920 Y1.0435  
G01 X-0.3665 Y1.0180  
G01 X-0.3665 Y1.0105  
G01 X-0.3375 Y1.0105  
G01 X-0.3375 Y1.0197  
G01 X-0.3097 Y1.0475  
G01 X-0.2703 Y1.0475  
G01 X-0.2425 Y1.0197  
G01 X-0.2425 Y0.9803  
G01 X-0.2523 Y0.9705  
G01 X-0.2485 Y0.9705  
G01 X-0.2315 Y0.9705  
G01 X-0.2085 Y0.9475  
G01 X-0.1703 Y0.9475  
G01 X-0.1425 Y0.9197  
G01 X-0.1425 Y0.8803  
G01 X-0.1569 Y0.8659  
G01 X-0.1565 Y0.8655  
G01 X-0.1232 Y0.8405  
G01 X-0.1215 Y0.8405  
G00 Z0.1000  
G00 X-0.3097 Y0.8475  
G01 Z-0.0070 F10    
G01 X-0.2703 Y0.8475  F20    
G01 X-0.2425 Y0.8197  
G01 X-0.2425 Y0.7803  
G01 X-0.2523 Y0.7705  
G01 X-0.2485 Y0.7705  
G01 X-0.2375 Y0.7815  
G01 X-0.2375 Y0.8197  
G01 X-0.2277 Y0.8295  
G01 X-0.2315 Y0.8295  
G01 X-0.2485 Y0.8295  
G01 X-0.2715 Y0.8525  
G01 X-0.3097 Y0.8525  
G01 X-0.3375 Y0.8803  
G01 X-0.3375 Y0.9197  
G01 X-0.3277 Y0.9295  
G01 X-0.4273 Y0.9295  
G01 X-0.3312 Y0.8260  
G01 X-0.3097 Y0.8475  
G00 Z0.1000  
G00 X-0.2277 Y0.8705  
G01 Z-0.0070 F10    
G01 X-0.2375 Y0.8803  F20    
G01 X-0.2375 Y0.9185  
G01 X-0.2485 Y0.9295  
G01 X-0.2523 Y0.9295  
G01 X-0.2425 Y0.9197  
G01 X-0.2425 Y0.8815  
G01 X-0.2315 Y0.8705  
G01 X-0.2277 Y0.8705  
G00 Z0.1000  
G00 X-0.2425 Y0.6197  
G01 Z-0.0070 F10    
G01 X-0.2425 Y0.5803  F20    
G01 X-0.2523 Y0.5705  
G01 X-0.2277 Y0.5705  
G01 X-0.2375 Y0.5803  
G01 X-0.2375 Y0.6197  
G01 X-0.2277 Y0.6295  
G01 X-0.2523 Y0.6295  
G01 X-0.2425 Y0.6197  
G00 Z0.1000  
G00 X-0.7255 Y0.3613  
G01 Z-0.0070 F10    
G01 X-0.7321 Y0.3454  F20    
G01 X-0.7444 Y0.3331  
G01 X-0.7507 Y0.3305  
G01 X-0.7135 Y0.3305  
G01 X-0.6635 Y0.3805  
G01 X-0.6465 Y0.3805  
G01 X-0.5335 Y0.3805  
G01 X-0.3435 Y0.5705  
G01 X-0.3277 Y0.5705  
G01 X-0.3375 Y0.5803  
G01 X-0.3375 Y0.6197  
G01 X-0.3277 Y0.6295  
G01 X-0.3315 Y0.6295  
G01 X-0.4595 Y0.5015  
G01 X-0.4595 Y0.4965  
G01 X-0.5345 Y0.4215  
G01 X-0.5465 Y0.4095  
G01 X-0.6865 Y0.4095  
G01 X-0.7255 Y0.3705  
G01 X-0.7255 Y0.3613  
G00 Z0.1000  
G00 X-0.3375 Y0.6803  
G01 Z-0.0070 F10    
G01 X-0.3375 Y0.7197  F20    
G01 X-0.3277 Y0.7295  
G01 X-0.3415 Y0.7295  
G01 X-0.3585 Y0.7295  
G01 X-0.5085 Y0.8795  
G01 X-0.7297 Y0.8795  
G01 X-0.7259 Y0.8757  
G01 X-0.7193 Y0.8597  
G01 X-0.7193 Y0.7804  
G01 X-0.7228 Y0.7718  
G01 X-0.6495 Y0.6985  
G01 X-0.6495 Y0.6815  
G01 X-0.6495 Y0.5735  
G01 X-0.6495 Y0.5565  
G01 X-0.7925 Y0.4135  
G01 X-0.7603 Y0.4135  
G01 X-0.7463 Y0.4077  
G01 X-0.7035 Y0.4505  
G01 X-0.6865 Y0.4505  
G01 X-0.5635 Y0.4505  
G01 X-0.5005 Y0.5135  
G01 X-0.5005 Y0.5185  
G01 X-0.4885 Y0.5305  
G01 X-0.3485 Y0.6705  
G01 X-0.3315 Y0.6705  
G01 X-0.3277 Y0.6705  
G01 X-0.3375 Y0.6803  
G00 Z0.1000  
G00 X-0.1703 Y0.7525  
G01 Z-0.0070 F10    
G01 X-0.2085 Y0.7525  F20    
G01 X-0.2195 Y0.7415  
G01 X-0.2315 Y0.7295  
G01 X-0.2523 Y0.7295  
G01 X-0.2425 Y0.7197  
G01 X-0.2425 Y0.6803  
G01 X-0.2523 Y0.6705  
G01 X-0.2277 Y0.6705  
G01 X-0.2375 Y0.6803  
G01 X-0.2375 Y0.7197  
G01 X-0.2097 Y0.7475  
G01 X-0.1703 Y0.7475  
G01 X-0.1505 Y0.7277  
G01 X-0.1505 Y0.7723  
G01 X-0.1703 Y0.7525  
G00 Z0.1000  
G00 X-0.4727 Y0.9608  
G01 Z-0.0070 F10    
G01 X-0.4697 Y0.9607  F20    
G01 X-0.4787 Y0.9697  
G01 X-0.4880 Y0.9605  
G01 X-0.4730 Y0.9605  
G01 X-0.4727 Y0.9608  
G00 Z0.1000  
G00 X-0.4795 Y0.9085  
G01 Z-0.0070 F10    
G01 X-0.3415 Y0.7705  F20    
G01 X-0.3277 Y0.7705  
G01 X-0.3367 Y0.7795  
G01 X-0.3435 Y0.7795  
G01 X-0.3438 Y0.7798  
G01 X-0.3442 Y0.7798  
G01 X-0.3498 Y0.7858  
G01 X-0.3555 Y0.7915  
G01 X-0.3555 Y0.7919  
G01 X-0.4739 Y0.9195  
G01 X-0.4905 Y0.9195  
G01 X-0.4795 Y0.9085  
G00 Z0.1000  
G00 X-1.5169 Y1.0779  
G01 Z-0.0070 F10    
G01 X-1.5185 Y1.0795  F20    
G01 X-1.5207 Y1.0795  
G01 X-1.5169 Y1.0779  
G00 Z0.1000  
G00 X-1.5335 Y1.1520  
G01 Z-0.0070 F10    
G01 X-1.5335 Y1.1795  F20    
G01 X-1.7067 Y1.1795  
G01 X-1.7116 Y1.1779  
G01 X-1.7130 Y1.1786  
G01 X-1.7186 Y1.1729  
G01 X-1.7227 Y1.1712  
G01 X-1.6945 Y1.1430  
G01 X-1.6945 Y1.0970  
G01 X-1.7270 Y1.0645  
G01 X-1.7730 Y1.0645  
G01 X-1.8055 Y1.0970  
G01 X-1.8055 Y1.1430  
G01 X-1.8037 Y1.1447  
G01 X-1.8285 Y1.1695  
G01 X-1.9005 Y1.1695  
G01 X-1.7715 Y1.0405  
G01 X-1.7285 Y1.0405  
G01 X-1.6485 Y1.1205  
G01 X-1.6315 Y1.1205  
G01 X-1.5095 Y1.1205  
G01 X-1.5105 Y1.1215  
G01 X-1.5105 Y1.1290  
G01 X-1.5335 Y1.1520  
G00 Z0.1000  
G00 X-1.3379 Y1.0154  
G01 Z-0.0070 F10    
G01 X-1.3445 Y1.0313  F20    
G01 X-1.3445 Y1.0487  
G01 X-1.3379 Y1.0646  
G01 X-1.3256 Y1.0769  
G01 X-1.3097 Y1.0835  
G01 X-1.2303 Y1.0835  
G01 X-1.2144 Y1.0769  
G01 X-1.2080 Y1.0705  
G01 X-0.4985 Y1.0705  
G01 X-0.4895 Y1.0705  
G01 X-0.5085 Y1.0895  
G01 X-1.1515 Y1.0895  
G01 X-1.1685 Y1.0895  
G01 X-1.2052 Y1.1263  
G01 X-1.2070 Y1.1245  
G01 X-1.2530 Y1.1245  
G01 X-1.2647 Y1.1363  
G01 X-1.2895 Y1.1115  
G01 X-1.3015 Y1.0995  
G01 X-1.4115 Y1.0995  
G01 X-1.4285 Y1.0995  
G01 X-1.4485 Y1.1195  
G01 X-1.4605 Y1.1315  
G01 X-1.4605 Y1.1380  
G01 X-1.4647 Y1.1337  
G01 X-1.3415 Y1.0105  
G01 X-1.3330 Y1.0105  
G01 X-1.3379 Y1.0154  
G00 Z0.1000  
G00 X-1.3545 Y0.7794  
G01 Z-0.0070 F10    
G01 X-1.3376 Y0.7649  F20    
G01 X-1.3330 Y0.7695  
G01 X-1.3385 Y0.7695  
G01 X-1.3505 Y0.7815  
G01 X-1.3545 Y0.7855  
G01 X-1.3545 Y0.7794  
G00 Z0.1000  
G00 X-0.9637 Y0.8597  
G01 Z-0.0070 F10    
G01 X-0.9571 Y0.8757  F20    
G01 X-0.9533 Y0.8795  
G01 X-1.1415 Y0.8795  
G01 X-1.1895 Y0.8315  
G01 X-1.1996 Y0.8214  
G01 X-1.2021 Y0.8154  
G01 X-1.2070 Y0.8105  
G01 X-1.2035 Y0.8105  
G01 X-1.1855 Y0.8285  
G01 X-1.1735 Y0.8405  
G01 X-0.9637 Y0.8405  
G01 X-0.9637 Y0.8597  
G00 Z0.1000  
G00 X-1.2021 Y0.7646  
G01 Z-0.0070 F10    
G01 X-1.1955 Y0.7487  F20    
G01 X-1.1955 Y0.7313  
G01 X-1.2021 Y0.7154  
G01 X-1.2070 Y0.7105  
G01 X-0.9585 Y0.7105  
G01 X-0.9355 Y0.7335  
G01 X-0.9235 Y0.7455  
G01 X-0.8835 Y0.7455  
G01 X-0.8715 Y0.7575  
G01 X-0.8784 Y0.7644  
G01 X-0.8809 Y0.7704  
G01 X-0.8834 Y0.7644  
G01 X-0.8956 Y0.7522  
G01 X-0.9116 Y0.7456  
G01 X-0.9289 Y0.7456  
G01 X-0.9449 Y0.7522  
G01 X-0.9571 Y0.7644  
G01 X-0.9637 Y0.7804  
G01 X-0.9637 Y0.7995  
G01 X-1.1565 Y0.7995  
G01 X-1.1865 Y0.7695  
G01 X-1.2035 Y0.7695  
G01 X-1.2070 Y0.7695  
G01 X-1.2021 Y0.7646  
G00 Z0.1000  
G00 X-1.4595 Y1.0705  
G01 Z-0.0070 F10    
G01 X-1.4595 Y1.0615  F20    
G01 X-1.4595 Y1.0482  
G01 X-1.3655 Y0.9497  
G01 X-1.3655 Y0.9765  
G01 X-1.4595 Y1.0705  
G00 Z0.1000  
G00 X-1.2303 Y0.8965  
G01 Z-0.0070 F10    
G01 X-1.3097 Y0.8965  F20    
G01 X-1.3245 Y0.9027  
G01 X-1.3245 Y0.8773  
G01 X-1.3097 Y0.8835  
G01 X-1.2303 Y0.8835  
G01 X-1.2144 Y0.8769  
G01 X-1.2082 Y0.8707  
G01 X-1.1595 Y0.9195  
G01 X-1.2004 Y0.9195  
G01 X-1.2021 Y0.9154  
G01 X-1.2144 Y0.9031  
G01 X-1.2303 Y0.8965  
G00 Z0.1000  
G00 X-1.2021 Y0.9646  
G01 Z-0.0070 F10    
G01 X-1.2004 Y0.9605  F20    
G01 X-0.5320 Y0.9605  
G01 X-0.5410 Y0.9695  
G01 X-1.2070 Y0.9695  
G01 X-1.2021 Y0.9646  
G00 Z0.1000  
G00 X-0.5535 Y1.0180  
G01 Z-0.0070 F10    
G01 X-0.5420 Y1.0295  F20    
G01 X-1.1963 Y1.0295  
G01 X-1.2021 Y1.0154  
G01 X-1.2070 Y1.0105  
G01 X-0.5535 Y1.0105  
G01 X-0.5535 Y1.0180  
G00 Z0.1000  
G00 X-1.4720 Y1.2135  
G01 Z-0.0070 F10    
G01 X-1.4605 Y1.2020  F20    
G01 X-1.4605 Y1.2040  
G01 X-1.4835 Y1.2270  
G01 X-1.4835 Y1.2595  
G01 X-1.4935 Y1.2695  
G01 X-1.7245 Y1.2695  
G01 X-1.7186 Y1.2670  
G01 X-1.7029 Y1.2514  
G01 X-1.6945 Y1.2310  
G01 X-1.6945 Y1.2205  
G01 X-1.5115 Y1.2205  
G01 X-1.5045 Y1.2135  
G01 X-1.4720 Y1.2135  
G00 Z0.1000  
G00 X-1.9605 Y1.1395  
G01 Z-0.0070 F10    
G01 X-1.9495 Y1.1285  F20    
G01 X-1.8995 Y1.0785  
G01 X-1.8995 Y1.0615  
G01 X-1.8995 Y0.9935  
G01 X-1.8815 Y0.9755  
G01 X-1.7915 Y0.9755  
G01 X-1.7385 Y0.9755  
G01 X-1.7145 Y0.9995  
G01 X-1.7715 Y0.9995  
G01 X-1.7885 Y0.9995  
G01 X-1.9285 Y1.1395  
G01 X-1.9605 Y1.1395  
G00 Z0.1000  
G00 X-1.6565 Y1.0405  
G01 Z-0.0070 F10    
G01 X-1.6445 Y1.0405  F20    
G01 X-1.6445 Y1.0487  
G01 X-1.6379 Y1.0646  
G01 X-1.6256 Y1.0769  
G01 X-1.6193 Y1.0795  
G01 X-1.6315 Y1.0795  
G01 X-1.6705 Y1.0405  
G01 X-1.6565 Y1.0405  
G00 Z0.1000  
G00 X-1.5005 Y1.0607  
G01 Z-0.0070 F10    
G01 X-1.5005 Y1.0615  F20    
G01 X-1.5011 Y1.0621  
G01 X-1.5005 Y1.0607  
G00 Z0.1000  
G00 X-1.3845 Y0.5535  
G01 Z-0.0070 F10    
G01 X-1.3795 Y0.5485  F20    
G01 X-1.3795 Y0.5315  
G01 X-1.3845 Y0.5265  
G01 X-1.3845 Y0.5105  
G01 X-1.3330 Y0.5105  
G01 X-1.3379 Y0.5154  
G01 X-1.3445 Y0.5313  
G01 X-1.3445 Y0.5487  
G01 X-1.3396 Y0.5606  
G01 X-1.3805 Y0.6015  
G01 X-1.3805 Y0.6185  
G01 X-1.3805 Y0.6685  
G01 X-1.3685 Y0.6805  
G01 X-1.3385 Y0.7105  
G01 X-1.3330 Y0.7105  
G01 X-1.3379 Y0.7154  
G01 X-1.3396 Y0.7195  
G01 X-1.3469 Y0.7189  
G01 X-1.3476 Y0.7195  
G01 X-1.3485 Y0.7195  
G01 X-1.3539 Y0.7249  
G01 X-1.3826 Y0.7495  
G01 X-1.3835 Y0.7495  
G01 X-1.3845 Y0.7505  
G01 X-1.3845 Y0.5535  
G00 Z0.1000  
G00 X-0.8046 Y0.8757  
G01 Z-0.0070 F10    
G01 X-0.8021 Y0.8697  F20    
G01 X-0.7996 Y0.8757  
G01 X-0.7958 Y0.8795  
G01 X-0.8084 Y0.8795  
G01 X-0.8046 Y0.8757  
G00 Z0.1000  
G00 X-0.8834 Y0.8757  
G01 Z-0.0070 F10    
G01 X-0.8809 Y0.8697  F20    
G01 X-0.8784 Y0.8757  
G01 X-0.8746 Y0.8795  
G01 X-0.8872 Y0.8795  
G01 X-0.8834 Y0.8757  
G00 Z0.1000  
G00 X-0.2097 Y0.4475  
G01 Z-0.0070 F10    
G01 X-0.1703 Y0.4475  F20    
G01 X-0.1605 Y0.4377  
G01 X-0.1605 Y0.4623  
G01 X-0.1703 Y0.4525  
G01 X-0.2085 Y0.4525  
G01 X-0.2195 Y0.4415  
G01 X-0.2195 Y0.4377  
G01 X-0.2097 Y0.4475  
G00 Z0.1000  
G00 X-0.3375 Y0.3815  
G01 Z-0.0070 F10    
G01 X-0.3375 Y0.4197  F20    
G01 X-0.3097 Y0.4475  
G01 X-0.2703 Y0.4475  
G01 X-0.2605 Y0.4377  
G01 X-0.2605 Y0.4415  
G01 X-0.2605 Y0.4585  
G01 X-0.2375 Y0.4815  
G01 X-0.2375 Y0.5197  
G01 X-0.2277 Y0.5295  
G01 X-0.2523 Y0.5295  
G01 X-0.2425 Y0.5197  
G01 X-0.2425 Y0.4803  
G01 X-0.2703 Y0.4525  
G01 X-0.3085 Y0.4525  
G01 X-0.3595 Y0.4015  
G01 X-0.3595 Y0.3615  
G01 X-0.3715 Y0.3495  
G01 X-0.5895 Y0.1315  
G01 X-0.5905 Y0.1305  
G01 X-0.5885 Y0.1305  
G01 X-0.3375 Y0.3815  
G00 Z0.1000  
G00 X-1.5021 Y0.8646  
G01 Z-0.0070 F10    
G01 X-1.5004 Y0.8606  F20    
G01 X-1.4993 Y0.8605  
G01 X-1.4915 Y0.8605  
G01 X-1.4910 Y0.8599  
G01 X-1.4902 Y0.8599  
G01 X-1.4990 Y0.8695  
G01 X-1.5070 Y0.8695  
G01 X-1.5021 Y0.8646  
G00 Z0.1000  
G00 X-1.5070 Y0.8105  
G01 Z-0.0070 F10    
G01 X-1.5048 Y0.8105  F20    
G01 X-1.5025 Y0.8117  
G01 X-1.5040 Y0.8135  
G01 X-1.5070 Y0.8105  
G00 Z0.1000  
G00 X-1.4395 Y0.1305  
G01 Z-0.0070 F10    
G01 X-1.4405 Y0.1315  F20    
G01 X-1.4695 Y0.1605  
G01 X-1.4695 Y0.1485  
G01 X-1.4515 Y0.1305  
G01 X-1.4395 Y0.1305  
G00 Z0.1000  
G00 X-1.4655 Y0.6135  
G01 Z-0.0070 F10    
G01 X-1.4555 Y0.6268  F20    
G01 X-1.4555 Y0.6294  
G01 X-1.4695 Y0.6126  
G01 X-1.4695 Y0.6095  
G01 X-1.4655 Y0.6135  
G00 Z0.1000  
G00 X-1.4894 Y0.8590  
G01 Z-0.0070 F10    
G01 X-1.4850 Y0.8540  F20    
G01 X-1.4825 Y0.8515  
G01 X-1.4894 Y0.8590  
G00 Z0.1000  
G00 X-1.4555 Y0.8220  
G01 Z-0.0070 F10    
G01 X-1.4795 Y0.8482  F20    
G01 X-1.4795 Y0.8477  
G01 X-1.4555 Y0.8203  
G01 X-1.4555 Y0.8220  
G00 Z0.1000  
G00 X-0.5435 Y0.1005  
G01 Z-0.0070 F10    
G01 X-0.2915 Y0.3525  F20    
G01 X-0.3085 Y0.3525  
G01 X-0.5595 Y0.1015  
G01 X-0.5605 Y0.1005  
G01 X-0.5435 Y0.1005  
G00 Z0.1000  
G00 X-1.6379 Y0.6646  
G01 Z-0.0070 F10    
G01 X-1.6256 Y0.6769  F20    
G01 X-1.6097 Y0.6835  
G01 X-1.5303 Y0.6835  
G01 X-1.5155 Y0.6774  
G01 X-1.5155 Y0.7027  
G01 X-1.5303 Y0.6965  
G01 X-1.6097 Y0.6965  
G01 X-1.6256 Y0.7031  
G01 X-1.6368 Y0.7142  
G01 X-1.6395 Y0.7115  
G01 X-1.6395 Y0.6607  
G01 X-1.6379 Y0.6646  
G00 Z0.1000  
G00 X-0.4885 Y0.0405  
G01 Z-0.0070 F10    
G01 X-0.1765 Y0.3525  F20    
G01 X-0.1785 Y0.3525  
G01 X-0.4895 Y0.0415  
G01 X-0.4905 Y0.0405  
G01 X-0.4885 Y0.0405  
G00 Z0.1000  
G00 X-0.5469 Y0.2321  
G01 Z-0.0070 F10    
G01 X-0.5603 Y0.2265  F20    
G01 X-0.6397 Y0.2265  
G01 X-0.6556 Y0.2331  
G01 X-0.6620 Y0.2395  
G01 X-0.9415 Y0.2395  
G01 X-1.0095 Y0.1715  
G01 X-1.0205 Y0.1605  
G01 X-0.6185 Y0.1605  
G01 X-0.5469 Y0.2321  
G00 Z0.1000  
G00 X-1.3487 Y0.1897  
G01 Z-0.0070 F10    
G01 X-1.3520 Y0.1865  F20    
G01 X-1.3880 Y0.1865  
G01 X-1.4135 Y0.2120  
G01 X-1.4135 Y0.2480  
G01 X-1.3905 Y0.2710  
G01 X-1.3905 Y0.3065  
G01 X-1.4255 Y0.3415  
G01 X-1.4255 Y0.3585  
G01 X-1.4255 Y0.4985  
G01 X-1.4255 Y0.5265  
G01 X-1.4255 Y0.5315  
G01 X-1.4255 Y0.5985  
G01 X-1.4295 Y0.5932  
G01 X-1.4295 Y0.1785  
G01 X-1.4115 Y0.1605  
G01 X-1.3195 Y0.1605  
G01 X-1.3487 Y0.1897  
G00 Z0.1000  
G00 X-1.6985 Y0.5705  
G01 Z-0.0070 F10    
G01 X-1.6805 Y0.5885  F20    
G01 X-1.6805 Y0.7115  
G01 X-1.6805 Y0.7285  
G01 X-1.6655 Y0.7435  
G01 X-1.6535 Y0.7555  
G01 X-1.6417 Y0.7555  
G01 X-1.6379 Y0.7646  
G01 X-1.6330 Y0.7695  
G01 X-1.6385 Y0.7695  
G01 X-1.6585 Y0.7895  
G01 X-1.6705 Y0.8015  
G01 X-1.6705 Y0.8515  
G01 X-1.6705 Y0.8685  
G01 X-1.6405 Y0.8985  
G01 X-1.6307 Y0.9082  
G01 X-1.6379 Y0.9154  
G01 X-1.6396 Y0.9195  
G01 X-1.6715 Y0.9195  
G01 X-1.6895 Y0.9015  
G01 X-1.6895 Y0.6385  
G01 X-1.6895 Y0.6215  
G01 X-1.7295 Y0.5815  
G01 X-1.7405 Y0.5705  
G01 X-1.6985 Y0.5705  
G00 Z0.1000  
G00 X-2.1295 Y0.5195  
G01 Z-0.0070 F10    
G01 X-2.1185 Y0.5305  F20    
G01 X-2.1185 Y0.5305  
G01 X-2.0905 Y0.5585  
G01 X-2.0795 Y0.5695  
G01 X-2.0815 Y0.5695  
G01 X-2.1295 Y0.5215  
G01 X-2.1295 Y0.5195  
G00 Z0.1000  
G00 X-2.0365 Y0.0705  
G01 Z-0.0070 F10    
G01 X-1.9295 Y0.0705  F20    
G01 X-1.9305 Y0.0715  
G01 X-2.0185 Y0.1595  
G01 X-2.0305 Y0.1715  
G01 X-2.0305 Y0.3865  
G01 X-2.0385 Y0.3945  
G01 X-2.0500 Y0.3945  
G01 X-2.0462 Y0.3919  
G01 X-2.0459 Y0.3899  
G01 X-2.0445 Y0.3885  
G01 X-2.0445 Y0.3818  
G01 X-2.0434 Y0.3751  
G01 X-2.0445 Y0.3735  
G01 X-2.0445 Y0.0785  
G01 X-2.0365 Y0.0705  
G00 Z0.1000  
G00 X-2.0944 Y0.1131  
G01 Z-0.0070 F10    
G01 X-2.1103 Y0.1065  F20    
G01 X-2.1897 Y0.1065  
G01 X-2.2056 Y0.1131  
G01 X-2.2179 Y0.1254  
G01 X-2.2245 Y0.1413  
G01 X-2.2245 Y0.1587  
G01 X-2.2179 Y0.1746  
G01 X-2.2056 Y0.1869  
G01 X-2.1897 Y0.1935  
G01 X-2.1305 Y0.1935  
G01 X-2.1305 Y0.2015  
G01 X-2.1355 Y0.2065  
G01 X-2.1897 Y0.2065  
G01 X-2.2056 Y0.2131  
G01 X-2.2179 Y0.2254  
G01 X-2.2245 Y0.2413  
G01 X-2.2245 Y0.2587  
G01 X-2.2179 Y0.2746  
G01 X-2.2056 Y0.2869  
G01 X-2.1897 Y0.2935  
G01 X-2.1305 Y0.2935  
G01 X-2.1305 Y0.3015  
G01 X-2.1355 Y0.3065  
G01 X-2.1897 Y0.3065  
G01 X-2.2056 Y0.3131  
G01 X-2.2179 Y0.3254  
G01 X-2.2196 Y0.3295  
G01 X-2.3095 Y0.3295  
G01 X-2.3095 Y0.1285  
G01 X-2.2215 Y0.0405  
G01 X-2.0645 Y0.0405  
G01 X-2.0655 Y0.0415  
G01 X-2.0735 Y0.0495  
G01 X-2.0855 Y0.0615  
G01 X-2.0855 Y0.1220  
G01 X-2.0944 Y0.1131  
G00 Z0.1000  
G00 X-2.0895 Y0.2180  
G01 Z-0.0070 F10    
G01 X-2.0895 Y0.2015  F20    
G01 X-2.0895 Y0.1820  
G01 X-2.0855 Y0.1780  
G01 X-2.0855 Y0.2220  
G01 X-2.0895 Y0.2180  
G00 Z0.1000  
G00 X-2.0895 Y0.3180  
G01 Z-0.0070 F10    
G01 X-2.0895 Y0.3015  F20    
G01 X-2.0895 Y0.2820  
G01 X-2.0855 Y0.2780  
G01 X-2.0855 Y0.3220  
G01 X-2.0895 Y0.3180  
G00 Z0.1000  
G00 X-1.7005 Y0.9485  
G01 Z-0.0070 F10    
G01 X-1.6885 Y0.9605  F20    
G01 X-1.6396 Y0.9605  
G01 X-1.6379 Y0.9646  
G01 X-1.6256 Y0.9769  
G01 X-1.6097 Y0.9835  
G01 X-1.5303 Y0.9835  
G01 X-1.5144 Y0.9769  
G01 X-1.5021 Y0.9646  
G01 X-1.4955 Y0.9487  
G01 X-1.4955 Y0.9313  
G01 X-1.5021 Y0.9154  
G01 X-1.5070 Y0.9105  
G01 X-1.4980 Y0.9105  
G01 X-1.4976 Y0.9108  
G01 X-1.4896 Y0.9105  
G01 X-1.4815 Y0.9105  
G01 X-1.4811 Y0.9101  
G01 X-1.4806 Y0.9101  
G01 X-1.4752 Y0.9042  
G01 X-1.4695 Y0.8985  
G01 X-1.4695 Y0.8980  
G01 X-1.4255 Y0.8500  
G01 X-1.4255 Y0.9018  
G01 X-1.5188 Y0.9995  
G01 X-1.5231 Y0.9995  
G01 X-1.5303 Y0.9965  
G01 X-1.6097 Y0.9965  
G01 X-1.6169 Y0.9995  
G01 X-1.6565 Y0.9995  
G01 X-1.7095 Y0.9465  
G01 X-1.7215 Y0.9345  
G01 X-1.7795 Y0.9345  
G01 X-1.7795 Y0.7210  
G01 X-1.7565 Y0.6980  
G01 X-1.7565 Y0.6620  
G01 X-1.7820 Y0.6365  
G01 X-1.8180 Y0.6365  
G01 X-1.8310 Y0.6495  
G01 X-1.8890 Y0.6495  
G01 X-1.9020 Y0.6365  
G01 X-1.9380 Y0.6365  
G01 X-1.9510 Y0.6495  
G01 X-2.0090 Y0.6495  
G01 X-2.0220 Y0.6365  
G01 X-2.0580 Y0.6365  
G01 X-2.0835 Y0.6620  
G01 X-2.0835 Y0.6980  
G01 X-2.0580 Y0.7235  
G01 X-2.0220 Y0.7235  
G01 X-1.9965 Y0.6980  
G01 X-1.9965 Y0.6905  
G01 X-1.9635 Y0.6905  
G01 X-1.9635 Y0.6980  
G01 X-1.9380 Y0.7235  
G01 X-1.9020 Y0.7235  
G01 X-1.8765 Y0.6980  
G01 X-1.8765 Y0.6905  
G01 X-1.8435 Y0.6905  
G01 X-1.8435 Y0.6980  
G01 X-1.8205 Y0.7210  
G01 X-1.8205 Y0.9345  
G01 X-1.8815 Y0.9345  
G01 X-1.8985 Y0.9345  
G01 X-1.9405 Y0.9765  
G01 X-1.9405 Y0.9935  
G01 X-1.9405 Y1.0011  
G01 X-1.9741 Y0.9675  
G01 X-2.0235 Y0.9675  
G01 X-2.1645 Y0.8265  
G01 X-2.1765 Y0.8145  
G01 X-2.2665 Y0.8145  
G01 X-2.3095 Y0.7715  
G01 X-2.3095 Y0.3705  
G01 X-2.2196 Y0.3705  
G01 X-2.2179 Y0.3746  
G01 X-2.2056 Y0.3869  
G01 X-2.1897 Y0.3935  
G01 X-2.1197 Y0.3935  
G01 X-2.1565 Y0.4195  
G01 X-2.1585 Y0.4195  
G01 X-2.1632 Y0.4243  
G01 X-2.1688 Y0.4281  
G01 X-2.1691 Y0.4301  
