(.../src/pcbgcode.repo/pcb-gcode.ulp)
(Copyright 2005 - 2012 by John Johnson)
(See readme.txt for licensing terms.)
(This file generated from the board:)
(.../pcbgcode.repo/docs/examples/enabtmr.brd)
(Current profile is .../pcbgcode-work/profiles/mach.pp  )
(This file generated 1/25/14 12:17 PM)
(Settings from pcb-machine.h)
(spindle on time = 3.0000)
(spindle speed = 15000.0000)
(milling depth = -0.0100)
(tool change at 0.0000  0.0000  1.0000  )
(feed rate xy = F10    )
(feed rate z  = F5     )
(Z Axis Settings)
(  High     Up        Down     Drill)
(0.5000  	0.1000  	-0.0070 	-0.0320 )
(Settings from pcb-defaults.h)
(isolate min = 0.0010)
(isolate max = 0.0200)
(isolate step = 0.0050)
(Generated )
(Unit of measure: inch)
(Inch Mode)
G20
(Absolute Coordinates)
G90
S15000
G00 Z0.5000  
G00 X0.0000  Y0.0000  
M03
G04 P3.000000
G00 Z0.1000  
G00 X-0.1000 Y0.0000  
G01 Z-0.0100 F5     
G01 X-3.1700 Y0.0000  F10    
G02 X-3.2700 Y0.1000  R0.1000  F10    
G01 X-3.2700 Y2.1300  
G02 X-3.1700 Y2.2300  R0.1000  F10    
G01 X-0.1000 Y2.2300  
G02 X0.0000  Y2.1300  R0.1000  F10    
G01 X0.0000  Y0.1000  
G02 X-0.1000 Y0.0000  R0.1000  F10    
G00 Z0.1000  
G00 X-0.2200 Y0.0500  
G01 Z-0.0100 F5     
G03 X-0.0900 Y0.1800  R0.1300  F10    
G01 X-0.0900 Y0.3700  
G03 X-0.1900 Y0.4700  R0.1000  F10    
G01 X-0.2200 Y0.4700  
G03 X-0.3200 Y0.3700  R0.1000  F10    
G01 X-0.3200 Y0.1500  
G03 X-0.2200 Y0.0500  R0.1000  F10    
G00 Z0.1000  
G00 X-0.5200 Y0.2100  
G01 Z-0.0100 F5     
G02 X-0.7100 Y0.3100  R0.3651  F10    
G03 X-0.9300 Y0.3000  R0.1494  F10    
G02 X-1.1100 Y0.4300  R0.1113  F10    
G03 X-1.1400 Y0.5900  R0.1208  F10    
G01 X-1.7500 Y1.0500  
G02 X-1.9500 Y1.1000  R0.1296  F10    
G03 X-1.9500 Y1.2500  R0.0960  F10    
G02 X-1.8100 Y1.3900  R0.0996  F10    
G03 X-1.6300 Y1.3800  R0.1210  F10    
G01 X-1.0900 Y1.9200  
G02 X-0.9400 Y1.9100  R0.0814  F10    
G01 X-0.4300 Y0.4100  
G02 X-0.5200 Y0.2100  R0.1128  F10    
G00 Z0.1000  
G00 X-0.9700 Y0.5800  
G01 Z-0.0100 F5     
G01 X-1.1200 Y0.5800  F10    
G01 X-1.1900 Y0.5100  
G01 X-1.1900 Y0.5000  
G01 X-1.2600 Y0.5000  
G01 X-1.2600 Y0.7100  
G01 X-1.1900 Y0.7100  
G01 X-1.1100 Y0.6300  
G01 X-0.9700 Y0.6300  
G01 X-0.9700 Y0.5800  
G00 Z0.1000  
G00 X-2.0400 Y1.3900  
G01 Z-0.0100 F5     
G01 X-2.8700 Y1.3900  F10    
G01 X-2.8700 Y1.7400  
G02 X-2.7300 Y1.8800  R0.1400  F10    
G01 X-2.5600 Y1.8800  
G02 X-2.4500 Y1.7700  R0.1100  F10    
G00 Z0.1000  
G00 X-2.5100 Y1.7300  
G01 Z-0.0100 F5     
G03 X-2.3900 Y1.5800  R-0.0969 F10    
G01 X-2.1700 Y1.8100  
G00 Z0.1000  
G00 X-2.2000 Y1.8500  
G01 Z-0.0100 F5     
G02 X-1.9700 Y2.0400  R0.1496  F10    
G01 X-1.7200 Y1.7800  
G00 Z0.1000  
G00 X-1.7200 Y1.7100  
G01 Z-0.0100 F5     
G02 X-2.0400 Y1.3900  R0.3200  F10    
G00 Z0.1000  
G00 X-2.8500 Y0.3800  
G01 Z-0.0100 F5     
G02 X-2.7500 Y0.2800  R0.1000  F10    
G01 X-2.7500 Y0.0700  
G01 X-3.0800 Y0.0700  
G02 X-3.1800 Y0.1700  R0.1000  F10    
G01 X-3.1800 Y0.3800  
G01 X-2.8500 Y0.3800  
G00 Z0.5000  
M05
M02
