(.../src/pcbgcode.repo/pcb-gcode.ulp)
(Copyright 2005 - 2012 by John Johnson)
(See readme.txt for licensing terms.)
(This file generated from the board:)
(.../pcbgcode.repo/docs/examples/rect.brd)
(Current profile is .../pcbgcode-work/profiles/mach.pp  )
(This file generated 4/14/14 4:56 PM)
(Settings from pcb-machine.h)
(spindle on time = 3.0000)
(  Tool Size)
(0.0070  )
(spindle speed = 30000.0000)
(tool change at 0.0000  0.0000  1.0000  )
(feed rate xy = F20    )
(feed rate z  = F10    )
(Z Axis Settings)
(  High     Up        Down     Drill)
(0.5000  	0.1000  	-0.0070 	-0.0320 )
(Settings from pcb-defaults.h)
(isolate min = 0.0010)
(isolate max = 0.0200)
(isolate step = 0.0050)
(Generated top outlines, top drill, bottom outlines, bottom drill, )
(Unit of measure: inch)
(Inch Mode)
G20
(Absolute Coordinates)
G90
(probe grid)
(params: x y)
O100 sub
G00 X[#1] Y[#2] Z0.100000
G38.2Z-0.1000 F1     
G00 Z0.1000  
(PROBE[0,0] 0.000 0.000 -> 2000)
O100 call [0.000] [0.000]
#2000=#5063
(PROBE[0,1] 0.000 0.250 -> 2001)
O100 call [0.000] [0.250]
#2001=#5063
(PROBE[0,2] 0.000 0.500 -> 2002)
O100 call [0.000] [0.500]
#2002=#5063
(PROBE[0,3] 0.000 0.750 -> 2003)
O100 call [0.000] [0.750]
#2003=#5063
(PROBE[0,4] 0.000 1.000 -> 2004)
O100 call [0.000] [1.000]
#2004=#5063
(PROBE[1,4] 0.250 1.000 -> 2005)
O100 call [0.250] [1.000]
#2005=#5063
(PROBE[1,3] 0.250 0.750 -> 2006)
O100 call [0.250] [0.750]
#2006=#5063
(PROBE[1,2] 0.250 0.500 -> 2007)
O100 call [0.250] [0.500]
#2007=#5063
(PROBE[1,1] 0.250 0.250 -> 2008)
O100 call [0.250] [0.250]
#2008=#5063
(PROBE[1,0] 0.250 0.000 -> 2009)
O100 call [0.250] [0.000]
#2009=#5063
(PROBE[2,0] 0.500 0.000 -> 2010)
O100 call [0.500] [0.000]
#2010=#5063
(PROBE[2,1] 0.500 0.250 -> 2011)
O100 call [0.500] [0.250]
#2011=#5063
(PROBE[2,2] 0.500 0.500 -> 2012)
O100 call [0.500] [0.500]
#2012=#5063
(PROBE[2,3] 0.500 0.750 -> 2013)
O100 call [0.500] [0.750]
#2013=#5063
(PROBE[2,4] 0.500 1.000 -> 2014)
O100 call [0.500] [1.000]
#2014=#5063
(PROBE[3,4] 0.750 1.000 -> 2015)
O100 call [0.750] [1.000]
#2015=#5063
(PROBE[3,3] 0.750 0.750 -> 2016)
O100 call [0.750] [0.750]
#2016=#5063
(PROBE[3,2] 0.750 0.500 -> 2017)
O100 call [0.750] [0.500]
#2017=#5063
(PROBE[3,1] 0.750 0.250 -> 2018)
O100 call [0.750] [0.250]
#2018=#5063
(PROBE[3,0] 0.750 0.000 -> 2019)
O100 call [0.750] [0.000]
#2019=#5063
S30000
G00 Z0.5000  
G00 X0.0000  Y0.0000  
M03
G04 P3.000000
G00 Z0.1000  
G00 X0.1400  Y0.0423  
G01 Z-0.0070 F10    
G01 X0.1384  Y0.0452  Z[0.365893*#2000 + 0.453407*#2009 + 0.100001*#2008 + 0.080699*#2001 + -0.007000] F20    
G01 X0.1375  Y0.0484  Z[0.362962*#2000 + 0.443621*#2009 + 0.106379*#2008 + 0.087038*#2001 + -0.007000] F20    
G01 X0.1375  Y0.4484  Z[0.092962*#2001 + 0.113621*#2008 + 0.436379*#2007 + 0.357038*#2002 + -0.007000] F20    
G01 X0.1375  Y0.8484  Z[0.272962*#2003 + 0.333621*#2006 + 0.216379*#2005 + 0.177038*#2004 + -0.007000] F20    
G01 X0.1375  Y0.8516  Z[0.267038*#2003 + 0.326380*#2006 + 0.223620*#2005 + 0.182962*#2004 + -0.007000] F20    
G01 X0.1384  Y0.8548  Z[0.259337*#2003 + 0.321364*#2006 + 0.232043*#2005 + 0.187256*#2004 + -0.007000] F20    
G01 X0.1400  Y0.8577  Z[0.250497*#2003 + 0.318802*#2006 + 0.241188*#2005 + 0.189512*#2004 + -0.007000] F20    
G01 X0.1423  Y0.8600  Z[0.241188*#2003 + 0.318802*#2006 + 0.250497*#2005 + 0.189512*#2004 + -0.007000] F20    
G01 X0.1452  Y0.8616  Z[0.232044*#2003 + 0.321364*#2006 + 0.259336*#2005 + 0.187256*#2004 + -0.007000] F20    
G01 X0.1484  Y0.8625  Z[0.223621*#2003 + 0.326380*#2006 + 0.267037*#2005 + 0.182962*#2004 + -0.007000] F20    
G01 X0.7516  Y0.8625  Z[1.152523*#2016 + -0.002523*#0 + 0.000329*#0 + -0.150329*#2015 + -0.007000] F20    
G01 X0.7548  Y0.8616  Z[1.156255*#2016 + -0.007391*#0 + 0.000958*#0 + -0.149822*#2015 + -0.007000] F20    
G01 X0.7577  Y0.8600  Z[1.158404*#2016 + -0.011734*#0 + 0.001501*#0 + -0.148171*#2015 + -0.007000] F20    
G01 X0.7600  Y0.8577  Z[1.158818*#2016 + -0.015251*#0 + 0.001915*#0 + -0.145481*#2015 + -0.007000] F20    
G01 X0.7616  Y0.8548  Z[1.157468*#2016 + -0.017701*#0 + 0.002171*#0 + -0.141937*#2015 + -0.007000] F20    
G01 X0.7625  Y0.8516  Z[1.154453*#2016 + -0.018925*#0 + 0.002259*#0 + -0.137786*#2015 + -0.007000] F20    
G01 X0.7625  Y0.4500  Z[1.829999*#2018 + -0.030000*#0 + 0.013333*#0 + -0.813333*#2017 + -0.007000] F20    
G01 X0.7625  Y0.0484  Z[-4914.993654*#2019 + 80.572886*#0 + -80.589553*#0 + 4916.010321*#2018 + -0.007000] F20    
G01 X0.7616  Y0.0452  Z[-4586.651794*#2019 + 70.144412*#0 + -70.159943*#0 + 4587.667325*#2018 + -0.007000] F20    
G01 X0.7600  Y0.0423  Z[-4287.913241*#2019 + 56.432926*#0 + -56.446263*#0 + 4288.926578*#2018 + -0.007000] F20    
G01 X0.7577  Y0.0400  Z[-4039.674913*#2019 + 40.920976*#0 + -40.931209*#0 + 4040.685146*#2018 + -0.007000] F20    
G01 X0.7548  Y0.0384  Z[-3858.852605*#2019 + 24.665597*#0 + -24.672030*#0 + 3859.859038*#2018 + -0.007000] F20    
G01 X0.7516  Y0.0375  Z[-3757.226152*#2019 + 8.226152*#0 + -8.228346*#0 + 3758.228346*#2018 + -0.007000] F20    
G01 X0.1484  Y0.0375  Z[0.345596*#2000 + 0.504404*#2009 + 0.089013*#2008 + 0.060987*#2001 + -0.007000] F20    
G01 X0.1452  Y0.0384  Z[0.354976*#2000 + 0.491617*#2009 + 0.089084*#2008 + 0.064324*#2001 + -0.007000] F20    
G01 X0.1423  Y0.0400  Z[0.361793*#2000 + 0.478217*#2009 + 0.091082*#2008 + 0.068908*#2001 + -0.007000] F20    
G01 X0.1400  Y0.0423  Z[0.365517*#2000 + 0.465184*#2009 + 0.094806*#2008 + 0.074493*#2001 + -0.007000] F20    
G00 Z0.1000  
G00 X0.2735  Y0.2087  
G01 Z-0.0070 F10    
G01 X0.2786  Y0.2049  Z[0.159741*#2009 + 0.020669*#2010 + 0.093899*#2011 + 0.725690*#2008 + -0.007000] F20    
G01 X0.2837  Y0.2023  Z[0.165060*#2009 + 0.025761*#2010 + 0.109238*#2011 + 0.699941*#2008 + -0.007000] F20    
G01 X0.2837  Y0.2035  Z[0.161042*#2009 + 0.025134*#2010 + 0.109865*#2011 + 0.703959*#2008 + -0.007000] F20    
G01 X0.2812  Y0.2045  Z[0.159223*#2009 + 0.022681*#2010 + 0.102004*#2011 + 0.716092*#2008 + -0.007000] F20    
G01 X0.2747  Y0.2089  Z[0.148276*#2009 + 0.016227*#2010 + 0.082416*#2011 + 0.753080*#2008 + -0.007000] F20    
G01 X0.2691  Y0.2144  Z[0.131467*#2009 + 0.010890*#2010 + 0.065607*#2011 + 0.792036*#2008 + -0.007000] F20    
G01 X0.2648  Y0.2209  Z[0.109441*#2009 + 0.006874*#2010 + 0.052222*#2011 + 0.831463*#2008 + -0.007000] F20    
G01 X0.2618  Y0.2282  Z[0.083262*#2009 + 0.004116*#2010 + 0.042994*#2011 + 0.869627*#2008 + -0.007000] F20    
G01 X0.2602  Y0.2358  Z[0.054337*#2009 + 0.002323*#2010 + 0.038677*#2011 + 0.904663*#2008 + -0.007000] F20    
G01 X0.2602  Y0.2587  Z[0.925436*#2008 + 0.039565*#2011 + 0.001435*#2012 + 0.033564*#2007 + -0.007000] F20    
G01 X0.2592  Y0.2587  Z[0.929296*#2008 + 0.035705*#2011 + 0.001295*#2012 + 0.033704*#2007 + -0.007000] F20    
G01 X0.2592  Y0.2365  Z[0.051837*#2009 + 0.001992*#2010 + 0.035008*#2011 + 0.911163*#2008 + -0.007000] F20    
G01 X0.2603  Y0.2302  Z[0.075922*#2009 + 0.003247*#2010 + 0.037766*#2011 + 0.883065*#2008 + -0.007000] F20    
G01 X0.2622  Y0.2241  Z[0.098502*#2009 + 0.005069*#2010 + 0.043873*#2011 + 0.852556*#2008 + -0.007000] F20    
G01 X0.2651  Y0.2184  Z[0.118771*#2009 + 0.007660*#2010 + 0.052929*#2011 + 0.820640*#2008 + -0.007000] F20    
G01 X0.2689  Y0.2132  Z[0.136052*#2009 + 0.011138*#2010 + 0.064533*#2011 + 0.788278*#2008 + -0.007000] F20    
G01 X0.2735  Y0.2087  Z[0.149820*#2009 + 0.015510*#2010 + 0.078301*#2011 + 0.756370*#2008 + -0.007000] F20    
G00 Z0.1000  
G00 X0.3162  Y0.2035  
G01 Z-0.0070 F10    
G01 X0.3162  Y0.2023  Z[0.140253*#2009 + 0.050567*#2010 + 0.214432*#2011 + 0.594747*#2008 + -0.007000] F20    
G01 X0.3214  Y0.2049  Z[0.128916*#2009 + 0.051495*#2010 + 0.233935*#2011 + 0.585654*#2008 + -0.007000] F20    
G01 X0.3265  Y0.2087  Z[0.114707*#2009 + 0.050622*#2010 + 0.255567*#2011 + 0.579104*#2008 + -0.007000] F20    
G01 X0.3311  Y0.2132  Z[0.099452*#2009 + 0.047738*#2010 + 0.276591*#2011 + 0.576220*#2008 + -0.007000] F20    
G01 X0.3349  Y0.2184  Z[0.083519*#2009 + 0.042912*#2010 + 0.296498*#2011 + 0.577071*#2008 + -0.007000] F20    
G01 X0.3378  Y0.2241  Z[0.067212*#2009 + 0.036360*#2010 + 0.314697*#2011 + 0.581731*#2008 + -0.007000] F20    
G01 X0.3397  Y0.2302  Z[0.050749*#2009 + 0.028421*#2010 + 0.330566*#2011 + 0.590265*#2008 + -0.007000] F20    
G01 X0.3407  Y0.2365  Z[0.034289*#2009 + 0.019540*#2010 + 0.343460*#2011 + 0.602712*#2008 + -0.007000] F20    
G01 X0.3407  Y0.2587  Z[0.614706*#2008 + 0.350295*#2011 + 0.012705*#2012 + 0.022294*#2007 + -0.007000] F20    
G01 X0.3397  Y0.2587  Z[0.618566*#2008 + 0.346435*#2011 + 0.012565*#2012 + 0.022434*#2007 + -0.007000] F20    
G01 X0.3397  Y0.2358  Z[0.036319*#2009 + 0.020341*#2010 + 0.338658*#2011 + 0.604681*#2008 + -0.007000] F20    
G01 X0.3382  Y0.2282  Z[0.056544*#2009 + 0.030835*#2010 + 0.322054*#2011 + 0.590567*#2008 + -0.007000] F20    
G01 X0.3352  Y0.2209  Z[0.076663*#2009 + 0.039652*#2010 + 0.301251*#2011 + 0.582434*#2008 + -0.007000] F20    
G01 X0.3309  Y0.2144  Z[0.096304*#2009 + 0.046053*#2010 + 0.277450*#2011 + 0.580193*#2008 + -0.007000] F20    
G01 X0.3253  Y0.2089  Z[0.114929*#2009 + 0.049574*#2010 + 0.251782*#2011 + 0.583714*#2008 + -0.007000] F20    
G01 X0.3188  Y0.2045  Z[0.131823*#2009 + 0.050081*#2010 + 0.225234*#2011 + 0.592862*#2008 + -0.007000] F20    
G01 X0.3162  Y0.2035  Z[0.136840*#2009 + 0.049337*#2010 + 0.215663*#2011 + 0.598161*#2008 + -0.007000] F20    
G00 Z0.1000  
G00 X0.3397  Y0.2912  
G01 Z-0.0070 F10    
G01 X0.3407  Y0.2912  Z[0.531896*#2008 + 0.303105*#2011 + 0.059895*#2012 + 0.105105*#2007 + -0.007000] F20    
G01 X0.3407  Y0.3135  Z[0.475312*#2008 + 0.270860*#2011 + 0.092139*#2012 + 0.161688*#2007 + -0.007000] F20    
G01 X0.3397  Y0.3198  Z[0.462063*#2008 + 0.258769*#2011 + 0.100218*#2012 + 0.178951*#2007 + -0.007000] F20    
G01 X0.3378  Y0.3259  Z[0.451943*#2008 + 0.244487*#2011 + 0.106571*#2012 + 0.197000*#2007 + -0.007000] F20    
G01 X0.3349  Y0.3316  Z[0.444954*#2008 + 0.228616*#2011 + 0.110794*#2012 + 0.215636*#2007 + -0.007000] F20    
G01 X0.3311  Y0.3368  Z[0.441086*#2008 + 0.211725*#2011 + 0.112603*#2012 + 0.234585*#2007 + -0.007000] F20    
G01 X0.3265  Y0.3413  Z[0.440343*#2008 + 0.194329*#2011 + 0.111859*#2012 + 0.253469*#2007 + -0.007000] F20    
G01 X0.3214  Y0.3451  Z[0.442740*#2008 + 0.176850*#2011 + 0.108580*#2012 + 0.271829*#2007 + -0.007000] F20    
G01 X0.3162  Y0.3477  Z[0.447748*#2008 + 0.161433*#2011 + 0.103567*#2012 + 0.287252*#2007 + -0.007000] F20    
G01 X0.3162  Y0.3465  Z[0.451161*#2008 + 0.162663*#2011 + 0.102336*#2012 + 0.283839*#2007 + -0.007000] F20    
G01 X0.3188  Y0.3455  Z[0.447926*#2008 + 0.170171*#2011 + 0.105144*#2012 + 0.276760*#2007 + -0.007000] F20    
G01 X0.3253  Y0.3411  Z[0.443986*#2008 + 0.191511*#2011 + 0.109845*#2012 + 0.254658*#2007 + -0.007000] F20    
G01 X0.3309  Y0.3356  Z[0.444894*#2008 + 0.212750*#2011 + 0.110753*#2012 + 0.231603*#2007 + -0.007000] F20    
G01 X0.3352  Y0.3291  Z[0.450615*#2008 + 0.233071*#2011 + 0.107833*#2012 + 0.208482*#2007 + -0.007000] F20    
G01 X0.3382  Y0.3218  Z[0.461145*#2008 + 0.251477*#2011 + 0.101413*#2012 + 0.185966*#2007 + -0.007000] F20    
G01 X0.3397  Y0.3142  Z[0.476481*#2008 + 0.266859*#2011 + 0.092141*#2012 + 0.164519*#2007 + -0.007000] F20    
G01 X0.3397  Y0.2912  Z[0.535236*#2008 + 0.299765*#2011 + 0.059235*#2012 + 0.105765*#2007 + -0.007000] F20    
G00 Z0.1000  
G00 X0.2602  Y0.2912  
G01 Z-0.0070 F10    
G01 X0.2602  Y0.3142  Z[0.712863*#2008 + 0.030477*#2011 + 0.010523*#2012 + 0.246137*#2007 + -0.007000] F20    
G01 X0.2618  Y0.3218  Z[0.679050*#2008 + 0.033572*#2011 + 0.013538*#2012 + 0.273840*#2007 + -0.007000] F20    
G01 X0.2648  Y0.3291  Z[0.643282*#2008 + 0.040403*#2011 + 0.018693*#2012 + 0.297622*#2007 + -0.007000] F20    
G01 X0.2691  Y0.3356  Z[0.607336*#2008 + 0.050307*#2011 + 0.026189*#2012 + 0.316167*#2007 + -0.007000] F20    
G01 X0.2747  Y0.3411  Z[0.572810*#2008 + 0.062687*#2011 + 0.035956*#2012 + 0.328547*#2007 + -0.007000] F20    
G01 X0.2812  Y0.3455  Z[0.541029*#2008 + 0.077067*#2011 + 0.047618*#2012 + 0.334286*#2007 + -0.007000] F20    
G01 X0.2837  Y0.3465  Z[0.530959*#2008 + 0.082866*#2011 + 0.052133*#2012 + 0.334042*#2007 + -0.007000] F20    
G01 X0.2837  Y0.3477  Z[0.526942*#2008 + 0.082239*#2011 + 0.052760*#2012 + 0.338059*#2007 + -0.007000] F20    
G01 X0.2786  Y0.3451  Z[0.548604*#2008 + 0.070986*#2011 + 0.043583*#2012 + 0.336827*#2007 + -0.007000] F20    
G01 X0.2735  Y0.3413  Z[0.575133*#2008 + 0.059539*#2011 + 0.034272*#2012 + 0.331057*#2007 + -0.007000] F20    
G01 X0.2689  Y0.3368  Z[0.603413*#2008 + 0.049399*#2011 + 0.026272*#2012 + 0.320916*#2007 + -0.007000] F20    
G01 X0.2651  Y0.3316  Z[0.632758*#2008 + 0.040811*#2011 + 0.019778*#2012 + 0.306652*#2007 + -0.007000] F20    
G01 X0.2622  Y0.3259  Z[0.662345*#2008 + 0.034085*#2011 + 0.014857*#2012 + 0.288714*#2007 + -0.007000] F20    
G01 X0.2603  Y0.3198  Z[0.691268*#2008 + 0.029563*#2011 + 0.011449*#2012 + 0.267719*#2007 + -0.007000] F20    
G01 X0.2592  Y0.3135  Z[0.718564*#2008 + 0.027608*#2011 + 0.009392*#2012 + 0.244436*#2007 + -0.007000] F20    
G01 X0.2592  Y0.2912  Z[0.804106*#2008 + 0.030895*#2011 + 0.006105*#2012 + 0.158895*#2007 + -0.007000] F20    
G01 X0.2602  Y0.2912  Z[0.800765*#2008 + 0.034235*#2011 + 0.006765*#2012 + 0.158235*#2007 + -0.007000] F20    
G00 Z0.1000  
G00 X0.4851  Y0.3471  
G01 Z-0.0070 F10    
G01 X0.4875  Y0.3481  Z[0.030381*#2008 + 0.577230*#2011 + 0.372770*#2012 + 0.019619*#2007 + -0.007000] F20    
G01 X0.4875  Y0.3507  Z[0.029860*#2008 + 0.567339*#2011 + 0.382661*#2012 + 0.020140*#2007 + -0.007000] F20    
G01 X0.4872  Y0.3502  Z[0.030587*#2008 + 0.568448*#2011 + 0.380491*#2012 + 0.020473*#2007 + -0.007000] F20    
G01 X0.4869  Y0.3495  Z[0.031505*#2008 + 0.570586*#2011 + 0.377088*#2012 + 0.020821*#2007 + -0.007000] F20    
G01 X0.4864  Y0.3488  Z[0.032860*#2008 + 0.571854*#2011 + 0.373806*#2012 + 0.021479*#2007 + -0.007000] F20    
G01 X0.4860  Y0.3481  Z[0.034019*#2008 + 0.573557*#2011 + 0.370453*#2012 + 0.021972*#2007 + -0.007000] F20    
G01 X0.4854  Y0.3475  Z[0.035575*#2008 + 0.574337*#2011 + 0.367335*#2012 + 0.022753*#2007 + -0.007000] F20    
G01 X0.4851  Y0.3471  Z[0.036463*#2008 + 0.575132*#2011 + 0.365248*#2012 + 0.023157*#2007 + -0.007000] F20    
G00 Z0.1000  
G00 X0.5125  Y0.3481  
G01 Z-0.0070 F10    
G01 X0.5149  Y0.3471  Z[0.575133*#2011 + 0.036462*#2018 + 0.023156*#2017 + 0.365249*#2012 + -0.007000] F20    
G01 X0.5146  Y0.3475  Z[0.574338*#2011 + 0.035574*#2018 + 0.022753*#2017 + 0.367336*#2012 + -0.007000] F20    
G01 X0.5140  Y0.3481  Z[0.573557*#2011 + 0.034018*#2018 + 0.021972*#2017 + 0.370453*#2012 + -0.007000] F20    
G01 X0.5136  Y0.3488  Z[0.571855*#2011 + 0.032859*#2018 + 0.021479*#2017 + 0.373807*#2012 + -0.007000] F20    
G01 X0.5131  Y0.3495  Z[0.570587*#2011 + 0.031504*#2018 + 0.020821*#2017 + 0.377088*#2012 + -0.007000] F20    
G01 X0.5128  Y0.3502  Z[0.568449*#2011 + 0.030586*#2018 + 0.020473*#2017 + 0.380491*#2012 + -0.007000] F20    
G01 X0.5125  Y0.3507  Z[0.567340*#2011 + 0.029860*#2018 + 0.020140*#2017 + 0.382660*#2012 + -0.007000] F20    
G01 X0.5125  Y0.3481  Z[0.577230*#2011 + 0.030380*#2018 + 0.019619*#2017 + 0.372770*#2012 + -0.007000] F20    
G00 Z0.1000  
G00 X0.4875  Y0.5536  
G01 Z-0.0070 F10    
G01 X0.4875  Y0.5600  Z[0.037998*#2007 + 0.721970*#2012 + 0.228030*#2013 + 0.012002*#2006 + -0.007000] F20    
G01 X0.4811  Y0.5600  Z[0.057512*#2007 + 0.702457*#2012 + 0.221867*#2013 + 0.018165*#2006 + -0.007000] F20    
G01 X0.4837  Y0.5585  Z[0.050017*#2007 + 0.715942*#2012 + 0.218758*#2013 + 0.015283*#2006 + -0.007000] F20    
G01 X0.4860  Y0.5562  Z[0.043408*#2007 + 0.731860*#2012 + 0.212149*#2013 + 0.012583*#2006 + -0.007000] F20    
G01 X0.4875  Y0.5536  Z[0.039282*#2007 + 0.746362*#2012 + 0.203638*#2013 + 0.010718*#2006 + -0.007000] F20    
G00 Z0.1000  
G00 X0.4960  Y0.6125  
G01 Z-0.0070 F10    
G01 X0.4984  Y0.6125  Z[0.003621*#2007 + 0.546380*#2012 + 0.447037*#2013 + 0.002962*#2006 + -0.007000] F20    
G01 X0.5005  Y0.6125  Z[0.548985*#2012 + 0.001016*#2017 + 0.000831*#2016 + 0.449168*#2013 + -0.007000] F20    
G01 X0.4998  Y0.6129  Z[0.000393*#2007 + 0.548127*#2012 + 0.451156*#2013 + 0.000324*#2006 + -0.007000] F20    
G01 X0.4992  Y0.6135  Z[0.001667*#2007 + 0.544518*#2012 + 0.452429*#2013 + 0.001385*#2006 + -0.007000] F20    
G01 X0.4986  Y0.6140  Z[0.003089*#2007 + 0.541083*#2012 + 0.453241*#2013 + 0.002588*#2006 + -0.007000] F20    
G01 X0.4981  Y0.6146  Z[0.004165*#2007 + 0.537383*#2012 + 0.454927*#2013 + 0.003526*#2006 + -0.007000] F20    
G01 X0.4975  Y0.6152  Z[0.005406*#2007 + 0.533805*#2012 + 0.456168*#2013 + 0.004620*#2006 + -0.007000] F20    
G01 X0.4971  Y0.6159  Z[0.006264*#2007 + 0.530086*#2012 + 0.458236*#2013 + 0.005415*#2006 + -0.007000] F20    
G01 X0.4966  Y0.6166  Z[0.007307*#2007 + 0.526420*#2012 + 0.459889*#2013 + 0.006384*#2006 + -0.007000] F20    
G01 X0.4963  Y0.6173  Z[0.007937*#2007 + 0.522737*#2012 + 0.462308*#2013 + 0.007019*#2006 + -0.007000] F20    
G01 X0.4960  Y0.6178  Z[0.008470*#2007 + 0.520366*#2012 + 0.463618*#2013 + 0.007546*#2006 + -0.007000] F20    
G01 X0.4960  Y0.6125  Z[0.008809*#2007 + 0.541192*#2012 + 0.442792*#2013 + 0.007207*#2006 + -0.007000] F20    
G00 Z0.1000  
G00 X0.3770  Y0.6202  
G01 Z-0.0070 F10    
G01 X0.3770  Y0.6362  Z[0.223934*#2007 + 0.231202*#2012 + 0.276782*#2013 + 0.268082*#2006 + -0.007000] F20    
G01 X0.3766  Y0.6376  Z[0.221855*#2007 + 0.227684*#2012 + 0.278800*#2013 + 0.271661*#2006 + -0.007000] F20    
G01 X0.3759  Y0.6389  Z[0.220666*#2007 + 0.223857*#2012 + 0.279732*#2013 + 0.275745*#2006 + -0.007000] F20    
G01 X0.3749  Y0.6399  Z[0.220437*#2007 + 0.219990*#2012 + 0.279503*#2013 + 0.280070*#2006 + -0.007000] F20    
G01 X0.3736  Y0.6406  Z[0.221182*#2007 + 0.216349*#2012 + 0.278128*#2013 + 0.284341*#2006 + -0.007000] F20    
G01 X0.3722  Y0.6410  Z[0.222865*#2007 + 0.213167*#2012 + 0.275713*#2013 + 0.288255*#2006 + -0.007000] F20    
G01 X0.3602  Y0.6410  Z[0.243746*#2007 + 0.192286*#2012 + 0.248705*#2013 + 0.315263*#2006 + -0.007000] F20    
G01 X0.3602  Y0.6400  Z[0.245982*#2007 + 0.194050*#2012 + 0.246941*#2013 + 0.313027*#2006 + -0.007000] F20    
G01 X0.3724  Y0.6400  Z[0.224608*#2007 + 0.215424*#2012 + 0.274140*#2013 + 0.285828*#2006 + -0.007000] F20    
G01 X0.3740  Y0.6393  Z[0.223077*#2007 + 0.219695*#2012 + 0.276485*#2013 + 0.280742*#2006 + -0.007000] F20    
G01 X0.3753  Y0.6380  Z[0.223361*#2007 + 0.224475*#2012 + 0.276769*#2013 + 0.275396*#2006 + -0.007000] F20    
G01 X0.3760  Y0.6364  Z[0.225415*#2007 + 0.229036*#2012 + 0.274948*#2013 + 0.270601*#2006 + -0.007000] F20    
G01 X0.3760  Y0.6202  Z[0.257437*#2007 + 0.261572*#2012 + 0.242412*#2013 + 0.238580*#2006 + -0.007000] F20    
G01 X0.3770  Y0.6202  Z[0.255361*#2007 + 0.263648*#2012 + 0.244336*#2013 + 0.236656*#2006 + -0.007000] F20    
G00 Z0.1000  
G00 X0.3770  Y0.5798  
G01 Z-0.0070 F10    
G01 X0.3760  Y0.5798  Z[0.337784*#2007 + 0.343209*#2012 + 0.160774*#2013 + 0.158233*#2006 + -0.007000] F20    
G01 X0.3760  Y0.5636  Z[0.369805*#2007 + 0.375745*#2012 + 0.128239*#2013 + 0.126212*#2006 + -0.007000] F20    
G01 X0.3753  Y0.5620  Z[0.375147*#2007 + 0.377018*#2012 + 0.124226*#2013 + 0.123609*#2006 + -0.007000] F20    
G01 X0.3740  Y0.5607  Z[0.381507*#2007 + 0.375722*#2012 + 0.120458*#2013 + 0.122313*#2006 + -0.007000] F20    
G01 X0.3724  Y0.5600  Z[0.387915*#2007 + 0.372054*#2012 + 0.117511*#2013 + 0.122521*#2006 + -0.007000] F20    
G01 X0.3602  Y0.5600  Z[0.424829*#2007 + 0.335140*#2012 + 0.105852*#2013 + 0.134180*#2006 + -0.007000] F20    
G01 X0.3602  Y0.5590  Z[0.427065*#2007 + 0.336904*#2012 + 0.104088*#2013 + 0.131943*#2006 + -0.007000] F20    
G01 X0.3722  Y0.5590  Z[0.390480*#2007 + 0.373489*#2012 + 0.115391*#2013 + 0.120640*#2006 + -0.007000] F20    
G01 X0.3736  Y0.5594  Z[0.385446*#2007 + 0.377024*#2012 + 0.117453*#2013 + 0.120077*#2006 + -0.007000] F20    
G01 X0.3749  Y0.5601  Z[0.380172*#2007 + 0.379402*#2012 + 0.120091*#2013 + 0.120335*#2006 + -0.007000] F20    
G01 X0.3759  Y0.5611  Z[0.375028*#2007 + 0.380450*#2012 + 0.123139*#2013 + 0.121384*#2006 + -0.007000] F20    
G01 X0.3766  Y0.5624  Z[0.370365*#2007 + 0.380097*#2012 + 0.126387*#2013 + 0.123151*#2006 + -0.007000] F20    
G01 X0.3770  Y0.5638  Z[0.366486*#2007 + 0.378380*#2012 + 0.129604*#2013 + 0.125530*#2006 + -0.007000] F20    
G01 X0.3770  Y0.5798  Z[0.335060*#2007 + 0.345933*#2012 + 0.162050*#2013 + 0.156957*#2006 + -0.007000] F20    
G00 Z0.1000  
G00 X0.3198  Y0.5600  
G01 Z-0.0070 F10    
G01 X0.3125  Y0.5600  Z[0.569977*#2007 + 0.189992*#2012 + 0.060008*#2013 + 0.180024*#2006 + -0.007000] F20    
G01 X0.3125  Y0.5590  Z[0.572977*#2007 + 0.190992*#2012 + 0.059008*#2013 + 0.177023*#2006 + -0.007000] F20    
G01 X0.3198  Y0.5590  Z[0.550816*#2007 + 0.213153*#2012 + 0.065854*#2013 + 0.170177*#2006 + -0.007000] F20    
G01 X0.3198  Y0.5600  Z[0.547932*#2007 + 0.212036*#2012 + 0.066970*#2013 + 0.173061*#2006 + -0.007000] F20    
G00 Z0.1000  
G00 X0.3040  Y0.6202  
G01 Z-0.0070 F10    
G01 X0.3040  Y0.6364  Z[0.356283*#2007 + 0.098169*#2012 + 0.117847*#2013 + 0.427702*#2006 + -0.007000] F20    
G01 X0.3047  Y0.6380  Z[0.349869*#2007 + 0.097967*#2012 + 0.120789*#2013 + 0.431375*#2006 + -0.007000] F20    
G01 X0.3060  Y0.6393  Z[0.343671*#2007 + 0.099101*#2012 + 0.124718*#2013 + 0.432509*#2006 + -0.007000] F20    
G01 X0.3076  Y0.6400  Z[0.338633*#2007 + 0.101399*#2012 + 0.129036*#2013 + 0.430932*#2006 + -0.007000] F20    
G01 X0.3198  Y0.6400  Z[0.317260*#2007 + 0.122772*#2012 + 0.156235*#2013 + 0.403733*#2006 + -0.007000] F20    
G01 X0.3198  Y0.6410  Z[0.314376*#2007 + 0.121656*#2012 + 0.157351*#2013 + 0.406617*#2006 + -0.007000] F20    
G01 X0.3078  Y0.6410  Z[0.335257*#2007 + 0.100775*#2012 + 0.130343*#2013 + 0.433625*#2006 + -0.007000] F20    
G01 X0.3064  Y0.6406  Z[0.338859*#2007 + 0.098673*#2012 + 0.126849*#2013 + 0.435620*#2006 + -0.007000] F20    
G01 X0.3051  Y0.6399  Z[0.343310*#2007 + 0.097117*#2012 + 0.123389*#2013 + 0.436183*#2006 + -0.007000] F20    
G01 X0.3041  Y0.6389  Z[0.348324*#2007 + 0.096199*#2012 + 0.120211*#2013 + 0.435266*#2006 + -0.007000] F20    
G01 X0.3034  Y0.6376  Z[0.353556*#2007 + 0.095983*#2012 + 0.117532*#2013 + 0.432930*#2006 + -0.007000] F20    
G01 X0.3030  Y0.6362  Z[0.358640*#2007 + 0.096496*#2012 + 0.115520*#2013 + 0.429345*#2006 + -0.007000] F20    
G01 X0.3030  Y0.6202  Z[0.408971*#2007 + 0.110038*#2012 + 0.101978*#2013 + 0.379014*#2006 + -0.007000] F20    
G01 X0.3040  Y0.6202  Z[0.406894*#2007 + 0.112114*#2012 + 0.103902*#2013 + 0.377090*#2006 + -0.007000] F20    
G00 Z0.1000  
G82 X0.3000  Y0.2750  Z-0.0110 F20    R0.1000  P1.000000
G82 X0.5000  Y0.2750  
G00 Z0.5000  
M05
M02
