(.../src/pcbgcode.repo/pcb-gcode.ulp)
(Copyright 2005 - 2012 by John Johnson)
(See readme.txt for licensing terms.)
(This file generated from the board:)
(.../pcbgcode.repo/docs/examples/rect.brd)
(Current profile is .../pcbgcode-work/profiles/mach.pp  )
(This file generated 4/14/14 4:56 PM)
(Settings from pcb-machine.h)
(spindle on time = 3.0000)
(  Tool Size)
(0.0070  )
(spindle speed = 30000.0000)
(tool change at 0.0000  0.0000  1.0000  )
(feed rate xy = F20    )
(feed rate z  = F10    )
(Z Axis Settings)
(  High     Up        Down     Drill)
(0.5000  	0.1000  	-0.0070 	-0.0320 )
(Settings from pcb-defaults.h)
(isolate min = 0.0010)
(isolate max = 0.0200)
(isolate step = 0.0050)
(Generated top outlines, top drill, bottom outlines, bottom drill, )
(Unit of measure: inch)
(Inch Mode)
G20
(Absolute Coordinates)
G90
(probe grid)
(params: x y)
O100 sub
G00 X[#1] Y[#2] Z0.100000
G38.2Z-0.1000 F1     
G00 Z0.1000  
(PROBE[0,0] 0.000 0.000 -> 2000)
O100 call [0.000] [0.000]
#2000=#5063
(PROBE[0,1] 0.000 0.250 -> 2001)
O100 call [0.000] [0.250]
#2001=#5063
(PROBE[0,2] 0.000 0.500 -> 2002)
O100 call [0.000] [0.500]
#2002=#5063
(PROBE[0,3] 0.000 0.750 -> 2003)
O100 call [0.000] [0.750]
#2003=#5063
(PROBE[0,4] 0.000 1.000 -> 2004)
O100 call [0.000] [1.000]
#2004=#5063
(PROBE[1,4] -0.250 1.000 -> 2005)
O100 call [-0.250] [1.000]
#2005=#5063
(PROBE[1,3] -0.250 0.750 -> 2006)
O100 call [-0.250] [0.750]
#2006=#5063
(PROBE[1,2] -0.250 0.500 -> 2007)
O100 call [-0.250] [0.500]
#2007=#5063
(PROBE[1,1] -0.250 0.250 -> 2008)
O100 call [-0.250] [0.250]
#2008=#5063
(PROBE[1,0] -0.250 0.000 -> 2009)
O100 call [-0.250] [0.000]
#2009=#5063
(PROBE[2,0] -0.500 0.000 -> 2010)
O100 call [-0.500] [0.000]
#2010=#5063
(PROBE[2,1] -0.500 0.250 -> 2011)
O100 call [-0.500] [0.250]
#2011=#5063
(PROBE[2,2] -0.500 0.500 -> 2012)
O100 call [-0.500] [0.500]
#2012=#5063
(PROBE[2,3] -0.500 0.750 -> 2013)
O100 call [-0.500] [0.750]
#2013=#5063
(PROBE[2,4] -0.500 1.000 -> 2014)
O100 call [-0.500] [1.000]
#2014=#5063
(PROBE[3,4] -0.750 1.000 -> 2015)
O100 call [-0.750] [1.000]
#2015=#5063
(PROBE[3,3] -0.750 0.750 -> 2016)
O100 call [-0.750] [0.750]
#2016=#5063
(PROBE[3,2] -0.750 0.500 -> 2017)
O100 call [-0.750] [0.500]
#2017=#5063
(PROBE[3,1] -0.750 0.250 -> 2018)
O100 call [-0.750] [0.250]
#2018=#5063
(PROBE[3,0] -0.750 0.000 -> 2019)
O100 call [-0.750] [0.000]
#2019=#5063
S30000
G00 Z0.5000  
G00 X0.0000  Y0.0000  
M03
G04 P3.000000
G00 Z0.1000  
G00 X-0.2691 Y0.2144  
G01 Z-0.0070 F10    
G01 X-0.2747 Y0.2089  Z[0.509737*#2009 + -0.345234*#2010 + -1.753409*#2011 + 2.588906*#2008 + -0.007000] F20    
G01 X-0.2812 Y0.2045  Z[0.568393*#2009 + -0.386489*#2010 + -1.738196*#2011 + 2.556292*#2008 + -0.007000] F20    
G01 X-0.2884 Y0.2015  Z[0.611455*#2009 + -0.417565*#2010 + -1.736056*#2011 + 2.542166*#2008 + -0.007000] F20    
G01 X-0.2961 Y0.2000  Z[0.636868*#2009 + -0.436868*#2010 + -1.747472*#2011 + 2.547472*#2008 + -0.007000] F20    
G01 X-0.3039 Y0.2000  Z[0.643132*#2009 + -0.443132*#2010 + -1.772528*#2011 + 2.572528*#2008 + -0.007000] F20    
G01 X-0.3116 Y0.2015  Z[0.629440*#2009 + -0.435550*#2010 + -1.810829*#2011 + 2.616939*#2008 + -0.007000] F20    
G01 X-0.3188 Y0.2045  Z[0.595793*#2009 + -0.413889*#2010 + -1.861426*#2011 + 2.679522*#2008 + -0.007000] F20    
G01 X-0.3253 Y0.2089  Z[0.543084*#2009 + -0.378581*#2010 + -1.922775*#2011 + 2.758272*#2008 + -0.007000] F20    
G01 X-0.3309 Y0.2144  Z[0.473123*#2009 + -0.330766*#2010 + -1.992737*#2011 + 2.850380*#2008 + -0.007000] F20    
G01 X-0.3352 Y0.2209  Z[0.388597*#2009 + -0.272282*#2010 + -2.068621*#2011 + 2.952306*#2008 + -0.007000] F20    
G01 X-0.3382 Y0.2282  Z[0.292972*#2009 + -0.205593*#2010 + -2.147296*#2011 + 3.059917*#2008 + -0.007000] F20    
G01 X-0.3397 Y0.2358  Z[0.190322*#2009 + -0.133662*#2010 + -2.225338*#2011 + 3.168677*#2008 + -0.007000] F20    
G01 X-0.3397 Y0.3142  Z[2.496879*#2008 + -1.753539*#2011 + -0.605461*#2012 + 0.862121*#2007 + -0.007000] F20    
G01 X-0.3382 Y0.3218  Z[2.389341*#2008 + -1.676720*#2011 + -0.676170*#2012 + 0.963548*#2007 + -0.007000] F20    
G01 X-0.3352 Y0.3291  Z[2.284127*#2008 + -1.600442*#2011 + -0.740462*#2012 + 1.056776*#2007 + -0.007000] F20    
G01 X-0.3309 Y0.3356  Z[2.185681*#2008 + -1.528037*#2011 + -0.795466*#2012 + 1.137822*#2007 + -0.007000] F20    
G01 X-0.3253 Y0.3411  Z[2.098002*#2008 + -1.462505*#2011 + -0.838851*#2012 + 1.203354*#2007 + -0.007000] F20    
G01 X-0.3188 Y0.3455  Z[2.024460*#2008 + -1.406364*#2011 + -0.868951*#2012 + 1.250854*#2007 + -0.007000] F20    
G01 X-0.3116 Y0.3485  Z[1.967665*#2008 + -1.361554*#2011 + -0.884824*#2012 + 1.278714*#2007 + -0.007000] F20    
G01 X-0.3039 Y0.3500  Z[1.929398*#2008 + -1.329397*#2011 + -0.886263*#2012 + 1.286262*#2007 + -0.007000] F20    
G01 X-0.2961 Y0.3500  Z[1.910605*#2008 + -1.310605*#2011 + -0.873735*#2012 + 1.273734*#2007 + -0.007000] F20    
G01 X-0.2884 Y0.3485  Z[1.911444*#2008 + -1.305333*#2011 + -0.848288*#2012 + 1.242178*#2007 + -0.007000] F20    
G01 X-0.2812 Y0.3455  Z[1.931357*#2008 + -1.313260*#2011 + -0.811425*#2012 + 1.193328*#2007 + -0.007000] F20    
G01 X-0.2747 Y0.3411  Z[1.969179*#2008 + -1.333682*#2011 + -0.764962*#2012 + 1.129465*#2007 + -0.007000] F20    
G01 X-0.2691 Y0.3356  Z[2.023239*#2008 + -1.365595*#2011 + -0.710902*#2012 + 1.053258*#2007 + -0.007000] F20    
G01 X-0.2648 Y0.3291  Z[2.091460*#2008 + -1.407774*#2011 + -0.651322*#2012 + 0.967636*#2007 + -0.007000] F20    
G01 X-0.2618 Y0.3218  Z[2.171436*#2008 + -1.458815*#2011 + -0.588295*#2012 + 0.875674*#2007 + -0.007000] F20    
G01 X-0.2602 Y0.3142  Z[2.260497*#2008 + -1.517157*#2011 + -0.523843*#2012 + 0.780503*#2007 + -0.007000] F20    
G01 X-0.2602 Y0.2358  Z[0.172304*#2009 + -0.115644*#2010 + -1.925356*#2011 + 2.868696*#2008 + -0.007000] F20    
G01 X-0.2618 Y0.2282  Z[0.266253*#2009 + -0.178874*#2010 + -1.868236*#2011 + 2.780857*#2008 + -0.007000] F20    
G01 X-0.2648 Y0.2209  Z[0.355819*#2009 + -0.239504*#2010 + -1.819592*#2011 + 2.703277*#2008 + -0.007000] F20    
G01 X-0.2691 Y0.2144  Z[0.437960*#2009 + -0.295603*#2010 + -1.780893*#2011 + 2.638536*#2008 + -0.007000] F20    
G00 Z0.1000  
G00 X-0.4691 Y0.2144  
G01 Z-0.0070 F10    
G01 X-0.4747 Y0.2089  Z[0.641340*#2009 + -0.476837*#2010 + -2.421806*#2011 + 3.257303*#2008 + -0.007000] F20    
G01 X-0.4812 Y0.2045  Z[0.713916*#2009 + -0.532012*#2010 + -2.392673*#2011 + 3.210769*#2008 + -0.007000] F20    
G01 X-0.4884 Y0.2015  Z[0.766567*#2009 + -0.572677*#2010 + -2.380944*#2011 + 3.187054*#2008 + -0.007000] F20    
G01 X-0.4961 Y0.2000  Z[0.796868*#2009 + -0.596868*#2010 + -2.387472*#2011 + 3.187472*#2008 + -0.007000] F20    
G01 X-0.5039 Y0.2000  Z[1.003132*#2010 + -0.803132*#2019 + -3.212528*#2018 + 4.012528*#2011 + -0.007000] F20    
G01 X-0.5116 Y0.2015  Z[0.978441*#2010 + -0.784551*#2019 + -3.261827*#2018 + 4.067937*#2011 + -0.007000] F20    
G01 X-0.5188 Y0.2045  Z[0.923220*#2010 + -0.741316*#2019 + -3.333998*#2018 + 4.152094*#2011 + -0.007000] F20    
G01 X-0.5253 Y0.2089  Z[0.839191*#2010 + -0.674687*#2019 + -3.426669*#2018 + 4.262166*#2011 + -0.007000] F20    
G01 X-0.5309 Y0.2144  Z[0.729365*#2010 + -0.587009*#2019 + -3.536494*#2018 + 4.394138*#2011 + -0.007000] F20    
G01 X-0.5352 Y0.2209  Z[0.597964*#2010 + -0.481649*#2019 + -3.659255*#2018 + 4.542940*#2011 + -0.007000] F20    
G01 X-0.5382 Y0.2282  Z[0.450254*#2010 + -0.362875*#2019 + -3.790014*#2018 + 4.702635*#2011 + -0.007000] F20    
G01 X-0.5397 Y0.2358  Z[0.292311*#2010 + -0.235651*#2019 + -3.923349*#2018 + 4.866688*#2011 + -0.007000] F20    
G01 X-0.5397 Y0.3142  Z[3.834891*#2011 + -3.091551*#2018 + -1.067449*#2017 + 1.324109*#2012 + -0.007000] F20    
G01 X-0.5382 Y0.3218  Z[3.672060*#2011 + -2.959438*#2018 + -1.193451*#2017 + 1.480829*#2012 + -0.007000] F20    
G01 X-0.5352 Y0.3291  Z[3.514761*#2011 + -2.831076*#2018 + -1.309828*#2017 + 1.626142*#2012 + -0.007000] F20    
G01 X-0.5309 Y0.3356  Z[3.369439*#2011 + -2.711796*#2018 + -1.411707*#2017 + 1.754064*#2012 + -0.007000] F20    
G01 X-0.5253 Y0.3411  Z[3.241897*#2011 + -2.606400*#2018 + -1.494956*#2017 + 1.859459*#2012 + -0.007000] F20    
G01 X-0.5188 Y0.3455  Z[3.137034*#2011 + -2.518937*#2018 + -1.556377*#2017 + 1.938281*#2012 + -0.007000] F20    
G01 X-0.5116 Y0.3485  Z[3.058664*#2011 + -2.452553*#2018 + -1.593825*#2017 + 1.987714*#2012 + -0.007000] F20    
G01 X-0.5039 Y0.3500  Z[3.009398*#2011 + -2.409398*#2018 + -1.606262*#2017 + 2.006262*#2012 + -0.007000] F20    
G01 X-0.4961 Y0.3500  Z[2.390606*#2008 + -1.790605*#2011 + -1.193734*#2012 + 1.593734*#2007 + -0.007000] F20    
G01 X-0.4884 Y0.3485  Z[2.396332*#2008 + -1.790221*#2011 + -1.163400*#2012 + 1.557289*#2007 + -0.007000] F20    
G01 X-0.4812 Y0.3455  Z[2.425834*#2008 + -1.807737*#2011 + -1.116948*#2012 + 1.498851*#2007 + -0.007000] F20    
G01 X-0.4747 Y0.3411  Z[2.477576*#2008 + -1.842079*#2011 + -1.056564*#2012 + 1.421067*#2007 + -0.007000] F20    
G01 X-0.4691 Y0.3356  Z[2.549354*#2008 + -1.891710*#2011 + -0.984787*#2012 + 1.327143*#2007 + -0.007000] F20    
G01 X-0.4648 Y0.3291  Z[2.638408*#2008 + -1.954723*#2011 + -0.904373*#2012 + 1.220688*#2007 + -0.007000] F20    
G01 X-0.4618 Y0.3218  Z[2.741534*#2008 + -2.028912*#2011 + -0.818198*#2012 + 1.105577*#2007 + -0.007000] F20    
G01 X-0.4602 Y0.3142  Z[2.855169*#2008 + -2.111829*#2011 + -0.729171*#2012 + 0.985831*#2007 + -0.007000] F20    
G01 X-0.4602 Y0.2358  Z[0.217633*#2009 + -0.160972*#2010 + -2.680028*#2011 + 3.623367*#2008 + -0.007000] F20    
G01 X-0.4618 Y0.2282  Z[0.336156*#2009 + -0.248777*#2010 + -2.598333*#2011 + 3.510954*#2008 + -0.007000] F20    
G01 X-0.4648 Y0.2209  Z[0.448871*#2009 + -0.332556*#2010 + -2.526540*#2011 + 3.410225*#2008 + -0.007000] F20    
G01 X-0.4691 Y0.2144  Z[0.551846*#2009 + -0.409489*#2010 + -2.467008*#2011 + 3.324651*#2008 + -0.007000] F20    
G00 Z0.1000  
G82 X-0.3000 Y0.2750  Z-0.0110 F20    R0.1000  P1.000000
G82 X-0.5000 Y0.2750  
G00 Z0.5000  
M05
M02
